<?xml version="1.0" encoding="UTF-8"?>
<map version="1.10" tiledversion="1.11.2" orientation="orthogonal" renderorder="right-down" compressionlevel="0" width="12" height="12" tilewidth="16" tileheight="16" infinite="0" nextlayerid="12" nextobjectid="3">
 <properties>
  <property name="AmbientLight" value="90 90 90"/>
  <property name="Music" value="WizardSong"/>
  <property name="Warp" value="5 12 Custom_Hikawa_Shrine 49 44 6 12 Custom_Hikawa_Shrine 50 44            "/>
 </properties>
 <tileset firstgid="1" name="paths" tilewidth="16" tileheight="16" tilecount="64" columns="4">
  <image source="paths" width="64" height="256"/>
 </tileset>
 <tileset firstgid="65" source="HikawaHall.tsx"/>
 <layer id="1" name="Back" width="12" height="12">
  <data encoding="csv">
0,0,0,0,0,0,0,0,0,0,0,0,
0,0,0,0,0,0,0,0,0,0,0,0,
0,0,0,0,0,0,0,0,0,0,0,0,
0,0,0,0,0,0,0,0,0,0,0,0,
0,0,0,0,0,0,0,0,0,0,0,0,
0,0,0,0,0,0,0,0,0,0,0,0,
0,138,139,140,0,0,0,0,0,0,0,0,
0,150,151,152,0,0,0,0,157,158,159,0,
0,162,163,164,0,0,0,0,169,170,171,0,
0,174,175,176,177,178,179,180,181,182,183,0,
0,0,0,188,189,190,191,192,193,194,195,0,
0,0,0,0,0,0,0,0,0,0,0,0
</data>
 </layer>
 <layer id="2" name="Buildings" width="12" height="12">
  <data encoding="csv">
65,66,67,68,69,70,71,72,73,74,75,76,
77,78,79,80,81,82,83,84,85,86,87,88,
89,90,91,92,93,94,95,96,97,98,99,100,
101,102,103,104,105,106,107,108,109,110,111,112,
113,114,115,116,117,118,119,120,121,122,123,124,
125,126,127,128,129,130,131,132,133,134,135,136,
137,0,0,0,141,142,143,144,145,146,147,148,
149,0,0,0,153,154,155,156,0,0,0,160,
161,0,0,0,165,166,167,168,0,0,0,172,
173,0,0,0,0,0,0,0,0,0,0,184,
185,186,187,0,0,0,0,0,0,0,0,196,
197,198,199,200,201,0,0,204,205,206,207,208
</data>
 </layer>
 <layer id="11" name="Buildings1" width="12" height="12">
  <data encoding="csv">
0,0,0,0,0,0,0,0,0,0,0,0,
0,0,0,0,0,0,0,0,0,0,0,0,
0,0,0,0,0,0,0,0,0,0,0,0,
0,0,0,0,0,0,0,0,0,0,0,0,
0,0,0,0,0,0,0,0,0,0,0,0,
0,0,0,0,0,0,0,0,0,0,0,0,
0,0,0,257,258,259,260,261,262,0,0,0,
0,0,0,269,270,271,272,273,274,0,0,0,
0,0,0,281,282,283,284,285,286,0,0,0,
0,0,0,293,294,295,296,297,298,0,0,0,
0,0,0,0,0,0,0,0,0,0,0,0,
0,0,0,0,0,0,0,0,0,0,0,0
</data>
 </layer>
 <layer id="3" name="Front" width="12" height="12">
  <data encoding="csv">
0,0,0,0,0,0,0,0,0,0,0,0,
0,0,0,0,0,0,0,0,0,0,0,0,
0,0,0,0,0,0,0,0,0,0,0,0,
0,0,0,0,236,0,0,0,0,0,0,0,
0,0,0,2147483884,0,0,0,0,0,0,0,0,
0,0,0,0,0,0,2147483884,0,0,0,0,0,
0,0,0,0,0,2147483884,0,0,0,0,0,0,
0,0,0,0,0,0,0,0,0,0,0,0,
0,0,0,0,0,0,0,0,0,0,0,0,
233,234,235,0,0,0,0,0,0,0,0,0,
0,0,0,0,0,0,0,0,242,243,244,0,
0,0,0,0,0,0,0,0,0,0,0,0
</data>
 </layer>
 <layer id="9" name="AlwaysFront" width="12" height="12">
  <data encoding="csv">
0,0,0,0,0,0,0,0,0,0,0,0,
0,0,0,0,0,0,0,0,0,0,0,0,
0,0,0,0,0,0,0,0,0,0,0,0,
0,0,0,0,0,0,0,0,0,0,0,0,
0,0,0,0,0,0,0,0,0,0,0,0,
0,0,0,0,0,0,0,0,0,0,0,0,
0,0,0,0,0,0,0,0,0,0,0,0,
0,0,0,0,0,0,0,0,0,0,0,0,
0,0,0,0,0,0,0,0,0,0,0,0,
0,0,0,0,0,0,0,0,0,0,0,0,
209,210,211,212,213,214,215,216,217,218,219,220,
221,222,223,224,225,226,227,228,229,230,231,232
</data>
 </layer>
 <layer id="4" name="Paths" width="12" height="12">
  <data encoding="csv">
0,0,0,0,0,0,0,0,0,0,0,0,
0,0,0,0,0,0,0,0,0,0,0,0,
0,0,0,9,0,0,0,0,9,0,0,0,
0,0,0,0,0,0,0,0,0,0,0,0,
0,0,0,0,0,0,0,0,0,0,0,0,
0,0,0,0,0,0,0,0,0,0,0,0,
0,0,0,0,0,9,0,0,0,0,0,0,
0,0,0,0,0,0,0,0,0,0,0,0,
0,0,0,0,0,0,0,0,0,0,0,0,
0,0,0,0,0,0,0,0,0,0,0,0,
0,0,0,0,0,0,9,0,0,0,0,0,
0,0,0,0,0,0,0,0,0,0,0,0
</data>
 </layer>
 <objectgroup id="5" name="Back">
  <object id="1" name="TileData" x="144" y="128" width="16" height="16">
   <properties>
    <property name="TouchAction" value="Custom_Hikawa_Sound Custom_Hikawa_Creak"/>
   </properties>
  </object>
  <object id="2" name="TileData" x="32" y="96" width="16" height="16">
   <properties>
    <property name="TouchAction" value="Custom_Hikawa_Sound Custom_Hikawa_Creak"/>
   </properties>
  </object>
 </objectgroup>
 <objectgroup id="6" name="Buildings"/>
 <objectgroup id="7" name="Front"/>
 <objectgroup id="10" name="AlwaysFront"/>
 <objectgroup id="8" name="Paths"/>
</map>
