<?xml version="1.0" encoding="UTF-8"?>
<map version="1.10" tiledversion="1.11.2" orientation="orthogonal" renderorder="right-down" compressionlevel="0" width="75" height="75" tilewidth="16" tileheight="16" infinite="0" nextlayerid="13" nextobjectid="16">
 <properties>
  <property name="LocationContext" value="Island"/>
  <property name="Outdoors" value="T"/>
  <property name="SeasonOverride" value="summer"/>
  <property name="Warp" value="0 0 Farm 0 0"/>
 </properties>
 <tileset firstgid="1" source="HikawaOutdoors.tsx"/>
 <tileset firstgid="2977" source="island.tsx"/>
 <layer id="1" name="Back" width="75" height="75">
  <data encoding="csv">
3112,3112,3112,3112,3112,3112,3112,3112,3112,3112,3112,3112,3112,3112,3112,3112,3112,3112,3112,3112,3112,3112,3112,3112,3112,3112,3112,3112,3112,3112,3112,3112,3112,3112,3112,3112,3112,3112,3112,3112,3112,3112,3112,3112,3112,3112,3112,3112,3112,3112,3112,3112,3112,3112,3112,3112,3112,3112,3112,3112,3112,3112,3112,3112,3112,3112,3112,3112,3112,3112,3112,3112,3112,3112,3112,
3112,3112,3112,3112,3112,3112,3112,3112,3112,3112,3112,3112,3112,3112,3112,3112,3112,3112,3112,3112,3112,3112,3112,3112,3112,3112,3112,3112,3112,3112,3112,3112,3112,3112,3112,3112,3112,3112,3112,3112,3112,3112,3112,3112,3112,3112,3112,3112,3112,3112,3112,3112,3112,3112,3112,3112,3112,3112,3112,3112,3112,3112,3112,3112,3112,3112,3112,3112,3112,3112,3112,3112,3112,3112,3112,
3112,3112,3112,3112,3112,3112,3112,3112,3112,3112,3112,3112,3112,3112,3112,3112,3112,3112,3112,3112,3112,3112,3112,3112,3112,3112,3112,3112,3112,3112,3112,3112,3112,3112,3112,3112,3112,3112,3112,3112,3112,3112,3112,3112,3112,3112,3112,3112,3112,3112,3112,3112,3112,3112,3112,3112,3112,3112,3112,3112,3112,3112,3112,3112,3112,3112,3112,3112,3112,3112,3112,3112,3112,3112,3112,
3112,3112,3112,3112,3112,3112,3112,3112,3112,3112,3112,3112,3112,3112,3112,3112,3112,3112,3112,3112,3112,3112,3112,3112,3112,3112,3112,3112,3112,3112,3112,3112,3112,3112,3112,3112,3112,3112,3112,3112,3112,3112,3112,3112,3112,3112,3112,3112,3112,3112,3112,3112,3112,3112,3112,3112,3112,3112,3112,3112,3112,3112,3112,3112,3112,3112,3112,3112,3112,3112,3112,3112,3112,3112,3112,
3112,3112,3112,3112,3112,3112,3112,3112,3112,3112,3112,3112,3112,3112,3112,3112,3112,3112,3112,3112,3112,3112,3112,3112,3112,3112,3112,3112,3112,3112,3112,3112,3112,3112,3112,3112,3112,3112,3112,3112,3112,3112,3112,3112,3112,3112,3112,3112,3112,3112,3112,3112,3112,3112,3112,3112,3112,3112,3112,3112,3112,3112,3112,3112,3112,3112,3112,3112,3112,3112,3112,3112,3112,3112,3112,
3112,3112,3112,3112,3112,3112,3112,3112,3112,3112,3112,3112,3112,3112,3112,3112,3112,3112,3112,3112,3112,3112,3112,3112,3112,3112,3112,3112,3112,3112,3112,3112,3112,3112,3112,3112,3112,3112,3112,3112,3112,3112,3112,3112,3112,3112,3112,3112,3112,3112,3112,3112,3112,3112,3112,3112,3112,3112,3112,3112,3112,3112,3112,3112,3112,3112,3112,3112,3112,3112,3112,3112,3112,3112,3112,
3112,3112,3112,3112,3112,3112,3112,3112,3112,3112,3112,3112,3112,3112,3112,3112,3112,3112,3112,3112,3112,3112,3112,3112,3112,3112,3112,3112,3112,3112,3112,3112,3112,3112,3112,3112,3112,3112,3112,3112,3112,3112,3112,3112,3112,3112,3112,3112,3112,3112,3112,3112,3112,3112,3112,3112,3112,3112,3112,3112,3112,3112,3112,3112,3112,3112,3112,3112,3112,3112,3112,3112,3112,3112,3112,
3112,3112,3112,3112,3112,3112,3112,3112,3112,3112,3112,3112,3112,3112,3112,3112,3112,3112,3112,3112,3112,3112,3112,3112,3112,3112,3112,3112,3112,3112,3112,3112,3112,3112,3112,3112,3112,3112,3112,3112,3112,3112,3112,3112,3112,3112,3112,3112,3112,3112,3112,3112,3112,3112,3112,3112,3112,3112,3112,3112,3112,3112,3112,3112,3112,3112,3112,3112,3112,3112,3112,3112,3112,3112,3112,
3112,3112,3112,3112,3112,3112,3112,3112,3112,3112,3112,3112,3112,3112,3112,3112,3112,3112,3112,3112,3112,3112,3112,3112,3112,3112,3112,3112,3112,3112,3112,3112,3112,3112,3112,3112,3112,3112,3112,3112,3112,3112,3112,3112,3112,3112,3112,3112,3112,3112,3112,3112,3112,3112,3112,3112,3112,3112,3112,3112,3112,3112,3112,3112,3112,3112,3112,3112,3112,3112,3112,3112,3112,3112,3112,
3112,3112,3112,3112,3112,3112,3112,3112,3112,3112,3112,3112,3112,3112,3112,3112,3112,3112,3112,3112,3112,3112,3112,3112,3112,3112,3112,3112,3112,3112,3112,3112,3112,3112,3112,3112,3112,3112,3112,3112,3112,3112,3112,3112,3112,3112,3112,3112,3112,3112,3112,3112,3112,3112,3112,3112,3112,3112,3112,3112,3112,3112,3112,3112,3112,3112,3112,3112,3112,3112,3112,3112,3112,3112,3112,
3112,3112,3112,3112,3112,3112,3112,3112,3112,3112,3112,3112,3112,3112,3112,3112,3112,3112,3112,3112,3112,3112,3112,3112,3112,3112,3112,3112,3112,3112,3112,3112,3112,3112,3112,3112,3112,3112,3112,3112,3112,3112,3112,3112,3112,3112,3112,3112,3112,3112,3112,3112,3112,3112,3112,3112,3112,3112,3112,3112,3112,3112,3112,3112,3112,3112,3112,3112,3112,3112,3112,3112,3112,3112,3112,
3112,3112,3112,3112,3112,3112,3112,3112,3112,3112,3112,3112,3112,3112,3112,3112,3112,3112,3112,3112,3112,3112,3112,3112,3112,3112,3112,3112,3112,3112,3112,3112,3112,3112,3112,3112,3112,3112,3112,3112,3112,3112,3112,3112,3112,3112,3112,3112,3112,3112,3112,3112,3112,3112,3112,3112,3112,3112,3112,3112,3112,3112,3112,3112,3112,3112,3112,3112,3112,3112,3112,3112,3112,3112,3112,
3112,3112,3112,3112,3112,3112,3112,3112,3112,3112,3112,3112,3112,3112,3112,3112,3112,3112,3112,3112,3112,3112,3112,3112,3112,3112,3112,3112,3112,3112,3112,3112,3112,3112,3112,3112,3112,3112,3112,3112,3112,3112,3112,3112,3112,3112,3112,3112,3112,3112,3112,3112,3112,3112,3112,3112,3112,3112,3112,3112,3112,3112,3112,3112,3112,3112,3112,3112,3112,3112,3112,3112,3112,3112,3112,
3112,3112,3112,3112,3112,3112,3112,3112,3112,3112,3112,3112,3112,3112,3112,3112,3112,3112,3112,3112,3112,3112,3112,3112,3112,3112,3112,3112,3112,3112,3112,3112,3112,3112,3112,3112,3112,3112,3112,3112,3112,3112,3112,3112,3112,3112,3112,3112,3112,3112,3112,3112,3112,3112,3112,3112,3112,3112,3112,3112,3112,3112,3112,3112,3112,3112,3112,3112,3112,3112,3112,3112,3112,3112,3112,
3112,3112,3112,3112,3112,3112,3112,3112,3112,3112,3112,3112,3112,3112,3112,3112,3112,3112,3112,3112,3112,3112,3112,3112,3112,3112,3112,3112,3112,3112,3112,3112,3112,3112,3112,3112,3112,3112,3112,3112,3112,3112,3112,3112,3112,3112,3112,3112,3112,3112,3112,3112,3112,3112,3112,3112,3112,3112,3112,3112,3112,3112,3112,3112,3112,3112,3112,3112,3112,3112,3112,3112,3112,3112,3112,
3112,3112,3112,3112,3112,3112,3112,3112,3112,3112,3112,3112,3112,3112,3112,3112,3112,3112,3112,3112,3112,3112,3112,3112,3112,3112,3112,3112,3112,3112,3112,3112,3112,3112,3112,3112,3112,3112,3112,3112,3112,3112,3112,3112,3112,3112,3112,3112,3112,3112,3112,3112,3112,3112,3112,3112,3112,3112,3112,3112,3112,3112,3112,3112,3112,3112,3112,3112,3112,3112,3112,3112,3112,3112,3112,
3112,3112,3112,3112,3112,3112,3112,3112,3112,3112,3112,3112,3112,3112,3112,3112,3112,3112,3112,3112,3112,3112,3112,3112,3112,3112,3112,3112,3112,3112,3112,3112,3112,3112,3112,3112,3112,3112,3112,3112,3112,3112,3112,3112,3112,3112,3112,3112,3112,3112,3112,3112,3112,3112,3112,3112,3112,3112,3112,3112,3112,3112,3112,3112,3112,3112,3112,3112,3112,3112,3112,3112,3112,3112,3112,
3112,3112,3112,3112,3112,3112,3112,3112,3112,3112,3112,3112,3112,3112,3112,3112,3112,3112,3112,3112,3112,3112,3112,3112,3112,3112,3112,3112,3112,3112,3112,3112,3112,3112,3112,3112,3112,3112,3112,3112,3112,3112,3112,3112,3112,3112,3112,3112,3112,3112,3112,3112,3112,3112,3112,3112,3112,3112,3112,3112,3112,3112,3112,3112,3112,3112,3112,3112,3112,3112,3112,3112,3112,3112,3112,
3112,3112,3112,3112,3112,3112,3112,3112,3112,3112,3112,3112,3112,3112,3112,3112,3112,3112,3112,3112,3112,3112,3112,3112,3112,3112,3112,3112,3112,3112,3112,3112,3112,3112,3112,3112,3112,3112,3112,3112,3112,3112,3112,3112,3112,3112,3112,3112,3112,3112,3112,3112,3112,3112,3112,3112,3112,3112,3112,3112,3112,3112,3112,3112,3112,3112,3112,3112,3112,3112,3112,3112,3112,3112,3112,
3112,3112,3112,3112,3112,3112,3112,3112,3112,3112,3112,3112,3112,3112,3112,3112,3112,3112,3112,3112,3112,3112,3112,3112,3112,3112,3112,3112,3112,3112,3112,3112,3112,3112,3112,3112,3112,3112,3112,3112,3112,3112,3112,3112,3112,3112,3112,3112,3112,3112,3112,3112,3112,3112,3112,3112,3112,3112,3112,3112,3112,3112,3112,3112,3112,3112,3112,3112,3112,3112,3112,3112,3112,3112,3112,
3112,3112,3112,3112,3112,3112,3112,3112,3112,3112,3112,3112,3112,3112,3112,3112,3112,3112,3112,3112,3112,3112,3112,3112,3112,3112,3112,3112,3112,3112,3112,3112,3112,3112,3112,3112,3112,3112,3112,3112,3112,3112,3112,3112,3112,3112,3112,3112,3112,3112,3112,3112,3112,3112,3112,3112,3112,3112,3112,3112,3112,3112,3112,3112,3112,3112,3112,3112,3112,3112,3112,3112,3112,3112,3112,
3112,3112,3112,3112,3112,3112,3112,3112,3112,3112,3112,3112,3112,3112,3112,3112,3112,3112,3112,3112,3112,3112,3112,3112,3112,3112,3112,3112,3112,3112,3112,3112,3112,3112,3112,3112,3112,3112,3112,3112,3112,3112,3112,3112,3112,3112,3112,3112,3112,3112,3112,3112,3112,3112,3112,3112,3112,3112,3112,3112,3112,3112,3112,3112,3112,3112,3112,3112,3112,3112,3112,3112,3112,3112,3112,
3112,3112,3112,3112,3112,3112,3112,3112,3112,3112,3112,3112,3112,3112,3112,3112,3112,3112,3112,3112,3112,3112,3112,3112,3112,3112,3112,3112,3112,3112,3112,3112,3112,3112,3112,3112,3112,3112,3112,3112,3112,3112,3112,3112,3112,3112,3112,3112,3112,3112,3112,3112,3112,3112,3112,3112,3112,3112,3112,3112,3112,3112,3112,3112,3112,3112,3112,3112,3112,3112,3112,3112,3112,3112,3112,
3112,3112,3112,3112,3112,3112,3112,3112,3112,3112,3112,3112,3112,3112,3112,3112,3112,3112,3112,3112,3112,3112,3112,3112,3112,3112,3112,3112,3112,3112,3112,3112,3112,3112,3112,3112,3112,3112,3112,3112,3112,3112,3112,3112,3112,3112,3112,3112,3112,3112,3112,3112,3112,3112,3112,3112,3112,3112,3112,3112,3112,3112,3112,3112,3112,3112,3112,3112,3112,3112,3112,3112,3112,3112,3112,
3112,3112,3112,3112,3112,3112,3112,3112,3112,3112,3112,3112,3112,3112,3112,3112,3112,3112,3112,3112,3112,3112,3112,3112,3112,3112,3112,3112,3112,3112,3112,3112,3112,3112,3112,3112,3112,3112,3112,3112,3112,3112,3112,3112,3112,3112,3112,3112,3112,3112,3112,3112,3112,3112,3112,3112,3112,3112,3112,3112,3112,3112,3112,3112,3112,3112,3112,3112,3112,3112,3112,3112,3112,3112,3112,
3112,3112,3112,3112,3112,3112,3112,3112,3112,3112,3112,3112,3112,3112,3112,3112,3112,3112,3112,3112,3112,3112,3112,3112,3112,3112,3112,3112,3112,3112,3112,3112,3112,3112,3112,3112,3112,3112,3112,3112,3112,3112,3112,3112,3112,3112,3112,3112,3112,3112,3112,3112,3112,3112,3112,3112,3112,3112,3112,3112,3112,3112,3112,3112,3112,3112,3112,3112,3112,3112,3112,3112,3112,3112,3112,
3112,3112,3112,3112,3112,3112,3112,3112,3112,3112,3112,3112,3112,3112,3112,3112,3112,3112,3112,3112,3112,3112,3112,3112,3112,3112,3112,3112,3112,3112,3112,3112,3112,3112,3112,3112,3112,3112,3112,3112,3112,3112,3112,3112,3112,3112,3112,3112,3112,3112,3112,3112,3112,3112,3112,3112,3112,3112,3112,3112,3112,3112,3112,3112,3112,3112,3112,3112,3112,3112,3112,3112,3112,3112,3112,
3112,3112,3112,3112,3112,3112,3112,3112,3112,3112,3112,3112,3112,3112,3112,3112,3112,3112,3112,3112,3112,3112,3112,3112,3112,3112,3112,3112,3112,3112,3112,3112,3112,3112,3112,3112,3112,3112,3112,3112,3112,3112,3112,3112,3112,3112,3112,3112,3112,3112,3112,3112,3112,3112,3112,3112,3112,3112,3112,3112,3112,3112,3112,3112,3112,3112,3112,3112,3112,3112,3112,3112,3112,3112,3112,
3112,3112,3112,3112,3112,3112,3112,3112,3112,3112,3112,3112,3112,3112,3112,3112,3112,3112,3112,3112,3112,3112,3112,3112,3112,3112,3112,3112,3112,3112,3112,3112,3112,3112,3112,3112,3112,3112,3112,3112,3112,3112,3112,3112,3112,3112,3112,3112,3112,3112,3112,3112,3112,3112,3112,3112,3112,3112,3112,3112,3112,3112,3112,3112,3112,3112,3112,3112,3112,3112,3112,3112,3112,3112,3112,
3112,3112,3112,3112,3112,3112,3112,3112,3112,3112,3112,3112,3112,3112,3112,3112,3112,3112,3112,3112,3112,3112,3112,3112,3112,3112,3112,3112,3112,3112,3112,3112,3112,3112,3112,3112,3112,3112,3112,3112,3112,3112,3112,3112,3112,3112,3112,3112,3112,3112,3112,3112,3112,3112,3112,3112,3112,3112,3112,3112,3112,3112,3112,3112,3112,3112,3112,3112,3112,3112,3112,3112,3112,3112,3112,
3112,3112,3112,3112,3112,3112,3112,3112,3112,3112,3112,3112,3112,3112,3112,3112,3112,3112,3112,3112,3112,3112,3112,3112,3112,3112,3112,3112,3112,3112,3112,3112,3112,3112,3112,3112,3112,3112,3112,3112,3112,3112,3112,3112,3112,3112,3112,3112,3112,3112,3112,3112,3112,3112,3112,3112,3112,3112,3112,3112,3112,3112,3112,3112,3112,3112,3112,3112,3112,3112,3112,3112,3112,3112,3112,
3112,3112,3112,3112,3112,3112,3112,3112,3112,3112,3112,3112,3112,3112,3112,3112,3112,3112,3112,3112,3112,3112,3112,3112,3112,3112,3112,3112,3112,3112,3112,3112,3112,3112,3112,3112,3112,3112,3112,3112,3112,3112,3112,3112,3112,3112,3112,3112,3112,3112,3112,3112,3112,3112,3112,3112,3112,3112,3112,3112,3112,3112,3112,3112,3112,3112,3112,3112,3112,3112,3112,3112,3112,3112,3112,
3112,3112,3112,3112,3112,3112,3112,3112,3112,3112,3112,3112,3112,3112,3112,3112,3112,3112,3112,3112,3112,3112,3112,3112,3112,3112,3112,3112,3112,3112,3112,3112,3112,3112,3112,3112,3112,3112,3112,3112,3112,3112,3112,3112,3112,3112,3112,3112,3112,3112,3112,3112,3112,3112,3112,3112,3112,3112,3112,3112,3112,3112,3112,3112,3112,3112,3112,3112,3112,3112,3112,3112,3112,3112,3112,
3112,3112,3112,3112,3112,3112,3112,3112,3112,3112,3112,3112,3112,3112,3112,3112,3112,3112,3112,3112,3112,3112,3112,3112,3112,3112,3112,3112,3112,3112,3112,3112,3112,3112,3112,3112,3112,3112,3112,3112,3112,3112,3112,3112,3112,3112,3112,3112,3112,3112,3112,3112,3112,3112,3112,3112,3112,3112,3112,3112,3112,3112,3112,3112,3112,3112,3112,3112,3112,3112,3112,3112,3112,3112,3112,
3112,3112,3112,3112,3112,3112,3112,3112,3112,3112,3112,3112,3112,3112,3112,3112,3112,3112,3112,3112,3112,3112,3112,3112,3112,3112,3112,3112,3112,3112,3112,3112,3112,3112,3112,3112,3112,3112,3112,3112,3112,3112,3112,3112,3112,3112,3112,3112,3112,3112,3112,3112,3112,3112,3112,3112,3112,3112,3112,3112,3112,3112,3112,3112,3112,3112,3112,3112,3112,3112,3112,3112,3112,3112,3112,
3112,3112,3112,3112,3112,3112,3112,3112,3112,3112,3112,3112,3112,3112,3112,3112,3112,3112,3112,3112,3112,3112,3112,3112,3112,3112,3112,3112,3112,3112,3112,3112,3112,3112,3112,3112,3112,3112,3112,3112,3112,3112,3112,3112,3112,3112,3112,3112,3112,3112,3112,3112,3112,3112,3112,3112,3112,3112,3112,3112,3112,3112,3112,3112,3112,3112,3112,3112,3112,3112,3112,3112,3112,3112,3112,
3112,3112,3112,3112,3112,3112,3112,3112,3112,3112,3112,3112,3112,3112,3112,3112,3112,3112,3112,3112,3112,3112,3112,3112,3112,3112,3112,3112,3112,3112,3112,3112,3112,3112,3112,3112,3112,3112,3112,3112,3112,3112,3112,3112,3112,3112,3112,3112,3112,3112,3112,3112,3112,3112,3112,3112,3112,3112,3112,3112,3112,3112,3112,3112,3112,3112,3112,3112,3112,3112,3112,3112,3112,3112,3112,
3112,3112,3112,3112,3112,3112,3112,3112,3112,3112,3112,3112,3112,3112,3112,3112,3112,3112,3112,3112,3112,3112,3112,3112,3112,3112,3112,3112,3112,3112,3112,3112,3112,3112,3112,3112,3112,3112,3112,3112,3112,3112,3112,3112,3112,3112,3112,3112,3112,3112,3112,3112,3112,3112,3112,3112,3112,3112,3112,3112,3112,3112,3112,3112,3112,3112,3112,3112,3112,3112,3112,3112,3112,3112,3112,
3112,3112,3112,3112,3112,3112,3112,3112,3112,3112,3112,3112,3112,3112,3112,3112,3112,3112,3112,3112,3112,3112,3112,3112,3112,3112,3112,3112,3112,3112,3112,3112,3112,3112,3112,3112,3112,3112,3112,3112,3112,3112,3112,3112,3112,3112,3112,3112,3112,3112,3112,3112,3112,3112,3112,3112,3112,3112,3112,3112,3112,3112,3112,3112,3112,3112,3112,3112,3112,3112,3112,3112,3112,3112,3112,
3112,3112,3112,3112,3112,3112,3112,3112,3112,3112,3112,3112,3112,3112,3112,3112,3112,3112,3112,3112,3112,3112,3112,3112,3112,3112,3112,3112,3112,3112,3112,3112,3112,3112,3112,3112,3112,3112,3112,3112,3112,3112,3112,3112,3112,3112,3112,3112,3112,3112,3112,3112,3112,3112,3112,3112,3112,3112,3112,3112,3112,3112,3112,3112,3112,3112,3112,3112,3112,3112,3112,3112,3112,3112,3112,
3112,3112,3112,3112,3112,3112,3112,3112,3112,3112,3112,3112,3112,3112,3112,3112,3112,3112,3112,3112,3112,3112,3112,3112,3112,3112,3112,3112,3112,3112,3112,3112,3112,3112,3112,3112,3112,3112,3112,3112,3112,3112,3112,3112,3112,3112,3112,3112,3112,3112,3112,3112,3112,3112,3112,3112,3112,3112,3112,3112,3112,3112,3112,3112,3112,3112,3112,3112,3112,3112,3112,3112,3112,3112,3112,
3112,3112,3112,3112,3112,3112,3112,3112,3112,3112,3112,3112,3112,3112,3112,3112,3112,3112,3112,3112,3112,3112,3112,3112,3112,3112,3112,3112,3112,3112,3112,3112,3112,3112,3112,3112,3112,3112,3112,3112,3112,3112,3112,3112,3112,3112,3112,3112,3112,3112,3112,3112,3112,3112,3112,3112,3112,3112,3112,3112,3112,3112,3112,3112,3112,3112,3112,3112,3112,3112,3112,3112,3112,3112,3112,
3112,3112,3112,3112,3112,3112,3112,3112,3112,3112,3112,3112,3112,3112,3112,3112,3112,3112,3112,3112,3112,3112,3112,3112,3112,3112,3112,3112,3112,3112,3112,3112,3112,3112,3112,3112,3112,3112,3112,3112,3112,3112,3112,3112,3112,3112,3112,3112,3112,3112,3112,3112,3112,3112,3112,3112,3112,3112,3112,3112,3112,3112,3112,3112,3112,3112,3112,3112,3112,3112,3112,3112,3112,3112,3112,
3112,3112,3112,3112,3112,3112,3112,3112,3112,3112,3112,3112,3112,3112,3112,3112,3112,3112,3112,3112,3112,3112,3112,3112,3112,3112,3112,3112,3112,3112,3112,3112,3112,3112,3112,3112,3112,3112,3112,3112,3112,3112,3112,3112,3112,3112,3112,3112,3112,3112,3112,3112,3112,3112,3112,3112,3112,3112,3112,3112,3112,3112,3112,3112,3112,3112,3112,3112,3112,3112,3112,3112,3112,3112,3112,
3112,3112,3112,3112,3112,3112,3112,3112,3112,3112,3112,3112,3112,3112,3112,3112,3112,3112,3112,3112,3112,3112,3112,3112,3112,3112,3112,3112,3112,3112,3112,3112,3112,3112,3112,3112,3112,3112,3112,3112,3112,3112,3112,3112,3112,3112,3112,3112,3112,3112,3112,3112,3112,3112,3112,3112,3112,3112,3112,3112,3112,3112,3112,3112,3112,3112,3112,3112,3112,3112,3112,3112,3112,3112,3112,
3112,3112,3112,3112,3112,3112,3112,3112,3112,3112,3112,3112,3112,3112,3112,3112,3112,3112,3112,3112,3112,3112,3112,3112,3112,3112,3112,3112,3112,3112,3112,3112,3112,3112,3112,3112,3112,3112,3112,3112,3112,3112,3112,3112,3112,3112,3112,3112,3112,3112,3112,3112,3112,3112,3112,3112,3112,3112,3112,3112,3112,3112,3112,3112,3112,3112,3112,3112,3112,3112,3112,3112,3112,3112,3112,
3112,3112,3112,3112,3112,3112,3112,3112,3112,3112,3112,3112,3112,3112,3112,3112,3112,3112,3112,3112,3112,3112,3112,3112,3112,3112,3112,3112,3112,3112,3112,3112,3112,3112,3112,3112,3112,3112,3112,3112,3112,3112,3112,3112,3112,3112,3112,3112,3112,3112,3112,3112,3112,3112,3112,3112,3112,3112,3112,3112,3112,3112,3112,3112,3112,3112,3112,3112,3112,3112,3112,3112,3112,3112,3112,
3112,3112,3112,3112,3112,3112,3112,3112,3112,3112,3112,3112,3112,3112,3112,3112,3112,3112,3112,3112,3112,3112,3112,3112,3112,3112,3112,3112,3112,3112,3112,3112,3112,3112,3112,3112,3112,3112,3112,3112,3112,3112,3112,3112,3112,3112,3112,3112,3112,3112,3112,3112,3112,3112,3112,3112,3112,3112,3112,3112,3112,3112,3112,3112,3112,3112,3112,3112,3112,3112,3112,3112,3112,3112,3112,
3112,3112,3112,3112,3112,3112,3112,3112,3112,3112,3112,3112,3112,3112,3112,3112,3112,3112,3112,3112,3112,3112,3112,3112,3112,3112,3112,3112,3112,3112,3112,3112,3112,3112,3112,3112,3112,3112,3112,3112,3112,3112,3112,3112,3112,3112,3112,3112,3112,3112,3112,3112,3112,3112,3112,3112,3112,3112,3112,3112,3112,3112,3112,3112,3112,3112,3112,3112,3112,3112,3112,3112,3112,3112,3112,
3112,3112,3112,3112,3112,3112,3112,3112,3112,3112,3112,3112,3112,3112,3112,3112,3112,3112,3112,3112,3112,3112,3112,3112,3112,3112,3112,3112,3112,3112,3112,3112,3112,3112,3112,3112,3112,3112,3112,3112,3112,3112,3112,3112,3112,3112,3112,3112,3112,3112,3112,3112,3112,3112,3112,3112,3112,3112,3112,3112,3112,3112,3112,3112,3112,3112,3112,3112,3112,3112,3112,3112,3112,3112,3112,
3112,3112,3112,3112,3112,3112,3112,3112,3112,3112,3112,3112,3112,3112,3112,3112,3112,3112,3112,3112,3112,3112,3112,3112,3112,3112,3112,3112,3112,3112,3112,3112,3112,3112,3112,3112,3112,3112,3112,3112,3112,3112,3112,3112,3112,3112,3112,3112,3112,3112,3112,3112,3112,3112,3112,3112,3112,3112,3112,3112,3112,3112,3112,3112,3112,3112,3112,3112,3112,3112,3112,3112,3112,3112,3112,
3112,3112,3112,3112,3112,3112,3112,3112,3112,3112,3112,3112,3112,3112,3112,3112,3112,3112,3112,3112,3112,3112,3112,3112,3112,3112,3112,3112,3112,3112,3112,3112,3112,3112,3112,3112,3112,3112,3112,3112,3112,3112,3112,3112,3112,3112,3112,3112,3112,3112,3112,3112,3112,3112,3112,3112,3112,3112,3112,3112,3112,3112,3112,3112,3112,3112,3112,3112,3112,3112,3112,3112,3112,3112,3112,
3112,3112,3112,3112,3112,3112,3112,3112,3112,3112,3112,3112,3112,3112,3112,3112,3112,3112,3112,3112,3112,3112,3112,3112,3112,3112,3112,3112,3112,3112,3112,3112,3112,3112,3112,3112,3112,3112,3112,3112,3112,3112,3112,3112,3112,3112,3112,3112,3112,3112,3112,3112,3112,3112,3112,3112,3112,3112,3112,3112,3112,3112,3112,3112,3112,3112,3112,3112,3112,3112,3112,3112,3112,3112,3112,
3112,3112,3112,3112,3112,3112,3112,3112,3112,3112,3112,3112,3112,3112,3112,3112,3112,3112,3112,3112,3112,3112,3112,3112,3112,3112,3112,3112,3112,3112,3112,3112,3112,3112,3112,3112,3112,3112,3112,3112,3112,3112,3112,3112,3112,3112,3112,3112,3112,3112,3112,3112,3112,3112,3112,3112,3112,3112,3112,3112,3112,3112,3112,3112,3112,3112,3112,3112,3112,3112,3112,3112,3112,3112,3112,
3112,3112,3112,3112,3112,3112,3112,3112,3112,3112,3112,3112,3112,3112,3112,3112,3112,3112,3112,3112,3112,3112,3112,3112,3112,3112,3112,3112,3112,3112,3112,3112,3112,3112,3112,3112,3112,3112,3112,3112,3112,3112,3112,3112,3112,3112,3112,3112,3112,3112,3112,3112,3112,3112,3112,3112,3112,3112,3112,3112,3112,3112,3112,3112,3112,3112,3112,3112,3112,3112,3112,3112,3112,3112,3112,
3112,3112,3112,3112,3112,3112,3112,3112,3112,3112,3112,3112,3112,3112,3112,3112,3112,3112,3112,3112,3112,3112,3112,3112,3112,3112,3112,3112,3112,3112,3112,3112,3112,3112,3112,3112,3112,3112,3112,3112,3112,3112,3112,3112,3112,3112,3112,3112,3112,3112,3112,3112,3112,3112,3112,3112,3112,3112,3112,3112,3112,3112,3112,3112,3112,3112,3112,3112,3112,3112,3112,3112,3112,3112,3112,
3112,3112,3112,3112,3112,3112,3112,3112,3112,3112,3112,3112,3112,3112,3112,3112,3112,3112,3112,3112,3112,3112,3112,3112,3112,3112,3112,3112,3112,3112,3112,3112,3112,3112,3112,3112,3112,3112,3112,3112,3112,3112,3112,3112,3112,3112,3112,3112,3112,3112,3112,3112,3112,3112,3112,3112,3112,3112,3112,3112,3112,3112,3112,3112,3112,3112,3112,3112,3112,3112,3112,3112,3112,3112,3112,
3112,3112,3112,3112,3112,3112,3112,3112,3112,3112,3112,3112,3112,3112,3112,3112,3112,3112,3112,3112,3112,3112,3112,3112,3112,3112,3112,3112,3112,3112,3112,3112,3112,3112,3112,3112,3112,3112,3112,3112,3112,3112,3112,3112,3112,3112,3112,3112,3112,3112,3112,3112,3112,3112,3112,3112,3112,3112,3112,3112,3112,3112,3112,3112,3112,3112,3112,3112,3112,3112,3112,3112,3112,3112,3112,
3112,3112,3112,3112,3112,3112,3112,3112,3112,3112,3112,3112,3112,3112,3112,3112,3112,3112,3112,3112,3112,3112,3112,3112,3112,3112,3112,3112,3112,3112,3112,3112,3112,3112,3112,3112,3112,3112,3112,3112,3112,3112,3112,3112,3112,3112,3112,3112,3112,3112,3112,3112,3112,3112,3112,3112,3112,3112,3112,3112,3112,3112,3112,3112,3112,3112,3112,3112,3112,3112,3112,3112,3112,3112,3112,
3112,3112,3112,3112,3112,3112,3112,3112,3112,3112,3112,3112,3112,3112,3112,3112,3112,3112,3112,3112,3112,3112,3112,3112,3112,3112,3112,3112,3112,3112,3112,3112,3112,3112,3112,3112,3112,3112,3112,3112,3112,3112,3112,3112,3112,3112,3112,3112,3112,3112,3112,3112,3112,3112,3112,3112,3112,3112,3112,3112,3112,3112,3112,3112,3112,3112,3112,3112,3112,3112,3112,3112,3112,3112,3112,
3112,3112,3112,3112,3112,3112,3112,3112,3112,3112,3112,3112,3112,3112,3112,3112,3112,3112,3112,3112,3112,3112,3112,3112,3112,3112,3112,3112,3112,3112,3112,3112,3112,3112,3112,3112,3112,3112,3112,3112,3112,3112,3112,3112,3112,3112,3112,3112,3112,3112,3112,3112,3112,3112,3112,3112,3112,3112,3112,3112,3112,3112,3112,3112,3112,3112,3112,3112,3112,3112,3112,3112,3112,3112,3112,
3112,3112,3112,3112,3112,3112,3112,3112,3112,3112,3112,3112,3112,3112,3112,3112,3112,3112,3112,3112,3112,3112,3112,3112,3112,3112,3112,3112,3112,3112,3112,3112,3112,3112,3112,3112,3112,3112,3112,3112,3112,3112,3112,3112,3112,3112,3112,3112,3112,3112,3112,3112,3112,3112,3112,3112,3112,3112,3112,3112,3112,3112,3112,3112,3112,3112,3112,3112,3112,3112,3112,3112,3112,3112,3112,
3112,3112,3112,3112,3112,3112,3112,3112,3112,3112,3112,3112,3112,3112,3112,3112,3112,3112,3112,3112,3112,3112,3112,3112,3112,3112,3112,3112,3112,3112,3112,3112,3112,3112,3112,3112,3112,3112,3112,3112,3112,3112,3112,3112,3112,3112,3112,3112,3112,3112,3112,3112,3112,3112,3112,3112,3112,3112,3112,3112,3112,3112,3112,3112,3112,3112,3112,3112,3112,3112,3112,3112,3112,3112,3112,
3112,3112,3112,3112,3112,3112,3112,3112,3112,3112,3112,3112,3112,3112,3112,3112,3112,3112,3112,3112,3112,3112,3112,3112,3112,3112,3112,3112,3112,3112,3112,3112,3112,3112,3112,3112,3112,3112,3112,3112,3112,3112,3112,3112,3112,3112,3112,3112,3112,3112,3112,3112,3112,3112,3112,3112,3112,3112,3112,3112,3112,3112,3112,3112,3112,3112,3112,3112,3112,3112,3112,3112,3112,3112,3112,
3112,3112,3112,3112,3112,3112,3112,3112,3112,3112,3112,3112,3112,3112,3112,3112,3112,3112,3112,3112,3112,3112,3112,3112,3112,3112,3112,3112,3112,3112,3112,3112,3112,3112,3112,3112,3112,3112,3112,3112,3112,3112,3112,3112,3112,3112,3112,3112,3112,3112,3112,3112,3112,3112,3112,3112,3112,3112,3112,3112,3112,3112,3112,3112,3112,3112,3112,3112,3112,3112,3112,3112,3112,3112,3112,
3112,3112,3112,3112,3112,3112,3112,3112,3112,3112,3112,3112,3112,3112,3112,3112,3112,3112,3112,3112,3112,3112,3112,3112,3112,3112,3112,3112,3112,3112,3112,3112,3112,3112,3112,3112,3112,3112,3112,3112,3112,3112,3112,3112,3112,3112,3112,3112,3112,3112,3112,3112,3112,3112,3112,3112,3112,3112,3112,3112,3112,3112,3112,3112,3112,3112,3112,3112,3112,3112,3112,3112,3112,3112,3112,
3112,3112,3112,3112,3112,3112,3112,3112,3112,3112,3112,3112,3112,3112,3112,3112,3112,3112,3112,3112,3112,3112,3112,3112,3112,3112,3112,3112,3112,3112,3112,3112,3112,3112,3112,3112,3112,3112,3112,3112,3112,3112,3112,3112,3112,3112,3112,3112,3112,3112,3112,3112,3112,3112,3112,3112,3112,3112,3112,3112,3112,3112,3112,3112,3112,3112,3112,3112,3112,3112,3112,3112,3112,3112,3112,
3112,3112,3112,3112,3112,3112,3112,3112,3112,3112,3112,3112,3112,3112,3112,3112,3112,3112,3112,3112,3112,3112,3112,3112,3112,3112,3112,3112,3112,3112,3112,3112,3112,3112,3112,3112,3112,3112,3112,3112,3112,3112,3112,3112,3112,3112,3112,3112,3112,3112,3112,3112,3112,3112,3112,3112,3112,3112,3112,3112,3112,3112,3112,3112,3112,3112,3112,3112,3112,3112,3112,3112,3112,3112,3112,
3112,3112,3112,3112,3112,3112,3112,3112,3112,3112,3112,3112,3112,3112,3112,3112,3112,3112,3112,3112,3112,3112,3112,3112,3112,3112,3112,3112,3112,3112,3112,3112,3112,3112,3112,3112,3112,3112,3112,3112,3112,3112,3112,3112,3112,3112,3112,3112,3112,3112,3112,3112,3112,3112,3112,3112,3112,3112,3112,3112,3112,3112,3112,3112,3112,3112,3112,3112,3112,3112,3112,3112,3112,3112,3112,
3112,3112,3112,3112,3112,3112,3112,3112,3112,3112,3112,3112,3112,3112,3112,3112,3112,3112,3112,3112,3112,3112,3112,3112,3112,3112,3112,3112,3112,3112,3112,3112,3112,3112,3112,3112,3112,3112,3112,3112,3112,3112,3112,3112,3112,3112,3112,3112,3112,3112,3112,3112,3112,3112,3112,3112,3112,3112,3112,3112,3112,3112,3112,3112,3112,3112,3112,3112,3112,3112,3112,3112,3112,3112,3112,
3112,3112,3112,3112,3112,3112,3112,3112,3112,3112,3112,3112,3112,3112,3112,3112,3112,3112,3112,3112,3112,3112,3112,3112,3112,3112,3112,3112,3112,3112,3112,3112,3112,3112,3112,3112,3112,3112,3112,3112,3112,3112,3112,3112,3112,3112,3112,3112,3112,3112,3112,3112,3112,3112,3112,3112,3112,3112,3112,3112,3112,3112,3112,3112,3112,3112,3112,3112,3112,3112,3112,3112,3112,3112,3112,
3112,3112,3112,3112,3112,3112,3112,3112,3112,3112,3112,3112,3112,3112,3112,3112,3112,3112,3112,3112,3112,3112,3112,3112,3112,3112,3112,3112,3112,3112,3112,3112,3112,3112,3112,3112,3112,3112,3112,3112,3112,3112,3112,3112,3112,3112,3112,3112,3112,3112,3112,3112,3112,3112,3112,3112,3112,3112,3112,3112,3112,3112,3112,3112,3112,3112,3112,3112,3112,3112,3112,3112,3112,3112,3112,
3112,3112,3112,3112,3112,3112,3112,3112,3112,3112,3112,3112,3112,3112,3112,3112,3112,3112,3112,3112,3112,3112,3112,3112,3112,3112,3112,3112,3112,3112,3112,3112,3112,3112,3112,3112,3112,3112,3112,3112,3112,3112,3112,3112,3112,3112,3112,3112,3112,3112,3112,3112,3112,3112,3112,3112,3112,3112,3112,3112,3112,3112,3112,3112,3112,3112,3112,3112,3112,3112,3112,3112,3112,3112,3112,
3112,3112,3112,3112,3112,3112,3112,3112,3112,3112,3112,3112,3112,3112,3112,3112,3112,3112,3112,3112,3112,3112,3112,3112,3112,3112,3112,3112,3112,3112,3112,3112,3112,3112,3112,3112,3112,3112,3112,3112,3112,3112,3112,3112,3112,3112,3112,3112,3112,3112,3112,3112,3112,3112,3112,3112,3112,3112,3112,3112,3112,3112,3112,3112,3112,3112,3112,3112,3112,3112,3112,3112,3112,3112,3112,
3112,3112,3112,3112,3112,3112,3112,3112,3112,3112,3112,3112,3112,3112,3112,3112,3112,3112,3112,3112,3112,3112,3112,3112,3112,3112,3112,3112,3112,3112,3112,3112,3112,3112,3112,3112,3112,3112,3112,3112,3112,3112,3112,3112,3112,3112,3112,3112,3112,3112,3112,3112,3112,3112,3112,3112,3112,3112,3112,3112,3112,3112,3112,3112,3112,3112,3112,3112,3112,3112,3112,3112,3112,3112,3112
</data>
 </layer>
 <layer id="9" name="Back1" width="75" height="75">
  <data encoding="csv">
0,0,0,0,0,0,0,0,0,0,0,0,0,0,0,0,0,0,0,0,0,0,0,0,0,0,0,0,0,0,0,0,0,0,0,0,0,0,0,0,0,0,0,0,0,0,0,0,0,0,0,0,0,0,0,0,0,0,0,0,0,0,0,0,0,0,0,0,0,0,0,0,0,0,0,
0,0,0,0,0,0,0,0,0,0,0,0,0,0,0,0,0,0,0,0,0,0,0,0,0,0,0,0,0,0,0,0,0,0,0,0,0,0,0,0,0,0,0,0,0,0,0,0,0,0,0,0,0,0,0,0,0,0,0,0,0,0,0,0,0,0,0,0,0,0,0,0,0,0,0,
0,0,0,0,0,0,0,0,0,0,0,0,0,0,0,0,0,0,0,0,0,0,0,0,0,0,0,0,0,0,0,0,0,0,0,0,0,0,0,0,0,0,0,0,0,0,0,0,0,0,0,0,0,0,0,0,0,0,0,0,0,0,0,0,0,0,0,0,0,0,0,0,0,0,0,
0,0,0,0,0,0,0,0,0,0,0,0,0,0,0,0,0,0,0,0,0,0,0,0,0,0,0,0,0,0,0,0,0,0,0,0,0,0,0,0,0,0,0,0,0,0,0,0,0,0,0,0,0,0,0,0,0,0,0,0,0,0,0,0,0,0,0,0,0,0,0,0,0,0,0,
0,0,0,0,0,0,0,0,0,0,0,0,0,0,0,0,0,0,0,0,0,0,0,0,0,0,0,0,0,0,0,0,0,0,0,0,0,0,0,0,0,0,0,0,0,0,0,0,0,0,0,0,0,0,0,0,0,0,0,0,0,0,0,0,0,0,0,0,0,0,0,0,0,0,0,
0,0,0,0,0,0,0,0,0,0,0,0,0,0,0,0,0,0,0,0,0,0,0,0,0,0,0,0,0,0,0,0,0,0,0,0,0,0,0,0,0,0,0,0,0,0,0,0,0,0,0,0,0,0,0,0,0,0,0,0,0,0,0,0,0,0,0,0,0,0,0,0,0,0,0,
0,0,0,0,0,0,0,0,0,0,0,0,0,0,0,0,0,0,0,0,0,0,0,0,0,0,0,0,0,0,0,0,0,0,0,0,0,0,0,0,0,0,0,0,0,0,0,0,0,0,0,0,0,0,0,0,0,0,0,0,0,0,0,0,0,0,0,0,0,0,0,0,0,0,0,
0,0,0,0,0,0,0,0,0,0,0,0,0,0,0,0,0,0,0,0,0,0,0,0,0,0,0,0,0,0,0,0,0,0,0,0,0,0,0,0,0,0,0,0,0,0,0,0,0,0,0,0,0,0,0,0,0,0,0,0,0,0,0,0,0,0,0,0,0,0,0,0,0,0,0,
0,0,0,0,0,0,0,0,0,0,0,0,0,0,0,0,0,0,0,0,0,0,0,0,0,0,0,0,0,0,0,0,0,0,0,0,0,0,0,0,0,0,0,0,0,0,0,0,0,0,0,0,0,0,0,0,0,0,0,0,0,0,0,0,0,0,0,0,0,0,0,0,0,0,0,
0,0,0,0,0,0,0,0,0,0,0,0,0,0,0,0,0,0,0,0,0,0,0,0,0,0,0,0,0,0,0,0,0,0,0,0,0,0,0,0,0,0,0,0,0,0,0,0,0,0,0,0,0,0,0,0,0,0,0,0,0,0,0,0,0,0,0,0,0,0,0,0,0,0,0,
0,0,0,0,0,0,0,0,0,0,0,0,0,0,0,0,0,0,0,0,0,0,0,0,0,0,0,0,0,0,0,0,0,0,0,0,0,0,0,0,0,0,0,0,0,0,0,0,0,0,0,0,0,0,0,0,0,0,0,0,0,0,0,0,0,0,0,0,0,0,0,0,0,0,0,
0,0,0,0,0,0,0,0,0,0,0,0,0,0,0,0,0,0,0,0,0,0,0,0,0,0,0,0,0,0,0,0,0,0,0,0,0,0,0,0,0,0,0,0,0,0,0,0,0,0,0,0,0,0,0,0,0,0,0,0,0,0,0,0,0,0,0,0,0,0,0,0,0,0,0,
0,0,0,0,0,0,0,0,0,0,0,0,0,0,0,0,0,0,0,0,0,0,0,0,0,0,0,0,0,0,0,0,0,0,0,0,0,0,0,0,0,0,0,0,0,0,0,0,0,0,0,0,0,0,0,0,0,0,0,0,0,0,0,0,0,0,0,0,0,0,0,0,0,0,0,
0,0,0,0,0,0,0,0,0,0,0,0,0,0,0,0,0,0,0,0,0,0,0,0,0,0,0,0,0,0,0,0,0,0,0,0,0,0,0,0,0,0,0,0,0,0,0,0,0,0,0,0,0,0,0,0,0,0,0,0,0,0,0,0,0,0,0,0,0,0,0,0,0,0,0,
0,0,0,0,0,0,0,0,0,0,0,0,0,0,0,0,0,0,0,0,0,0,0,0,0,0,0,0,0,0,0,0,0,0,0,0,0,0,0,0,0,0,0,0,0,0,0,0,0,0,0,0,0,0,0,0,0,0,0,0,0,0,0,0,0,0,0,0,0,0,0,0,0,0,0,
0,0,0,0,0,0,0,0,0,0,0,0,0,0,0,0,0,0,0,0,0,0,0,0,0,0,0,0,0,0,0,0,0,0,0,0,0,0,0,0,0,0,0,0,0,0,0,0,0,0,0,0,0,0,0,0,0,0,0,0,0,0,0,0,0,0,0,0,0,0,0,0,0,0,0,
0,0,0,0,0,0,0,0,0,0,0,0,0,0,0,0,0,0,0,0,0,0,0,0,0,0,0,0,0,0,0,0,0,0,0,0,0,0,0,0,0,0,0,0,0,0,0,0,0,0,0,0,0,0,0,0,0,0,0,0,0,0,0,0,0,0,0,0,0,0,0,0,0,0,0,
0,0,0,0,0,0,0,0,0,0,0,0,0,0,0,0,0,0,0,0,0,0,0,0,0,0,0,0,0,0,0,0,0,0,0,0,0,0,0,0,0,0,0,0,0,0,0,0,0,0,0,0,0,0,0,0,0,0,0,0,0,0,0,0,0,0,0,0,0,0,0,0,0,0,0,
0,0,0,0,0,0,0,0,0,0,0,0,0,0,0,0,0,0,0,0,0,0,0,0,0,0,0,0,0,0,0,0,0,0,0,0,0,0,0,0,0,0,0,0,0,0,0,0,0,0,0,0,0,0,0,0,0,0,0,0,0,0,0,0,0,0,0,0,0,0,0,0,0,0,0,
0,0,0,0,0,0,0,0,0,0,0,0,0,0,0,0,0,0,0,0,0,0,0,0,0,0,0,0,0,0,0,0,0,0,0,0,0,0,0,0,0,0,0,0,0,0,0,0,0,0,0,0,0,0,0,0,0,0,0,0,0,0,0,0,0,0,0,0,0,0,0,0,0,0,0,
0,0,0,0,0,0,0,0,0,0,0,0,0,0,0,0,0,0,0,0,0,0,0,0,0,0,0,0,0,0,0,0,0,0,0,0,0,0,0,0,0,0,0,0,0,0,0,0,0,0,0,0,0,0,0,0,0,0,0,0,0,0,0,0,0,0,0,0,0,0,0,0,0,0,0,
0,0,0,0,0,0,0,0,0,0,0,0,0,0,0,0,0,0,0,0,0,0,0,0,0,0,0,0,0,0,0,0,0,0,0,0,0,0,0,0,0,0,0,0,0,0,0,0,0,0,0,0,0,0,0,0,0,0,0,0,0,0,0,0,0,0,0,0,0,0,0,0,0,0,0,
0,0,0,0,0,0,0,0,0,0,0,0,0,0,0,0,0,0,0,0,0,0,0,0,0,0,0,0,0,0,0,0,0,0,0,0,0,0,0,0,0,0,0,0,0,0,0,0,0,0,0,0,0,0,0,0,0,0,0,0,0,0,0,0,0,0,0,0,0,0,0,0,0,0,0,
0,0,0,0,0,0,0,0,0,0,0,0,0,0,0,0,0,0,0,0,0,0,0,0,0,0,0,0,0,0,0,0,0,0,0,0,0,0,0,0,0,0,0,0,0,0,0,0,0,0,0,0,0,0,0,0,0,0,0,0,0,0,0,0,0,0,0,0,0,0,0,0,0,0,0,
0,0,0,0,0,0,0,0,0,0,0,0,0,0,0,0,0,0,0,0,0,0,0,0,0,0,0,0,0,0,0,0,0,0,0,0,0,0,0,0,0,0,0,0,0,0,0,0,0,0,0,0,0,0,0,0,0,0,0,0,0,0,0,0,0,0,0,0,0,0,0,0,0,0,0,
0,0,0,0,0,0,0,0,0,0,0,0,0,0,0,0,0,0,0,0,0,0,0,0,0,0,0,0,0,0,0,0,0,0,0,0,0,0,0,0,0,0,0,0,0,0,0,0,0,0,0,0,0,0,0,0,0,0,0,0,0,0,0,0,0,0,0,0,0,0,0,0,0,0,0,
0,0,0,0,0,0,0,0,0,0,0,0,0,0,0,0,0,0,0,0,0,0,0,0,0,0,0,0,0,0,0,0,0,0,0,0,0,0,0,0,0,0,0,0,0,0,0,0,0,0,0,0,0,0,0,0,0,0,0,0,0,0,0,0,0,0,0,0,0,0,0,0,0,0,0,
0,0,0,0,0,0,0,0,0,0,0,0,0,0,0,0,0,0,0,0,0,0,0,0,0,0,0,0,0,0,0,0,0,0,0,0,0,0,0,0,0,0,0,0,0,0,0,0,0,0,0,0,0,0,0,0,0,0,0,0,0,0,0,0,0,0,0,0,0,0,0,0,0,0,0,
0,0,0,0,0,0,0,0,0,0,0,0,0,0,0,0,0,0,0,0,0,0,0,0,0,0,0,0,0,0,0,0,0,0,0,0,0,0,0,0,0,0,0,0,0,0,0,0,0,0,0,0,0,0,0,0,0,0,0,0,0,0,0,0,0,0,0,0,0,0,0,0,0,0,0,
0,0,0,0,0,0,0,0,0,0,0,0,0,0,0,0,0,0,0,0,0,0,0,0,0,0,0,0,0,0,0,0,0,0,0,0,0,0,0,0,0,0,0,0,0,0,0,0,0,0,0,0,0,0,0,0,0,0,0,0,0,0,0,0,0,0,0,0,0,0,0,0,0,0,0,
0,0,0,0,0,0,0,0,0,0,0,0,0,0,0,0,0,0,0,0,0,0,0,0,0,0,0,0,0,0,0,0,0,0,0,0,0,0,0,0,0,0,0,0,0,0,0,0,0,0,0,0,0,0,0,0,0,0,0,0,0,0,0,0,0,0,0,0,0,0,0,0,0,0,0,
0,0,0,0,0,0,0,0,0,0,0,0,0,0,0,0,0,0,0,0,0,0,0,0,0,0,0,0,0,0,0,0,0,0,0,0,0,0,0,0,0,0,0,0,0,0,0,0,0,0,0,0,0,0,0,0,0,0,0,0,0,0,0,0,0,0,0,0,0,0,0,0,0,0,0,
0,0,0,0,0,0,0,0,0,0,0,0,0,0,0,0,0,0,0,0,0,0,0,0,0,0,0,0,0,0,0,0,0,0,0,0,0,0,0,0,0,0,0,0,0,0,0,0,0,0,0,0,0,0,0,0,0,0,0,0,0,0,0,0,0,0,0,0,0,0,0,0,0,0,0,
0,0,0,0,0,0,0,0,0,0,0,0,0,0,0,0,0,0,0,0,0,0,0,0,0,0,0,0,0,0,0,0,0,0,0,0,0,0,0,0,0,0,0,0,0,0,0,0,0,0,0,0,0,0,0,0,0,0,0,0,0,0,0,0,0,0,0,0,0,0,0,0,0,0,0,
0,0,0,0,0,0,0,0,0,0,0,0,0,0,0,0,0,0,0,0,0,0,0,0,0,0,0,0,0,0,0,0,0,0,0,0,0,0,0,0,0,0,0,0,0,0,0,0,0,0,0,0,0,0,0,0,0,0,0,0,0,0,0,0,0,0,0,0,0,0,0,0,0,0,0,
0,0,0,0,0,0,0,0,0,0,0,0,0,0,0,0,0,0,0,0,0,0,0,0,0,0,0,0,0,0,0,0,0,0,0,0,0,0,0,0,0,0,0,0,0,0,0,0,0,0,0,0,0,0,0,0,0,0,0,0,0,0,0,0,0,0,0,0,0,0,0,0,0,0,0,
0,0,0,0,0,0,0,0,0,0,0,0,0,0,0,0,0,0,0,0,0,0,0,0,0,0,0,0,0,0,0,0,0,0,0,0,0,0,0,0,0,0,0,0,0,0,0,0,0,0,0,0,0,0,0,0,0,0,0,0,0,0,0,0,0,0,0,0,0,0,0,0,0,0,0,
0,0,0,0,0,0,0,0,0,0,0,0,0,0,0,0,0,0,0,0,0,0,0,0,0,0,0,0,0,0,0,0,0,0,0,0,0,0,0,0,0,0,0,0,0,0,0,0,0,0,0,0,0,0,0,0,0,0,0,0,0,0,0,0,0,0,0,0,0,0,0,0,0,0,0,
0,0,0,0,0,0,0,0,0,0,0,0,0,0,0,0,0,0,0,0,0,0,0,0,0,0,0,0,0,0,0,0,0,0,0,0,0,0,0,0,0,0,0,0,0,0,0,0,0,0,0,0,0,0,0,0,0,0,0,0,0,0,0,0,0,0,0,0,0,0,0,0,0,0,0,
0,0,0,0,0,0,0,0,0,0,0,0,0,0,0,0,0,0,0,0,0,0,0,0,0,0,0,0,0,0,0,0,0,0,0,0,0,0,0,0,0,0,0,0,0,0,0,0,0,0,0,0,0,0,0,0,0,0,0,0,0,0,0,0,0,0,0,0,0,0,0,0,0,0,0,
0,0,0,0,0,0,0,0,0,0,0,0,0,0,0,0,0,0,0,0,0,0,0,0,0,0,0,0,0,0,0,0,0,0,0,0,0,0,0,0,0,0,0,0,0,0,0,0,0,0,0,0,0,0,0,0,0,0,0,0,0,0,0,0,0,0,0,0,0,0,0,0,0,0,0,
0,0,0,0,0,0,0,0,0,0,0,0,0,0,0,0,0,0,0,0,0,0,0,0,0,0,0,0,0,0,0,0,0,0,0,0,0,0,0,0,0,0,0,0,0,0,0,0,0,0,0,0,0,0,0,0,0,0,0,0,0,0,0,0,0,0,0,0,0,0,0,0,0,0,0,
0,0,0,0,0,0,0,0,0,0,0,0,0,0,0,0,0,0,0,0,0,0,0,0,0,0,0,0,0,0,0,0,0,0,0,0,0,0,0,0,0,0,0,0,0,0,0,0,0,0,0,0,0,0,0,0,0,0,0,0,0,0,0,0,0,0,0,0,0,0,0,0,0,0,0,
0,0,0,0,0,0,0,0,0,0,0,0,0,0,0,0,0,0,0,0,0,0,0,0,0,0,0,0,0,0,0,0,0,0,0,0,0,0,0,0,0,0,0,0,0,0,0,0,0,0,0,0,0,0,0,0,0,0,0,0,0,0,0,0,0,0,0,0,0,0,0,0,0,0,0,
0,0,0,0,0,0,0,0,0,0,0,0,0,0,0,0,0,0,0,0,0,0,0,0,0,0,0,0,0,0,0,0,0,0,0,0,0,0,0,0,0,0,0,0,0,0,0,0,0,0,0,0,0,0,0,0,0,0,0,0,0,0,0,0,0,0,0,0,0,0,0,0,0,0,0,
0,0,0,0,0,0,0,0,0,0,0,0,0,0,0,0,0,0,0,0,0,0,0,0,0,0,0,0,0,0,0,0,0,0,0,0,0,0,0,0,0,0,0,0,0,0,0,0,0,0,0,0,0,0,0,0,0,0,0,0,0,0,0,0,0,0,0,0,0,0,0,0,0,0,0,
0,0,0,0,0,0,0,0,0,0,0,0,0,0,0,0,0,0,0,0,0,0,0,0,0,0,0,0,0,0,0,0,0,0,0,0,0,0,0,0,0,0,0,0,0,0,0,0,0,0,0,0,0,0,0,0,0,0,0,0,0,0,0,0,0,0,0,0,0,0,0,0,0,0,0,
0,0,0,0,0,0,0,0,0,0,0,0,0,0,0,0,0,0,0,0,0,0,0,0,0,0,0,0,0,0,0,0,0,0,0,0,0,0,0,0,0,0,0,0,0,0,0,0,0,0,0,0,0,0,0,0,0,0,0,0,0,0,0,0,0,0,0,0,0,0,0,0,0,0,0,
0,0,0,0,0,0,0,0,0,0,0,0,0,0,0,0,0,0,0,0,0,0,0,0,0,0,0,0,0,0,0,0,0,0,0,0,0,0,0,0,0,0,0,0,0,0,0,0,0,0,0,0,0,0,0,0,0,0,0,0,0,0,0,0,0,0,0,0,0,0,0,0,0,0,0,
0,0,0,0,0,0,0,0,0,0,0,0,0,0,0,0,0,0,0,0,0,0,0,0,0,0,0,0,0,0,0,0,0,0,0,0,0,0,0,0,0,0,0,0,0,0,0,0,0,0,0,0,0,0,0,0,0,0,0,0,0,0,0,0,0,0,0,0,0,0,0,0,0,0,0,
0,0,0,0,0,0,0,0,0,0,0,0,0,0,0,0,0,0,0,0,0,0,0,0,0,0,0,0,0,0,0,0,0,0,0,0,0,0,0,0,0,0,0,0,0,0,0,0,0,0,0,0,0,0,0,0,0,0,0,0,0,0,0,0,0,0,0,0,0,0,0,0,0,0,0,
0,0,0,0,0,0,0,0,0,0,0,0,0,0,0,0,0,0,0,0,0,0,0,0,0,0,0,0,0,0,0,0,0,0,0,0,0,0,0,0,0,0,0,0,0,0,0,0,0,0,0,0,0,0,0,0,0,0,0,0,0,0,0,0,0,0,0,0,0,0,0,0,0,0,0,
0,0,0,0,0,0,0,0,0,0,0,0,0,0,0,0,0,0,0,0,0,0,0,0,0,0,0,0,0,0,0,0,0,0,0,0,0,0,0,0,0,0,0,0,0,0,0,0,0,0,0,0,0,0,0,0,0,0,0,0,0,0,0,0,0,0,0,0,0,0,0,0,0,0,0,
0,0,0,0,0,0,0,0,0,0,0,0,0,0,0,0,0,0,0,0,0,0,0,0,0,0,0,0,0,0,0,0,0,0,0,0,0,0,0,0,0,0,0,0,0,0,0,0,0,0,0,0,0,0,0,0,0,0,0,0,0,0,0,0,0,0,0,0,0,0,0,0,0,0,0,
0,0,0,0,0,0,0,0,0,0,0,0,0,0,0,0,0,0,0,0,0,0,0,0,0,0,0,0,0,0,0,0,0,0,0,0,0,0,0,0,0,0,0,0,0,0,0,0,0,0,0,0,0,0,0,0,0,0,0,0,0,0,0,0,0,0,0,0,0,0,0,0,0,0,0,
0,0,0,0,0,0,0,0,0,0,0,0,0,0,0,0,0,0,0,0,0,0,0,0,0,0,0,0,0,0,0,0,0,0,0,0,0,0,0,0,0,0,0,0,0,0,0,0,0,0,0,0,0,0,0,0,0,0,0,0,0,0,0,0,0,0,0,0,0,0,0,0,0,0,0,
0,0,0,0,0,0,0,0,0,0,0,0,0,0,0,0,0,0,0,0,0,0,0,0,0,0,0,0,0,0,0,0,0,0,0,0,0,0,0,0,0,0,0,0,0,0,0,0,0,0,0,0,0,0,0,0,0,0,0,0,0,0,0,0,0,0,0,0,0,0,0,0,0,0,0,
0,0,0,0,0,0,0,0,0,0,0,0,0,0,0,0,0,0,0,0,0,0,0,0,0,0,0,0,0,0,0,0,0,0,0,0,0,0,0,0,0,0,0,0,0,0,0,0,0,0,0,0,0,0,0,0,0,0,0,0,0,0,0,0,0,0,0,0,0,0,0,0,0,0,0,
0,0,0,0,0,0,0,0,0,0,0,0,0,0,0,0,0,0,0,0,0,0,0,0,0,0,0,0,0,0,0,0,0,0,0,0,0,0,0,0,0,0,0,0,0,0,0,0,0,0,0,0,0,0,0,0,0,0,0,0,0,0,0,0,0,0,0,0,0,0,0,0,0,0,0,
0,0,0,0,0,0,0,0,0,0,0,0,0,0,0,0,0,0,0,0,0,0,0,0,0,0,0,0,0,0,0,0,0,0,0,0,0,0,0,0,0,0,0,0,0,0,0,0,0,0,0,0,0,0,0,0,0,0,0,0,0,0,0,0,0,0,0,0,0,0,0,0,0,0,0,
0,0,0,0,0,0,0,0,0,0,0,0,0,0,0,0,0,0,0,0,0,0,0,0,0,0,0,0,0,0,0,0,0,0,0,0,0,0,0,0,0,0,0,0,0,0,0,0,0,0,0,0,0,0,0,0,0,0,0,0,0,0,0,0,0,0,0,0,0,0,0,0,0,0,0,
0,0,0,0,0,0,0,0,0,0,0,0,0,0,0,0,0,0,0,0,0,0,0,0,0,0,0,0,0,0,0,0,0,0,0,0,0,0,0,0,0,0,0,0,0,0,0,0,0,0,0,0,0,0,0,0,0,0,0,0,0,0,0,0,0,0,0,0,0,0,0,0,0,0,0,
0,0,0,0,0,0,0,0,0,0,0,0,0,0,0,0,0,0,0,0,0,0,0,0,0,0,0,0,0,0,0,0,0,0,0,0,0,0,0,0,0,0,0,0,0,0,0,0,0,0,0,0,0,0,0,0,0,0,0,0,0,0,0,0,0,0,0,0,0,0,0,0,0,0,0,
0,0,0,0,0,0,0,0,0,0,0,0,0,0,0,0,0,0,0,0,0,0,0,0,0,0,0,0,0,0,0,0,0,0,0,0,0,0,0,0,0,0,0,0,0,0,0,0,0,0,0,0,0,0,0,0,0,0,0,0,0,0,0,0,0,0,0,0,0,0,0,0,0,0,0,
0,0,0,0,0,0,0,0,0,0,0,0,0,0,0,0,0,0,0,0,0,0,0,0,0,0,0,0,0,0,0,0,0,0,0,0,0,0,0,0,0,0,0,0,0,0,0,0,0,0,0,0,0,0,0,0,0,0,0,0,0,0,0,0,0,0,0,0,0,0,0,0,0,0,0,
0,0,0,0,0,0,0,0,0,0,0,0,0,0,0,0,0,0,0,0,0,0,0,0,0,0,0,0,0,0,0,0,0,0,0,0,0,0,0,0,0,0,0,0,0,0,0,0,0,0,0,0,0,0,0,0,0,0,0,0,0,0,0,0,0,0,0,0,0,0,0,0,0,0,0,
0,0,0,0,0,0,0,0,0,0,0,0,0,0,0,0,0,0,0,0,0,0,0,0,0,0,0,0,0,0,0,0,0,0,0,0,0,0,0,0,0,0,0,0,0,0,0,0,0,0,0,0,0,0,0,0,0,0,0,0,0,0,0,0,0,0,0,0,0,0,0,0,0,0,0,
0,0,0,0,0,0,0,0,0,0,0,0,0,0,0,0,0,0,0,0,0,0,0,0,0,0,0,0,0,0,0,0,0,0,0,0,0,0,0,0,0,0,0,0,0,0,0,0,0,0,0,0,0,0,0,0,0,0,0,0,0,0,0,0,0,0,0,0,0,0,0,0,0,0,0,
0,0,0,0,0,0,0,0,0,0,0,0,0,0,0,0,0,0,0,0,0,0,0,0,0,0,0,0,0,0,0,0,0,0,0,0,0,0,0,0,0,0,0,0,0,0,0,0,0,0,0,0,0,0,0,0,0,0,0,0,0,0,0,0,0,0,0,0,0,0,0,0,0,0,0,
0,0,0,0,0,0,0,0,0,0,0,0,0,0,0,0,0,0,0,0,0,0,0,0,0,0,0,0,0,0,0,0,0,0,0,0,0,0,0,0,0,0,0,0,0,0,0,0,0,0,0,0,0,0,0,0,0,0,0,0,0,0,0,0,0,0,0,0,0,0,0,0,0,0,0,
0,0,0,0,0,0,0,0,0,0,0,0,0,0,0,0,0,0,0,0,0,0,0,0,0,0,0,0,0,0,0,0,0,0,0,0,0,0,0,0,0,0,0,0,0,0,0,0,0,0,0,0,0,0,0,0,0,0,0,0,0,0,0,0,0,0,0,0,0,0,0,0,0,0,0,
0,0,0,0,0,0,0,0,0,0,0,0,0,0,0,0,0,0,0,0,0,0,0,0,0,0,0,0,0,0,0,0,0,0,0,0,0,0,0,0,0,0,0,0,0,0,0,0,0,0,0,0,0,0,0,0,0,0,0,0,0,0,0,0,0,0,0,0,0,0,0,0,0,0,0,
0,0,0,0,0,0,0,0,0,0,0,0,0,0,0,0,0,0,0,0,0,0,0,0,0,0,0,0,0,0,0,0,0,0,0,0,0,0,0,0,0,0,0,0,0,0,0,0,0,0,0,0,0,0,0,0,0,0,0,0,0,0,0,0,0,0,0,0,0,0,0,0,0,0,0,
0,0,0,0,0,0,0,0,0,0,0,0,0,0,0,0,0,0,0,0,0,0,0,0,0,0,0,0,0,0,0,0,0,0,0,0,0,0,0,0,0,0,0,0,0,0,0,0,0,0,0,0,0,0,0,0,0,0,0,0,0,0,0,0,0,0,0,0,0,0,0,0,0,0,0,
0,0,0,0,0,0,0,0,0,0,0,0,0,0,0,0,0,0,0,0,0,0,0,0,0,0,0,0,0,0,0,0,0,0,0,0,0,0,0,0,0,0,0,0,0,0,0,0,0,0,0,0,0,0,0,0,0,0,0,0,0,0,0,0,0,0,0,0,0,0,0,0,0,0,0
</data>
 </layer>
 <layer id="12" name="Buildings-1" width="75" height="75">
  <data encoding="csv">
2128,2128,2128,2128,2128,2128,2128,2128,2128,2128,2128,2128,2128,2128,2128,2128,2128,2128,2128,2128,2128,2128,2128,2128,2128,2128,2128,2128,2128,2128,2128,2128,2128,2128,2128,2128,2128,2128,2128,2128,2128,2128,2128,2128,2128,2128,2128,2128,2128,2128,2128,2128,2128,2128,2128,2128,2128,2128,2128,2128,2128,2128,2128,2128,2128,2128,2128,2128,2128,2128,2128,2128,2128,2128,2128,
2128,2128,2128,2128,2128,2128,2128,2128,2128,2128,2128,2128,2128,2128,2128,2128,2128,2128,2128,2128,2128,2128,2128,2128,2128,2128,2128,2128,2128,2128,2128,2128,2128,2128,2128,2128,2128,2128,2128,2128,2128,2128,2128,2128,2128,2128,2128,2128,2128,2128,2128,2128,2128,2128,2128,2128,2128,2128,2128,2128,2128,2128,2128,2128,2128,2128,2128,2128,2128,2128,2128,2128,2128,2128,2128,
2128,2128,2128,2128,2128,2128,2128,2128,2128,2128,2128,2128,2128,2128,2128,2128,2128,2128,2128,2128,2128,2128,2128,2128,2128,2128,2128,2128,2128,2128,2128,2128,2128,2128,2128,2128,2128,2128,2128,2128,2128,2128,2128,2128,2128,2128,2128,2128,2128,2128,2128,2128,2128,2128,2128,2128,2128,2128,2128,2128,2128,2128,2128,2128,2128,2128,2128,2128,2128,2128,2128,2128,2128,2128,2128,
2128,2128,2128,2128,2128,2128,2128,2128,2128,2128,2128,2128,2128,2128,2128,2128,2128,2128,2128,2128,2128,2128,2128,2128,2128,2128,2128,2128,2128,2128,2128,2128,2128,2128,2128,2128,2128,2128,2128,2128,2128,2128,2128,2128,2128,2128,2128,2128,2128,2128,2128,2128,2128,2128,2128,2128,2128,2128,2128,2128,2128,2128,2128,2128,2128,2128,2128,2128,2128,2128,2128,2128,2128,2128,2128,
2128,2128,2128,2128,2128,2128,2128,2128,2128,2128,2128,2128,2128,2128,2128,2128,2128,2128,2128,2128,2128,2128,2128,2128,2128,2128,2128,2128,2128,2128,2128,2128,2128,2128,2128,2128,2128,2128,2128,2128,2128,2128,2128,2128,2128,2128,2128,2128,2128,2128,2128,2128,2128,2128,2128,2128,2128,2128,2128,2128,2128,2128,2128,2128,2128,2128,2128,2128,2128,2128,2128,2128,2128,2128,2128,
2128,2128,2128,2128,2128,2128,2128,2128,2128,2128,2128,2128,2128,2128,2128,2128,2128,2128,2128,2128,2128,2128,2128,2128,2128,2128,2128,2128,2128,2128,2128,2128,2128,2128,2128,2128,2128,2128,2128,2128,2128,2128,2128,2128,2128,2128,2128,2128,2128,2128,2128,2128,2128,2128,2128,2128,2128,2128,2128,2128,2128,2128,2128,2128,2128,2128,2128,2128,2128,2128,2128,2128,2128,2128,2128,
2128,2128,2128,2128,2128,2128,2128,2128,2128,2128,2128,2128,2128,2128,2128,2128,2128,2128,2128,2128,2128,2128,2128,2128,2128,2128,2128,2128,2128,2128,2128,2128,2128,2128,2128,2128,2128,2128,2128,2128,2128,2128,2128,2128,2128,2128,2128,2128,2128,2128,2128,2128,2128,2128,2128,2128,2128,2128,2128,2128,2128,2128,2128,2128,2128,2128,2128,2128,2128,2128,2128,2128,2128,2128,2128,
2128,2128,2128,2128,2128,2128,2128,2128,2128,2128,2128,2128,2128,2128,2128,2128,2128,2128,2128,2128,2128,2128,2128,2128,2128,2128,2128,2128,2128,2128,2128,2128,2128,2128,2128,2128,2128,2128,2128,2128,2128,2128,2128,2128,2128,2128,2128,2128,2128,2128,2128,2128,2128,2128,2128,2128,2128,2128,2128,2128,2128,2128,2128,2128,2128,2128,2128,2128,2128,2128,2128,2128,2128,2128,2128,
2128,2128,2128,2128,2128,2128,2128,2128,2128,2128,2128,2128,2128,2128,2128,2128,2128,2128,2128,2128,2128,2128,2128,2128,2128,2128,2128,2128,2128,2128,2128,2128,2128,2128,2128,2128,2128,2128,2128,2128,2128,2128,2128,2128,2128,2128,2128,2128,2128,2128,2128,2128,2128,2128,2128,2128,2128,2128,2128,2128,2128,2128,2128,2128,2128,2128,2128,2128,2128,2128,2128,2128,2128,2128,2128,
2128,2128,2128,2128,2128,2128,2128,2128,2128,2128,2128,2128,2128,2128,2128,2128,2128,2128,2128,2128,2128,2128,2128,2128,2128,2128,2128,2128,2128,2128,2128,2128,2128,2128,2128,2128,2128,2128,2128,2128,2128,2128,2128,2128,2128,2128,2128,2128,2128,2128,2128,2128,2128,2128,2128,2128,2128,2128,2128,2128,2128,2128,2128,2128,2128,2128,2128,2128,2128,2128,2128,2128,2128,2128,2128,
2128,2128,2128,2128,2128,2128,2128,2128,2128,2128,2128,2128,2128,2128,2128,2128,2128,2128,2128,2128,2128,2128,2128,2128,2128,2128,2128,2128,2128,2128,2128,2128,2128,2128,2128,2128,2128,2128,2128,2128,2128,2128,2128,2128,2128,2128,2128,2128,2128,2128,2128,2128,2128,2128,2128,2128,2128,2128,2128,2128,2128,2128,2128,2128,2128,2128,2128,2128,2128,2128,2128,2128,2128,2128,2128,
2128,2128,2128,2128,2128,2128,2128,2128,2128,2128,2128,2128,2128,2128,2128,2128,2128,2128,2128,2128,2128,2128,2128,2128,2128,2128,2128,2128,2128,2128,2128,2128,2128,2128,2128,2128,2128,2128,2128,2128,2128,2128,2128,2128,2128,2128,2128,2128,2128,2128,2128,2128,2128,2128,2128,2128,2128,2128,2128,2128,2128,2128,2128,2128,2128,2128,2128,2128,2128,2128,2128,2128,2128,2128,2128,
2128,2128,2128,2128,2128,2128,2128,2128,2128,2128,2128,2128,2128,2128,2128,2128,2128,2128,2128,2128,2128,2128,2128,2128,2128,2128,2128,2128,2128,2128,2128,2128,2128,2128,2128,2128,2128,2128,2128,2128,2128,2128,2128,2128,2128,2128,2128,2128,2128,2128,2128,2128,2128,2128,2128,2128,2128,2128,2128,2128,2128,2128,2128,2128,2128,2128,2128,2128,2128,2128,2128,2128,2128,2128,2128,
2128,2128,2128,2128,2128,2128,2128,2128,2128,2128,2128,2128,2128,2128,2128,2128,2128,2128,2128,2128,2128,2128,2128,2128,2128,2128,2128,2128,2128,2128,2128,2128,2128,2128,2128,2128,2128,2128,2128,2128,2128,2128,2128,2128,2128,2128,2128,2128,2128,2128,2128,2128,2128,2128,2128,2128,2128,2128,2128,2128,2128,2128,2128,2128,2128,2128,2128,2128,2128,2128,2128,2128,2128,2128,2128,
2128,2128,2128,2128,2128,2128,2128,2128,2128,2128,2128,2128,2128,2128,2128,2128,2128,2128,2128,2128,2128,2128,2128,2128,2128,2128,2128,2128,2128,2128,2128,2128,2128,2128,2128,2128,2128,2128,2128,2128,2128,2128,2128,2128,2128,2128,2128,2128,2128,2128,2128,2128,2128,2128,2128,2128,2128,2128,2128,2128,2128,2128,2128,2128,2128,2128,2128,2128,2128,2128,2128,2128,2128,2128,2128,
2128,2128,2128,2128,2128,2128,2128,2128,2128,2128,2128,2128,2128,2128,2128,2128,2128,2128,2128,2128,2128,2128,2128,2128,2128,2128,2128,2128,2128,2128,2128,2128,2128,2128,2128,2128,2128,2128,2128,2128,2128,2128,2128,2128,2128,2128,2128,2128,2128,2128,2128,2128,2128,2128,2128,2128,2128,2128,2128,2128,2128,2128,2128,2128,2128,2128,2128,2128,2128,2128,2128,2128,2128,2128,2128,
2128,2128,2128,2128,2128,2128,2128,2128,2128,2128,2128,2128,2128,2128,2128,2128,2128,2128,2128,2128,2128,2128,2128,2128,2128,2128,2128,2128,2128,2128,2128,2128,2128,2128,2128,2128,2128,2128,2128,2128,2128,2128,2128,2128,2128,2128,2128,2128,2128,2128,2128,2128,2128,2128,2128,2128,2128,2128,2128,2128,2128,2128,2128,2128,2128,2128,2128,2128,2128,2128,2128,2128,2128,2128,2128,
2128,2128,2128,2128,2128,2128,2128,2128,2128,2128,2128,2128,2128,2128,2128,2128,2128,2128,2128,2128,2128,2128,2128,2128,2128,2128,2128,2128,2128,2128,2128,2128,2128,2128,2128,2128,2128,2128,2128,2128,2128,2128,2128,2128,2128,2128,2128,2128,2128,2128,2128,2128,2128,2128,2128,2128,2128,2128,2128,2128,2128,2128,2128,2128,2128,2128,2128,2128,2128,2128,2128,2128,2128,2128,2128,
2128,2128,2128,2128,2128,2128,2128,2128,2128,2128,2128,2128,2128,2128,2128,2128,2128,2128,2128,2128,2128,2128,2128,2128,2128,2128,2128,2128,2128,2128,2128,2128,2128,2128,2128,2128,2128,2128,2128,2128,2128,2128,2128,2128,2128,2128,2128,2128,2128,2128,2128,2128,2128,2128,2128,2128,2128,2128,2128,2128,2128,2128,2128,2128,2128,2128,2128,2128,2128,2128,2128,2128,2128,2128,2128,
2128,2128,2128,2128,2128,2128,2128,2128,2128,2128,2128,2128,2128,2128,2128,2128,2128,2128,2128,2128,2128,2128,2128,2128,2128,2128,2128,2128,2128,2128,2128,2128,2128,2128,2128,2128,2128,2128,2128,2128,2128,2128,2128,2128,2128,2128,2128,2128,2128,2128,2128,2128,2128,2128,2128,2128,2128,2128,2128,2128,2128,2128,2128,2128,2128,2128,2128,2128,2128,2128,2128,2128,2128,2128,2128,
2128,2128,2128,2128,2128,2128,2128,2128,2128,2128,2128,2128,2128,2128,2128,2128,2128,2128,2128,2128,2128,2128,2128,2128,2128,2128,2128,2128,2128,2128,2128,2128,2128,2128,2128,2128,2128,2128,2128,2128,2128,2128,2128,2128,2128,2128,2128,2128,2128,2128,2128,2128,2128,2128,2128,2128,2128,2128,2128,2128,2128,2128,2128,2128,2128,2128,2128,2128,2128,2128,2128,2128,2128,2128,2128,
2128,2128,2128,2128,2128,2128,2128,2128,2128,2128,2128,2128,2128,2128,2128,2128,2128,2128,2128,2128,2128,2128,2128,2128,2128,2128,2128,2128,2128,2128,2128,2128,2128,2128,2128,2128,2128,2128,2128,2128,2128,2128,2128,2128,2128,2128,2128,2128,2128,2128,2128,2128,2128,2128,2128,2128,2128,2128,2128,2128,2128,2128,2128,2128,2128,2128,2128,2128,2128,2128,2128,2128,2128,2128,2128,
2128,2128,2128,2128,2128,2128,2128,2128,2128,2128,2128,2128,2128,2128,2128,2128,2128,2128,2128,2128,2128,2128,2128,2128,2128,2128,2128,2128,2128,2128,2128,2128,2128,2128,2128,2128,2128,2128,2128,2128,2128,2128,2128,2128,2128,2128,2128,2128,2128,2128,2128,2128,2128,2128,2128,2128,2128,2128,2128,2128,2128,2128,2128,2128,2128,2128,2128,2128,2128,2128,2128,2128,2128,2128,2128,
2128,2128,2128,2128,2128,2128,2128,2128,2128,2128,2128,2128,2128,2128,2128,2128,2128,2128,2128,2128,2128,2128,2128,2128,2128,2128,2128,2128,2128,2128,2128,2128,2128,2128,2128,2128,2128,2128,2128,2128,2128,2128,2128,2128,2128,2128,2128,2128,2128,2128,2128,2128,2128,2128,2128,2128,2128,2128,2128,2128,2128,2128,2128,2128,2128,2128,2128,2128,2128,2128,2128,2128,2128,2128,2128,
2128,2128,2128,2128,2128,2128,2128,2128,2128,2128,2128,2128,2128,2128,2128,2128,2128,2128,2128,2128,2128,2128,2128,2128,2128,2128,2128,2128,2128,2128,2128,2128,2128,2128,2128,2128,2128,2128,2128,2128,2128,2128,2128,2128,2128,2128,2128,2128,2128,2128,2128,2128,2128,2128,2128,2128,2128,2128,2128,2128,2128,2128,2128,2128,2128,2128,2128,2128,2128,2128,2128,2128,2128,2128,2128,
2128,2128,2128,2128,2128,2128,2128,2128,2128,2128,2128,2128,2128,2128,2128,2128,2128,2128,2128,2128,2128,2128,2128,2128,2128,2128,2128,2128,2128,2128,2128,2128,2128,2128,2128,2128,2128,2128,2128,2128,2128,2128,2128,2128,2128,2128,2128,2128,2128,2128,2128,2128,2128,2128,2128,2128,2128,2128,2128,2128,2128,2128,2128,2128,2128,2128,2128,2128,2128,2128,2128,2128,2128,2128,2128,
2128,2128,2128,2128,2128,2128,2128,2128,2128,2128,2128,2128,2128,2128,2128,2128,2128,2128,2128,2128,2128,2128,2128,2128,2128,2128,2128,2128,2128,2128,2128,2128,2128,2128,2128,2128,2128,2128,2128,2128,2128,2128,2128,2128,2128,2128,2128,2128,2128,2128,2128,2128,2128,2128,2128,2128,2128,2128,2128,2128,2128,2128,2128,2128,2128,2128,2128,2128,2128,2128,2128,2128,2128,2128,2128,
2128,2128,2128,2128,2128,2128,2128,2128,2128,2128,2128,2128,2128,2128,2128,2128,2128,2128,2128,2128,2128,2128,2128,2128,2128,2128,2128,2128,2128,2128,2128,2128,2128,2128,2128,2128,2128,2128,2128,2128,2128,2128,2128,2128,2128,2128,2128,2128,2128,2128,2128,2128,2128,2128,2128,2128,2128,2128,2128,2128,2128,2128,2128,2128,2128,2128,2128,2128,2128,2128,2128,2128,2128,2128,2128,
2128,2128,2128,2128,2128,2128,2128,2128,2128,2128,2128,2128,2128,2128,2128,2128,2128,2128,2128,2128,2128,2128,2128,2128,2128,2128,2128,2128,2128,2128,2128,2128,2128,2128,2128,2128,2128,2128,2128,2128,2128,2128,2128,2128,2128,2128,2128,2128,2128,2128,2128,2128,2128,2128,2128,2128,2128,2128,2128,2128,2128,2128,2128,2128,2128,2128,2128,2128,2128,2128,2128,2128,2128,2128,2128,
2128,2128,2128,2128,2128,2128,2128,2128,2128,2128,2128,2128,2128,2128,2128,2128,2128,2128,2128,2128,2128,2128,2128,2128,2128,2128,2128,2128,2128,2128,2128,2128,2128,2128,2128,2128,2128,2128,2128,2128,2128,2128,2128,2128,2128,2128,2128,2128,2128,2128,2128,2128,2128,2128,2128,2128,2128,2128,2128,2128,2128,2128,2128,2128,2128,2128,2128,2128,2128,2128,2128,2128,2128,2128,2128,
2128,2128,2128,2128,2128,2128,2128,2128,2128,2128,2128,2128,2128,2128,2128,2128,2128,2128,2128,2128,2128,2128,2128,2128,2128,2128,2128,2128,2128,2128,2128,2128,2128,2128,2128,2128,2128,2128,2128,2128,2128,2128,2128,2128,2128,2128,2128,2128,2128,2128,2128,2128,2128,2128,2128,2128,2128,2128,2128,2128,2128,2128,2128,2128,2128,2128,2128,2128,2128,2128,2128,2128,2128,2128,2128,
2128,2128,2128,2128,2128,2128,2128,2128,2128,2128,2128,2128,2128,2128,2128,2128,2128,2128,2128,2128,2128,2128,2128,2128,2128,2128,2128,2128,2128,2128,2128,2128,2128,2128,2128,2128,2128,2128,2128,2128,2128,2128,2128,2128,2128,2128,2128,2128,2128,2128,2128,2128,2128,2128,2128,2128,2128,2128,2128,2128,2128,2128,2128,2128,2128,2128,2128,2128,2128,2128,2128,2128,2128,2128,2128,
2128,2128,2128,2128,2128,2128,2128,2128,2128,2128,2128,2128,2128,2128,2128,2128,2128,2128,2128,2128,2128,2128,2128,2128,2128,2128,2128,2128,2128,2128,2128,2128,2128,2128,2128,2128,2128,2128,2128,2128,2128,2128,2128,2128,2128,2128,2128,2128,2128,2128,2128,2128,2128,2128,2128,2128,2128,2128,2128,2128,2128,2128,2128,2128,2128,2128,2128,2128,2128,2128,2128,2128,2128,2128,2128,
2128,2128,2128,2128,2128,2128,2128,2128,2128,2128,2128,2128,2128,2128,2128,2128,2128,2128,2128,2128,2128,2128,2128,2128,2128,2128,2128,2128,2128,2128,2128,2128,2128,2128,2128,2128,2128,2128,2128,2128,2128,2128,2128,2128,2128,2128,2128,2128,2128,2128,2128,2128,2128,2128,2128,2128,2128,2128,2128,2128,2128,2128,2128,2128,2128,2128,2128,2128,2128,2128,2128,2128,2128,2128,2128,
2128,2128,2128,2128,2128,2128,2128,2128,2128,2128,2128,2128,2128,2128,2128,2128,2128,2128,2128,2128,2128,2128,2128,2128,2128,2128,2128,2128,2128,2128,2128,2128,2128,2128,2128,2128,2128,2128,2128,2128,2128,2128,2128,2128,2128,2128,2128,2128,2128,2128,2128,2128,2128,2128,2128,2128,2128,2128,2128,2128,2128,2128,2128,2128,2128,2128,2128,2128,2128,2128,2128,2128,2128,2128,2128,
2128,2128,2128,2128,2128,2128,2128,2128,2128,2128,2128,2128,2128,2128,2128,2128,2128,2128,2128,2128,2128,2128,2128,2128,2128,2128,2128,2128,2128,2128,2128,2128,2128,2128,2128,2128,2128,2128,2128,2128,2128,2128,2128,2128,2128,2128,2128,2128,2128,2128,2128,2128,2128,2128,2128,2128,2128,2128,2128,2128,2128,2128,2128,2128,2128,2128,2128,2128,2128,2128,2128,2128,2128,2128,2128,
2128,2128,2128,2128,2128,2128,2128,2128,2128,2128,2128,2128,2128,2128,2128,2128,2128,2128,2128,2128,2128,2128,2128,2128,2128,2128,2128,2128,2128,2128,2128,2128,2128,2128,2128,2128,2128,2128,2128,2128,2128,2128,2128,2128,2128,2128,2128,2128,2128,2128,2128,2128,2128,2128,2128,2128,2128,2128,2128,2128,2128,2128,2128,2128,2128,2128,2128,2128,2128,2128,2128,2128,2128,2128,2128,
2128,2128,2128,2128,2128,2128,2128,2128,2128,2128,2128,2128,2128,2128,2128,2128,2128,2128,2128,2128,2128,2128,2128,2128,2128,2128,2128,2128,2128,2128,2128,2128,2128,2128,2128,2128,2128,2128,2128,2128,2128,2128,2128,2128,2128,2128,2128,2128,2128,2128,2128,2128,2128,2128,2128,2128,2128,2128,2128,2128,2128,2128,2128,2128,2128,2128,2128,2128,2128,2128,2128,2128,2128,2128,2128,
2128,2128,2128,2128,2128,2128,2128,2128,2128,2128,2128,2128,2128,2128,2128,2128,2128,2128,2128,2128,2128,2128,2128,2128,2128,2128,2128,2128,2128,2128,2128,2128,2128,2128,2128,2128,2128,2128,2128,2128,2128,2128,2128,2128,2128,2128,2128,2128,2128,2128,2128,2128,2128,2128,2128,2128,2128,2128,2128,2128,2128,2128,2128,2128,2128,2128,2128,2128,2128,2128,2128,2128,2128,2128,2128,
2128,2128,2128,2128,2128,2128,2128,2128,2128,2128,2128,2128,2128,2128,2128,2128,2128,2128,2128,2128,2128,2128,2128,2128,2128,2128,2128,2128,2128,2128,2128,2128,2128,2128,2128,2128,2128,2128,2128,2128,2128,2128,2128,2128,2128,2128,2128,2128,2128,2128,2128,2128,2128,2128,2128,2128,2128,2128,2128,2128,2128,2128,2128,2128,2128,2128,2128,2128,2128,2128,2128,2128,2128,2128,2128,
2128,2128,2128,2128,2128,2128,2128,2128,2128,2128,2128,2128,2128,2128,2128,2128,2128,2128,2128,2128,2128,2128,2128,2128,2128,2128,2128,2128,2128,2128,2128,2128,2128,2128,2128,2128,2128,2128,2128,2128,2128,2128,2128,2128,2128,2128,2128,2128,2128,2128,2128,2128,2128,2128,2128,2128,2128,2128,2128,2128,2128,2128,2128,2128,2128,2128,2128,2128,2128,2128,2128,2128,2128,2128,2128,
2128,2128,2128,2128,2128,2128,2128,2128,2128,2128,2128,2128,2128,2128,2128,2128,2128,2128,2128,2128,2128,2128,2128,2128,2128,2128,2128,2128,2128,2128,2128,2128,2128,2128,2128,2128,2128,2128,2128,2128,2128,2128,2128,2128,2128,2128,2128,2128,2128,2128,2128,2128,2128,2128,2128,2128,2128,2128,2128,2128,2128,2128,2128,2128,2128,2128,2128,2128,2128,2128,2128,2128,2128,2128,2128,
2128,2128,2128,2128,2128,2128,2128,2128,2128,2128,2128,2128,2128,2128,2128,2128,2128,2128,2128,2128,2128,2128,2128,2128,2128,2128,2128,2128,2128,2128,2128,2128,2128,2128,2128,2128,2128,2128,2128,2128,2128,2128,2128,2128,2128,2128,2128,2128,2128,2128,2128,2128,2128,2128,2128,2128,2128,2128,2128,2128,2128,2128,2128,2128,2128,2128,2128,2128,2128,2128,2128,2128,2128,2128,2128,
2128,2128,2128,2128,2128,2128,2128,2128,2128,2128,2128,2128,2128,2128,2128,2128,2128,2128,2128,2128,2128,2128,2128,2128,2128,2128,2128,2128,2128,2128,2128,2128,2128,2128,2128,2128,2128,2128,2128,2128,2128,2128,2128,2128,2128,2128,2128,2128,2128,2128,2128,2128,2128,2128,2128,2128,2128,2128,2128,2128,2128,2128,2128,2128,2128,2128,2128,2128,2128,2128,2128,2128,2128,2128,2128,
2128,2128,2128,2128,2128,2128,2128,2128,2128,2128,2128,2128,2128,2128,2128,2128,2128,2128,2128,2128,2128,2128,2128,2128,2128,2128,2128,2128,2128,2128,2128,2128,2128,2128,2128,2128,2128,2128,2128,2128,2128,2128,2128,2128,2128,2128,2128,2128,2128,2128,2128,2128,2128,2128,2128,2128,2128,2128,2128,2128,2128,2128,2128,2128,2128,2128,2128,2128,2128,2128,2128,2128,2128,2128,2128,
2128,2128,2128,2128,2128,2128,2128,2128,2128,2128,2128,2128,2128,2128,2128,2128,2128,2128,2128,2128,2128,2128,2128,2128,2128,2128,2128,2128,2128,2128,2128,2128,2128,2128,2128,2128,2128,2128,2128,2128,2128,2128,2128,2128,2128,2128,2128,2128,2128,2128,2128,2128,2128,2128,2128,2128,2128,2128,2128,2128,2128,2128,2128,2128,2128,2128,2128,2128,2128,2128,2128,2128,2128,2128,2128,
2128,2128,2128,2128,2128,2128,2128,2128,2128,2128,2128,2128,2128,2128,2128,2128,2128,2128,2128,2128,2128,2128,2128,2128,2128,2128,2128,2128,2128,2128,2128,2128,2128,2128,2128,2128,2128,2128,2128,2128,2128,2128,2128,2128,2128,2128,2128,2128,2128,2128,2128,2128,2128,2128,2128,2128,2128,2128,2128,2128,2128,2128,2128,2128,2128,2128,2128,2128,2128,2128,2128,2128,2128,2128,2128,
2128,2128,2128,2128,2128,2128,2128,2128,2128,2128,2128,2128,2128,2128,2128,2128,2128,2128,2128,2128,2128,2128,2128,2128,2128,2128,2128,2128,2128,2128,2128,2128,2128,2128,2128,2128,2128,2128,2128,2128,2128,2128,2128,2128,2128,2128,2128,2128,2128,2128,2128,2128,2128,2128,2128,2128,2128,2128,2128,2128,2128,2128,2128,2128,2128,2128,2128,2128,2128,2128,2128,2128,2128,2128,2128,
2128,2128,2128,2128,2128,2128,2128,2128,2128,2128,2128,2128,2128,2128,2128,2128,2128,2128,2128,2128,2128,2128,2128,2128,2128,2128,2128,2128,2128,2128,2128,2128,2128,2128,2128,2128,2128,2128,2128,2128,2128,2128,2128,2128,2128,2128,2128,2128,2128,2128,2128,2128,2128,2128,2128,2128,2128,2128,2128,2128,2128,2128,2128,2128,2128,2128,2128,2128,2128,2128,2128,2128,2128,2128,2128,
2128,2128,2128,2128,2128,2128,2128,2128,2128,2128,2128,2128,2128,2128,2128,2128,2128,2128,2128,2128,2128,2128,2128,2128,2128,2128,2128,2128,2128,2128,2128,2128,2128,2128,2128,2128,2128,2128,2128,2128,2128,2128,2128,2128,2128,2128,2128,2128,2128,2128,2128,2128,2128,2128,2128,2128,2128,2128,2128,2128,2128,2128,2128,2128,2128,2128,2128,2128,2128,2128,2128,2128,2128,2128,2128,
2128,2128,2128,2128,2128,2128,2128,2128,2128,2128,2128,2128,2128,2128,2128,2128,2128,2128,2128,2128,2128,2128,2128,2128,2128,2128,2128,2128,2128,2128,2128,2128,2128,2128,2128,2128,2128,2128,2128,2128,2128,2128,2128,2128,2128,2128,2128,2128,2128,2128,2128,2128,2128,2128,2128,2128,2128,2128,2128,2128,2128,2128,2128,2128,2128,2128,2128,2128,2128,2128,2128,2128,2128,2128,2128,
2128,2128,2128,2128,2128,2128,2128,2128,2128,2128,2128,2128,2128,2128,2128,2128,2128,2128,2128,2128,2128,2128,2128,2128,2128,2128,2128,2128,2128,2128,2128,2128,2128,2128,2128,2128,2128,2128,2128,2128,2128,2128,2128,2128,2128,2128,2128,2128,2128,2128,2128,2128,2128,2128,2128,2128,2128,2128,2128,2128,2128,2128,2128,2128,2128,2128,2128,2128,2128,2128,2128,2128,2128,2128,2128,
2128,2128,2128,2128,2128,2128,2128,2128,2128,2128,2128,2128,2128,2128,2128,2128,2128,2128,2128,2128,2128,2128,2128,2128,2128,2128,2128,2128,2128,2128,2128,2128,2128,2128,2128,2128,2128,2128,2128,2128,2128,2128,2128,2128,2128,2128,2128,2128,2128,2128,2128,2128,2128,2128,2128,2128,2128,2128,2128,2128,2128,2128,2128,2128,2128,2128,2128,2128,2128,2128,2128,2128,2128,2128,2128,
2128,2128,2128,2128,2128,2128,2128,2128,2128,2128,2128,2128,2128,2128,2128,2128,2128,2128,2128,2128,2128,2128,2128,2128,2128,2128,2128,2128,2128,2128,2128,2128,2128,2128,2128,2128,2128,2128,2128,2128,2128,2128,2128,2128,2128,2128,2128,2128,2128,2128,2128,2128,2128,2128,2128,2128,2128,2128,2128,2128,2128,2128,2128,2128,2128,2128,2128,2128,2128,2128,2128,2128,2128,2128,2128,
2128,2128,2128,2128,2128,2128,2128,2128,2128,2128,2128,2128,2128,2128,2128,2128,2128,2128,2128,2128,2128,2128,2128,2128,2128,2128,2128,2128,2128,2128,2128,2128,2128,2128,2128,2128,2128,2128,2128,2128,2128,2128,2128,2128,2128,2128,2128,2128,2128,2128,2128,2128,2128,2128,2128,2128,2128,2128,2128,2128,2128,2128,2128,2128,2128,2128,2128,2128,2128,2128,2128,2128,2128,2128,2128,
2128,2128,2128,2128,2128,2128,2128,2128,2128,2128,2128,2128,2128,2128,2128,2128,2128,2128,2128,2128,2128,2128,2128,2128,2128,2128,2128,2128,2128,2128,2128,2128,2128,2128,2128,2128,2128,2128,2128,2128,2128,2128,2128,2128,2128,2128,2128,2128,2128,2128,2128,2128,2128,2128,2128,2128,2128,2128,2128,2128,2128,2128,2128,2128,2128,2128,2128,2128,2128,2128,2128,2128,2128,2128,2128,
2128,2128,2128,2128,2128,2128,2128,2128,2128,2128,2128,2128,2128,2128,2128,2128,2128,2128,2128,2128,2128,2128,2128,2128,2128,2128,2128,2128,2128,2128,2128,2128,2128,2128,2128,2128,2128,2128,2128,2128,2128,2128,2128,2128,2128,2128,2128,2128,2128,2128,2128,2128,2128,2128,2128,2128,2128,2128,2128,2128,2128,2128,2128,2128,2128,2128,2128,2128,2128,2128,2128,2128,2128,2128,2128,
2128,2128,2128,2128,2128,2128,2128,2128,2128,2128,2128,2128,2128,2128,2128,2128,2128,2128,2128,2128,2128,2128,2128,2128,2128,2128,2128,2128,2128,2128,2128,2128,2128,2128,2128,2128,2128,2128,2128,2128,2128,2128,2128,2128,2128,2128,2128,2128,2128,2128,2128,2128,2128,2128,2128,2128,2128,2128,2128,2128,2128,2128,2128,2128,2128,2128,2128,2128,2128,2128,2128,2128,2128,2128,2128,
2128,2128,2128,2128,2128,2128,2128,2128,2128,2128,2128,2128,2128,2128,2128,2128,2128,2128,2128,2128,2128,2128,2128,2128,2128,2128,2128,2128,2128,2128,2128,2128,2128,2128,2128,2128,2128,2128,2128,2128,2128,2128,2128,2128,2128,2128,2128,2128,2128,2128,2128,2128,2128,2128,2128,2128,2128,2128,2128,2128,2128,2128,2128,2128,2128,2128,2128,2128,2128,2128,2128,2128,2128,2128,2128,
2128,2128,2128,2128,2128,2128,2128,2128,2128,2128,2128,2128,2128,2128,2128,2128,2128,2128,2128,2128,2128,2128,2128,2128,2128,2128,2128,2128,2128,2128,2128,2128,2128,2128,2128,2128,2128,2128,2128,2128,2128,2128,2128,2128,2128,2128,2128,2128,2128,2128,2128,2128,2128,2128,2128,2128,2128,2128,2128,2128,2128,2128,2128,2128,2128,2128,2128,2128,2128,2128,2128,2128,2128,2128,2128,
2128,2128,2128,2128,2128,2128,2128,2128,2128,2128,2128,2128,2128,2128,2128,2128,2128,2128,2128,2128,2128,2128,2128,2128,2128,2128,2128,2128,2128,2128,2128,2128,2128,2128,2128,2128,2128,2128,2128,2128,2128,2128,2128,2128,2128,2128,2128,2128,2128,2128,2128,2128,2128,2128,2128,2128,2128,2128,2128,2128,2128,2128,2128,2128,2128,2128,2128,2128,2128,2128,2128,2128,2128,2128,2128,
2128,2128,2128,2128,2128,2128,2128,2128,2128,2128,2128,2128,2128,2128,2128,2128,2128,2128,2128,2128,2128,2128,2128,2128,2128,2128,2128,2128,2128,2128,2128,2128,2128,2128,2128,2128,2128,2128,2128,2128,2128,2128,2128,2128,2128,2128,2128,2128,2128,2128,2128,2128,2128,2128,2128,2128,2128,2128,2128,2128,2128,2128,2128,2128,2128,2128,2128,2128,2128,2128,2128,2128,2128,2128,2128,
2128,2128,2128,2128,2128,2128,2128,2128,2128,2128,2128,2128,2128,2128,2128,2128,2128,2128,2128,2128,2128,2128,2128,2128,2128,2128,2128,2128,2128,2128,2128,2128,2128,2128,2128,2128,2128,2128,2128,2128,2128,2128,2128,2128,2128,2128,2128,2128,2128,2128,2128,2128,2128,2128,2128,2128,2128,2128,2128,2128,2128,2128,2128,2128,2128,2128,2128,2128,2128,2128,2128,2128,2128,2128,2128,
2128,2128,2128,2128,2128,2128,2128,2128,2128,2128,2128,2128,2128,2128,2128,2128,2128,2128,2128,2128,2128,2128,2128,2128,2128,2128,2128,2128,2128,2128,2128,2128,2128,2128,2128,2128,2128,2128,2128,2128,2128,2128,2128,2128,2128,2128,2128,2128,2128,2128,2128,2128,2128,2128,2128,2128,2128,2128,2128,2128,2128,2128,2128,2128,2128,2128,2128,2128,2128,2128,2128,2128,2128,2128,2128,
2128,2128,2128,2128,2128,2128,2128,2128,2128,2128,2128,2128,2128,2128,2128,2128,2128,2128,2128,2128,2128,2128,2128,2128,2128,2128,2128,2128,2128,2128,2128,2128,2128,2128,2128,2128,2128,2128,2128,2128,2128,2128,2128,2128,2128,2128,2128,2128,2128,2128,2128,2128,2128,2128,2128,2128,2128,2128,2128,2128,2128,2128,2128,2128,2128,2128,2128,2128,2128,2128,2128,2128,2128,2128,2128,
2128,2128,2128,2128,2128,2128,2128,2128,2128,2128,2128,2128,2128,2128,2128,2128,2128,2128,2128,2128,2128,2128,2128,2128,2128,2128,2128,2128,2128,2128,2128,2128,2128,2128,2128,2128,2128,2128,2128,2128,2128,2128,2128,2128,2128,2128,2128,2128,2128,2128,2128,2128,2128,2128,2128,2128,2128,2128,2128,2128,2128,2128,2128,2128,2128,2128,2128,2128,2128,2128,2128,2128,2128,2128,2128,
2128,2128,2128,2128,2128,2128,2128,2128,2128,2128,2128,2128,2128,2128,2128,2128,2128,2128,2128,2128,2128,2128,2128,2128,2128,2128,2128,2128,2128,2128,2128,2128,2128,2128,2128,2128,2128,2128,2128,2128,2128,2128,2128,2128,2128,2128,2128,2128,2128,2128,2128,2128,2128,2128,2128,2128,2128,2128,2128,2128,2128,2128,2128,2128,2128,2128,2128,2128,2128,2128,2128,2128,2128,2128,2128,
2128,2128,2128,2128,2128,2128,2128,2128,2128,2128,2128,2128,2128,2128,2128,2128,2128,2128,2128,2128,2128,2128,2128,2128,2128,2128,2128,2128,2128,2128,2128,2128,2128,2128,2128,2128,2128,2128,2128,2128,2128,2128,2128,2128,2128,2128,2128,2128,2128,2128,2128,2128,2128,2128,2128,2128,2128,2128,2128,2128,2128,2128,2128,2128,2128,2128,2128,2128,2128,2128,2128,2128,2128,2128,2128,
2128,2128,2128,2128,2128,2128,2128,2128,2128,2128,2128,2128,2128,2128,2128,2128,2128,2128,2128,2128,2128,2128,2128,2128,2128,2128,2128,2128,2128,2128,2128,2128,2128,2128,2128,2128,2128,2128,2128,2128,2128,2128,2128,2128,2128,2128,2128,2128,2128,2128,2128,2128,2128,2128,2128,2128,2128,2128,2128,2128,2128,2128,2128,2128,2128,2128,2128,2128,2128,2128,2128,2128,2128,2128,2128,
2128,2128,2128,2128,2128,2128,2128,2128,2128,2128,2128,2128,2128,2128,2128,2128,2128,2128,2128,2128,2128,2128,2128,2128,2128,2128,2128,2128,2128,2128,2128,2128,2128,2128,2128,2128,2128,2128,2128,2128,2128,2128,2128,2128,2128,2128,2128,2128,2128,2128,2128,2128,2128,2128,2128,2128,2128,2128,2128,2128,2128,2128,2128,2128,2128,2128,2128,2128,2128,2128,2128,2128,2128,2128,2128,
2128,2128,2128,2128,2128,2128,2128,2128,2128,2128,2128,2128,2128,2128,2128,2128,2128,2128,2128,2128,2128,2128,2128,2128,2128,2128,2128,2128,2128,2128,2128,2128,2128,2128,2128,2128,2128,2128,2128,2128,2128,2128,2128,2128,2128,2128,2128,2128,2128,2128,2128,2128,2128,2128,2128,2128,2128,2128,2128,2128,2128,2128,2128,2128,2128,2128,2128,2128,2128,2128,2128,2128,2128,2128,2128,
2128,2128,2128,2128,2128,2128,2128,2128,2128,2128,2128,2128,2128,2128,2128,2128,2128,2128,2128,2128,2128,2128,2128,2128,2128,2128,2128,2128,2128,2128,2128,2128,2128,2128,2128,2128,2128,2128,2128,2128,2128,2128,2128,2128,2128,2128,2128,2128,2128,2128,2128,2128,2128,2128,2128,2128,2128,2128,2128,2128,2128,2128,2128,2128,2128,2128,2128,2128,2128,2128,2128,2128,2128,2128,2128,
2128,2128,2128,2128,2128,2128,2128,2128,2128,2128,2128,2128,2128,2128,2128,2128,2128,2128,2128,2128,2128,2128,2128,2128,2128,2128,2128,2128,2128,2128,2128,2128,2128,2128,2128,2128,2128,2128,2128,2128,2128,2128,2128,2128,2128,2128,2128,2128,2128,2128,2128,2128,2128,2128,2128,2128,2128,2128,2128,2128,2128,2128,2128,2128,2128,2128,2128,2128,2128,2128,2128,2128,2128,2128,2128,
2128,2128,2128,2128,2128,2128,2128,2128,2128,2128,2128,2128,2128,2128,2128,2128,2128,2128,2128,2128,2128,2128,2128,2128,2128,2128,2128,2128,2128,2128,2128,2128,2128,2128,2128,2128,2128,2128,2128,2128,2128,2128,2128,2128,2128,2128,2128,2128,2128,2128,2128,2128,2128,2128,2128,2128,2128,2128,2128,2128,2128,2128,2128,2128,2128,2128,2128,2128,2128,2128,2128,2128,2128,2128,2128,
2128,2128,2128,2128,2128,2128,2128,2128,2128,2128,2128,2128,2128,2128,2128,2128,2128,2128,2128,2128,2128,2128,2128,2128,2128,2128,2128,2128,2128,2128,2128,2128,2128,2128,2128,2128,2128,2128,2128,2128,2128,2128,2128,2128,2128,2128,2128,2128,2128,2128,2128,2128,2128,2128,2128,2128,2128,2128,2128,2128,2128,2128,2128,2128,2128,2128,2128,2128,2128,2128,2128,2128,2128,2128,2128
</data>
 </layer>
 <layer id="2" name="Buildings" width="75" height="75">
  <data encoding="csv">
0,0,0,0,0,0,0,0,0,0,0,0,0,0,0,0,0,0,0,0,0,0,0,0,0,0,0,0,0,0,0,0,0,0,0,0,0,0,0,0,0,0,0,0,0,0,0,0,0,0,0,0,0,0,0,0,0,0,0,0,0,0,0,0,0,0,0,0,0,0,0,0,0,0,0,
0,0,0,0,0,0,0,0,0,0,0,0,0,0,0,0,0,0,0,0,0,0,0,0,0,0,0,0,0,0,0,0,0,0,0,0,0,0,0,0,0,0,0,0,0,0,0,0,0,0,0,0,0,0,0,0,0,0,0,0,0,0,0,0,0,0,0,0,0,0,0,0,0,0,0,
0,0,0,0,0,0,0,0,0,0,0,0,0,0,0,0,0,0,0,0,0,0,0,0,0,0,0,0,0,0,0,0,0,0,0,0,0,0,0,0,0,0,0,0,0,0,0,0,0,0,0,0,0,0,0,0,0,0,0,0,0,0,0,0,0,0,0,0,0,0,0,0,0,0,0,
0,0,0,0,0,0,0,0,0,0,0,0,0,0,0,0,0,0,0,0,0,0,0,0,0,0,0,0,0,0,0,0,0,0,0,0,0,0,0,0,0,0,0,0,0,0,0,0,0,0,0,0,0,0,0,0,0,0,0,0,0,0,0,0,0,0,0,0,0,0,0,0,0,0,0,
0,0,0,0,0,0,0,0,0,0,0,0,0,0,0,0,0,0,0,0,0,0,0,0,0,0,0,0,0,0,0,0,0,0,0,0,0,0,0,0,0,0,0,0,0,0,0,0,0,0,0,0,0,0,0,0,0,0,0,0,0,0,0,0,0,0,0,0,0,0,0,0,0,0,0,
0,0,0,0,0,0,0,0,0,0,0,0,0,0,0,0,0,0,0,0,0,0,0,0,0,0,0,0,0,0,0,0,0,0,0,0,0,0,0,0,0,0,0,0,0,0,0,0,0,0,0,0,0,0,0,0,0,0,0,0,0,0,0,0,0,0,0,0,0,0,0,0,0,0,0,
0,0,0,0,0,0,0,0,0,0,0,0,0,0,0,0,0,0,0,0,0,0,0,0,0,0,0,0,0,0,0,0,0,0,0,0,0,0,0,0,0,0,0,0,0,0,0,0,0,0,0,0,0,0,0,0,0,0,0,0,0,0,0,0,0,0,0,0,0,0,0,0,0,0,0,
0,0,0,0,0,0,0,0,0,0,0,0,0,0,0,0,0,0,0,0,0,0,0,0,0,0,0,0,0,0,0,0,0,0,0,0,0,0,0,0,0,0,0,0,0,0,0,0,0,0,0,0,0,0,0,0,0,0,0,0,0,0,0,0,0,0,0,0,0,0,0,0,0,0,0,
0,0,0,0,0,0,0,0,0,0,0,0,0,0,0,0,0,0,0,0,0,0,0,0,0,0,0,0,0,0,0,0,0,0,0,0,0,0,0,0,0,0,0,0,0,0,0,0,0,0,0,0,0,0,0,0,0,0,0,0,0,0,0,0,0,0,0,0,0,0,0,0,0,0,0,
0,0,0,0,0,0,0,0,0,0,0,0,0,0,0,0,0,0,0,0,0,0,0,0,0,0,0,0,0,0,0,0,0,0,0,0,0,0,0,0,0,0,0,0,0,0,0,0,0,0,0,0,0,0,0,0,0,0,0,0,0,0,0,0,0,0,0,0,0,0,0,0,0,0,0,
0,0,0,0,0,0,0,0,0,0,0,0,0,0,0,0,0,0,0,0,0,0,0,0,0,0,0,0,0,0,0,0,0,0,0,0,0,0,0,0,0,0,0,0,0,0,0,0,0,0,0,0,0,0,0,0,0,0,0,0,0,0,0,0,0,0,0,0,0,0,0,0,0,0,0,
0,0,0,0,0,0,0,0,0,0,0,0,0,0,0,0,0,0,0,0,0,0,0,0,0,0,0,0,0,0,0,0,0,0,0,0,0,0,0,0,0,0,0,0,0,0,0,0,0,0,0,0,0,0,0,0,0,0,0,0,0,0,0,0,0,0,0,0,0,0,0,0,0,0,0,
0,0,0,0,0,0,0,0,0,0,0,0,0,0,0,0,0,0,0,0,0,0,0,0,0,0,0,0,0,0,0,0,0,0,0,0,0,0,0,0,0,0,0,0,0,0,0,0,0,0,0,0,0,0,0,0,0,0,0,0,0,0,0,0,0,0,0,0,0,0,0,0,0,0,0,
0,0,0,0,0,0,0,0,0,0,0,0,0,0,0,0,0,0,0,0,0,0,0,0,0,0,0,0,0,0,0,0,0,0,0,0,0,0,0,0,0,0,0,0,0,0,0,0,0,0,0,0,0,0,0,0,0,0,0,0,0,0,0,0,0,0,0,0,0,0,0,0,0,0,0,
0,0,0,0,0,0,0,0,0,0,0,0,0,0,0,0,0,0,0,0,0,0,0,0,0,0,0,0,0,0,0,0,0,0,0,0,0,0,0,0,0,0,0,0,0,0,0,0,0,0,0,0,0,0,0,0,0,0,0,0,0,0,0,0,0,0,0,0,0,0,0,0,0,0,0,
0,0,0,0,0,0,0,0,0,0,0,0,0,0,0,0,0,0,0,0,0,0,0,0,0,0,0,0,0,0,0,0,0,0,0,0,0,0,0,0,0,0,0,0,0,0,0,0,0,0,0,0,0,0,0,0,0,0,0,0,0,0,0,0,0,0,0,0,0,0,0,0,0,0,0,
0,0,0,0,0,0,0,0,0,0,0,0,0,0,0,0,0,0,0,0,0,0,0,0,0,0,0,0,0,0,0,0,0,0,0,0,0,0,0,0,0,0,0,0,0,0,0,0,0,0,0,0,0,0,0,0,0,0,0,0,0,0,0,0,0,0,0,0,0,0,0,0,0,0,0,
0,0,0,0,0,0,0,0,0,0,0,0,0,0,0,0,0,0,0,0,0,0,0,0,0,0,0,0,0,0,0,0,0,0,0,0,0,0,0,0,0,0,0,0,0,0,0,0,0,0,0,0,0,0,0,0,0,0,0,0,0,0,0,0,0,0,0,0,0,0,0,0,0,0,0,
0,0,0,0,0,0,0,0,0,0,0,0,0,0,0,0,0,0,0,0,0,0,0,0,0,0,0,0,0,0,0,0,0,0,0,0,0,0,0,0,0,0,0,0,0,0,0,0,0,0,0,0,0,0,0,0,0,0,0,0,0,0,0,0,0,0,0,0,0,0,0,0,0,0,0,
0,0,0,0,0,0,0,0,0,0,0,0,0,0,0,0,0,0,0,0,0,0,0,0,0,0,0,0,0,0,0,0,0,0,0,0,0,0,0,0,0,0,0,0,0,0,0,0,0,0,0,0,0,0,0,0,0,0,0,0,0,0,0,0,0,0,0,0,0,0,0,0,0,0,0,
0,0,0,0,0,0,0,0,0,0,0,0,0,0,0,0,0,0,0,0,0,0,0,0,0,0,0,0,0,0,0,0,0,0,0,0,0,0,0,0,0,0,0,0,0,0,0,0,0,0,0,0,0,0,0,0,0,0,0,0,0,0,0,0,0,0,0,0,0,0,0,0,0,0,0,
0,0,0,0,0,0,0,0,0,0,0,0,0,0,0,0,0,0,0,0,0,0,0,0,0,0,0,0,0,0,0,0,0,0,0,0,0,0,0,0,0,0,0,0,0,0,0,0,0,0,0,0,0,0,0,0,0,0,0,0,0,0,0,0,0,0,0,0,0,0,0,0,0,0,0,
0,0,0,0,0,0,0,0,0,0,0,0,0,0,0,0,0,0,0,0,0,0,0,0,0,0,0,0,0,0,0,0,0,0,0,0,0,0,0,0,0,0,0,0,0,0,0,0,0,0,0,0,0,0,0,0,0,0,0,0,0,0,0,0,0,0,0,0,0,0,0,0,0,0,0,
0,0,0,0,0,0,0,0,0,0,0,0,0,0,0,0,0,0,0,0,0,0,0,0,0,0,0,0,0,0,0,0,0,0,0,0,0,0,0,0,0,0,0,0,0,0,0,0,0,0,0,0,0,0,0,0,0,0,0,0,0,0,0,0,0,0,0,0,0,0,0,0,0,0,0,
0,0,0,0,0,0,0,0,0,0,0,0,0,0,0,0,0,0,0,0,0,0,0,0,0,0,0,0,0,0,0,0,0,0,0,0,0,0,0,0,0,0,0,0,0,0,0,0,0,0,0,0,0,0,0,0,0,0,0,0,0,0,0,0,0,0,0,0,0,0,0,0,0,0,0,
0,0,0,0,0,0,0,0,0,0,0,0,0,0,0,0,0,0,0,0,0,0,0,0,0,0,0,0,0,0,0,0,0,0,0,0,0,0,0,0,0,0,0,0,0,0,0,0,0,0,0,0,0,0,0,0,0,0,0,0,0,0,0,0,0,0,0,0,0,0,0,0,0,0,0,
0,0,0,0,0,0,0,0,0,0,0,0,0,0,0,0,0,0,0,0,0,0,0,0,0,0,0,0,0,0,0,0,0,0,0,0,0,0,0,0,0,0,0,0,0,0,0,0,0,0,0,0,0,0,0,0,0,0,0,0,0,0,0,0,0,0,0,0,0,0,0,0,0,0,0,
0,0,0,0,0,0,0,0,0,0,0,0,0,0,0,0,0,0,0,0,0,0,0,0,0,0,0,0,0,0,0,0,0,0,0,0,0,0,0,0,0,0,0,0,0,0,0,0,0,0,0,0,0,0,0,0,0,0,0,0,0,0,0,0,0,0,0,0,0,0,0,0,0,0,0,
0,0,0,0,0,0,0,0,0,0,0,0,0,0,0,0,0,0,0,0,0,0,0,0,0,0,0,0,0,0,0,0,0,0,0,0,0,0,0,0,0,0,0,0,0,0,0,0,0,0,0,0,0,0,0,0,0,0,0,0,0,0,0,0,0,0,0,0,0,0,0,0,0,0,0,
0,0,0,0,0,0,0,0,0,0,0,0,0,0,0,0,0,0,0,0,0,0,0,0,0,0,0,0,0,0,0,0,0,0,0,0,0,0,0,0,0,0,0,0,0,0,0,0,0,0,0,0,0,0,0,0,0,0,0,0,0,0,0,0,0,0,0,0,0,0,0,0,0,0,0,
0,0,0,0,0,0,0,0,0,0,0,0,0,0,0,0,0,0,0,0,0,0,0,0,0,0,0,0,0,0,0,0,0,0,0,0,0,0,0,0,0,0,0,0,0,0,0,0,0,0,0,0,0,0,0,0,0,0,0,0,0,0,0,0,0,0,0,0,0,0,0,0,0,0,0,
0,0,0,0,0,0,0,0,0,0,0,0,0,0,0,0,0,0,0,0,0,0,0,0,0,0,0,0,0,0,0,0,0,0,0,0,0,0,0,0,0,0,0,0,0,0,0,0,0,0,0,0,0,0,0,0,0,0,0,0,0,0,0,0,0,0,0,0,0,0,0,0,0,0,0,
0,0,0,0,0,0,0,0,0,0,0,0,0,0,0,0,0,0,0,0,0,0,0,0,0,0,0,0,0,0,0,0,0,0,0,0,0,0,0,0,0,0,0,0,0,0,0,0,0,0,0,0,0,0,0,0,0,0,0,0,0,0,0,0,0,0,0,0,0,0,0,0,0,0,0,
0,0,0,0,0,0,0,0,0,0,0,0,0,0,0,0,0,0,0,0,0,0,0,0,0,0,0,0,0,0,0,0,0,0,0,0,0,0,0,0,0,0,0,0,0,0,0,0,0,0,0,0,0,0,0,0,0,0,0,0,0,0,0,0,0,0,0,0,0,0,0,0,0,0,0,
0,0,0,0,0,0,0,0,0,0,0,0,0,0,0,0,0,0,0,0,0,0,0,0,0,0,0,0,0,0,0,0,0,0,0,0,0,0,0,0,0,0,0,0,0,0,0,0,0,0,0,0,0,0,0,0,0,0,0,0,0,0,0,0,0,0,0,0,0,0,0,0,0,0,0,
0,0,0,0,0,0,0,0,0,0,0,0,0,0,0,0,0,0,0,0,0,0,0,0,0,0,0,0,0,0,0,0,0,0,0,0,0,0,0,0,0,0,0,0,0,0,0,0,0,0,0,0,0,0,0,0,0,0,0,0,0,0,0,0,0,0,0,0,0,0,0,0,0,0,0,
0,0,0,0,0,0,0,0,0,0,0,0,0,0,0,0,0,0,0,0,0,0,0,0,0,0,0,0,0,0,0,0,0,0,0,0,0,0,0,0,0,0,0,0,0,0,0,0,0,0,0,0,0,0,0,0,0,0,0,0,0,0,0,0,0,0,0,0,0,0,0,0,0,0,0,
0,0,0,0,0,0,0,0,0,0,0,0,0,0,0,0,0,0,0,0,0,0,0,0,0,0,0,0,0,0,0,0,0,0,0,0,0,0,0,0,0,0,0,0,0,0,0,0,0,0,0,0,0,0,0,0,0,0,0,0,0,0,0,0,0,0,0,0,0,0,0,0,0,0,0,
0,0,0,0,0,0,0,0,0,0,0,0,0,0,0,0,0,0,0,0,0,0,0,0,0,0,0,0,0,0,0,0,0,0,0,0,0,0,0,0,0,0,0,0,0,0,0,0,0,0,0,0,0,0,0,0,0,0,0,0,0,0,0,0,0,0,0,0,0,0,0,0,0,0,0,
0,0,0,0,0,0,0,0,0,0,0,0,0,0,0,0,0,0,0,0,0,0,0,0,0,0,0,0,0,0,0,0,0,0,0,0,0,0,0,0,0,0,0,0,0,0,0,0,0,0,0,0,0,0,0,0,0,0,0,0,0,0,0,0,0,0,0,0,0,0,0,0,0,0,0,
0,0,0,0,0,0,0,0,0,0,0,0,0,0,0,0,0,0,0,0,0,0,0,0,0,0,0,0,0,0,0,0,0,0,0,0,0,0,0,0,0,0,0,0,0,0,0,0,0,0,0,0,0,0,0,0,0,0,0,0,0,0,0,0,0,0,0,0,0,0,0,0,0,0,0,
0,0,0,0,0,0,0,0,0,0,0,0,0,0,0,0,0,0,0,0,0,0,0,0,0,0,0,0,0,0,0,0,0,0,0,0,0,0,0,0,0,0,0,0,0,0,0,0,0,0,0,0,0,0,0,0,0,0,0,0,0,0,0,0,0,0,0,0,0,0,0,0,0,0,0,
0,0,0,0,0,0,0,0,0,0,0,0,0,0,0,0,0,0,0,0,0,0,0,0,0,0,0,0,0,0,0,0,0,0,0,0,0,0,0,0,0,0,0,0,0,0,0,0,0,0,0,0,0,0,0,0,0,0,0,0,0,0,0,0,0,0,0,0,0,0,0,0,0,0,0,
0,0,0,0,0,0,0,0,0,0,0,0,0,0,0,0,0,0,0,0,0,0,0,0,0,0,0,0,0,0,0,0,0,0,0,0,0,0,0,0,0,0,0,0,0,0,0,0,0,0,0,0,0,0,0,0,0,0,0,0,0,0,0,0,0,0,0,0,0,0,0,0,0,0,0,
0,0,0,0,0,0,0,0,0,0,0,0,0,0,0,0,0,0,0,0,0,0,0,0,0,0,0,0,0,0,0,0,0,0,0,0,0,0,0,0,0,0,0,0,0,0,0,0,0,0,0,0,0,0,0,0,0,0,0,0,0,0,0,0,0,0,0,0,0,0,0,0,0,0,0,
0,0,0,0,0,0,0,0,0,0,0,0,0,0,0,0,0,0,0,0,0,0,0,0,0,0,0,0,0,0,0,0,0,0,0,0,0,0,0,0,0,0,0,0,0,0,0,0,0,0,0,0,0,0,0,0,0,0,0,0,0,0,0,0,0,0,0,0,0,0,0,0,0,0,0,
0,0,0,0,0,0,0,0,0,0,0,0,0,0,0,0,0,0,0,0,0,0,0,0,0,0,0,0,0,0,0,0,0,0,0,0,0,0,0,0,0,0,0,0,0,0,0,0,0,0,0,0,0,0,0,0,0,0,0,0,0,0,0,0,0,0,0,0,0,0,0,0,0,0,0,
0,0,0,0,0,0,0,0,0,0,0,0,0,0,0,0,0,0,0,0,0,0,0,0,0,0,0,0,0,0,0,0,0,0,0,0,0,0,0,0,0,0,0,0,0,0,0,0,0,0,0,0,0,0,0,0,0,0,0,0,0,0,0,0,0,0,0,0,0,0,0,0,0,0,0,
0,0,0,0,0,0,0,0,0,0,0,0,0,0,0,0,0,0,0,0,0,0,0,0,0,0,0,0,0,0,0,0,0,0,0,0,0,0,0,0,0,0,0,0,0,0,0,0,0,0,0,0,0,0,0,0,0,0,0,0,0,0,0,0,0,0,0,0,0,0,0,0,0,0,0,
0,0,0,0,0,0,0,0,0,0,0,0,0,0,0,0,0,0,0,0,0,0,0,0,0,0,0,0,0,0,0,0,0,0,0,0,0,0,0,0,0,0,0,0,0,0,0,0,0,0,0,0,0,0,0,0,0,0,0,0,0,0,0,0,0,0,0,0,0,0,0,0,0,0,0,
0,0,0,0,0,0,0,0,0,0,0,0,0,0,0,0,0,0,0,0,0,0,0,0,0,0,0,0,0,0,0,0,0,0,0,0,0,0,0,0,0,0,0,0,0,0,0,0,0,0,0,0,0,0,0,0,0,0,0,0,0,0,0,0,0,0,0,0,0,0,0,0,0,0,0,
0,0,0,0,0,0,0,0,0,0,0,0,0,0,0,0,0,0,0,0,0,0,0,0,0,0,0,0,0,0,0,0,0,0,0,0,0,0,0,0,0,0,0,0,0,0,0,0,0,0,0,0,0,0,0,0,0,0,0,0,0,0,0,0,0,0,0,0,0,0,0,0,0,0,0,
0,0,0,0,0,0,0,0,0,0,0,0,0,0,0,0,0,0,0,0,0,0,0,0,0,0,0,0,0,0,0,0,0,0,0,0,0,0,0,0,0,0,0,0,0,0,0,0,0,0,0,0,0,0,0,0,0,0,0,0,0,0,0,0,0,0,0,0,0,0,0,0,0,0,0,
0,0,0,0,0,0,0,0,0,0,0,0,0,0,0,0,0,0,0,0,0,0,0,0,0,0,0,0,0,0,0,0,0,0,0,0,0,0,0,0,0,0,0,0,0,0,0,0,0,0,0,0,0,0,0,0,0,0,0,0,0,0,0,0,0,0,0,0,0,0,0,0,0,0,0,
0,0,0,0,0,0,0,0,0,0,0,0,0,0,0,0,0,0,0,0,0,0,0,0,0,0,0,0,0,0,0,0,0,0,0,0,0,0,0,0,0,0,0,0,0,0,0,0,0,0,0,0,0,0,0,0,0,0,0,0,0,0,0,0,0,0,0,0,0,0,0,0,0,0,0,
0,0,0,0,0,0,0,0,0,0,0,0,0,0,0,0,0,0,0,0,0,0,0,0,0,0,0,0,0,0,0,0,0,0,0,0,0,0,0,0,0,0,0,0,0,0,0,0,0,0,0,0,0,0,0,0,0,0,0,0,0,0,0,0,0,0,0,0,0,0,0,0,0,0,0,
0,0,0,0,0,0,0,0,0,0,0,0,0,0,0,0,0,0,0,0,0,0,0,0,0,0,0,0,0,0,0,0,0,0,0,0,0,0,0,0,0,0,0,0,0,0,0,0,0,0,0,0,0,0,0,0,0,0,0,0,0,0,0,0,0,0,0,0,0,0,0,0,0,0,0,
0,0,0,0,0,0,0,0,0,0,0,0,0,0,0,0,0,0,0,0,0,0,0,0,0,0,0,0,0,0,0,0,0,0,0,0,0,0,0,0,0,0,0,0,0,0,0,0,0,0,0,0,0,0,0,0,0,0,0,0,0,0,0,0,0,0,0,0,0,0,0,0,0,0,0,
0,0,0,0,0,0,0,0,0,0,0,0,0,0,0,0,0,0,0,0,0,0,0,0,0,0,0,0,0,0,0,0,0,0,0,0,0,0,0,0,0,0,0,0,0,0,0,0,0,0,0,0,0,0,0,0,0,0,0,0,0,0,0,0,0,0,0,0,0,0,0,0,0,0,0,
0,0,0,0,0,0,0,0,0,0,0,0,0,0,0,0,0,0,0,0,0,0,0,0,0,0,0,0,0,0,0,0,0,0,0,0,0,0,0,0,0,0,0,0,0,0,0,0,0,0,0,0,0,0,0,0,0,0,0,0,0,0,0,0,0,0,0,0,0,0,0,0,0,0,0,
0,0,0,0,0,0,0,0,0,0,0,0,0,0,0,0,0,0,0,0,0,0,0,0,0,0,0,0,0,0,0,0,0,0,0,0,0,0,0,0,0,0,0,0,0,0,0,0,0,0,0,0,0,0,0,0,0,0,0,0,0,0,0,0,0,0,0,0,0,0,0,0,0,0,0,
0,0,0,0,0,0,0,0,0,0,0,0,0,0,0,0,0,0,0,0,0,0,0,0,0,0,0,0,0,0,0,0,0,0,0,0,0,0,0,0,0,0,0,0,0,0,0,0,0,0,0,0,0,0,0,0,0,0,0,0,0,0,0,0,0,0,0,0,0,0,0,0,0,0,0,
0,0,0,0,0,0,0,0,0,0,0,0,0,0,0,0,0,0,0,0,0,0,0,0,0,0,0,0,0,0,0,0,0,0,0,0,0,0,0,0,0,0,0,0,0,0,0,0,0,0,0,0,0,0,0,0,0,0,0,0,0,0,0,0,0,0,0,0,0,0,0,0,0,0,0,
0,0,0,0,0,0,0,0,0,0,0,0,0,0,0,0,0,0,0,0,0,0,0,0,0,0,0,0,0,0,0,0,0,0,0,0,0,0,0,0,0,0,0,0,0,0,0,0,0,0,0,0,0,0,0,0,0,0,0,0,0,0,0,0,0,0,0,0,0,0,0,0,0,0,0,
0,0,0,0,0,0,0,0,0,0,0,0,0,0,0,0,0,0,0,0,0,0,0,0,0,0,0,0,0,0,0,0,0,0,0,0,0,0,0,0,0,0,0,0,0,0,0,0,0,0,0,0,0,0,0,0,0,0,0,0,0,0,0,0,0,0,0,0,0,0,0,0,0,0,0,
0,0,0,0,0,0,0,0,0,0,0,0,0,0,0,0,0,0,0,0,0,0,0,0,0,0,0,0,0,0,0,0,0,0,0,0,0,0,0,0,0,0,0,0,0,0,0,0,0,0,0,0,0,0,0,0,0,0,0,0,0,0,0,0,0,0,0,0,0,0,0,0,0,0,0,
0,0,0,0,0,0,0,0,0,0,0,0,0,0,0,0,0,0,0,0,0,0,0,0,0,0,0,0,0,0,0,0,0,0,0,0,0,0,0,0,0,0,0,0,0,0,0,0,0,0,0,0,0,0,0,0,0,0,0,0,0,0,0,0,0,0,0,0,0,0,0,0,0,0,0,
0,0,0,0,0,0,0,0,0,0,0,0,0,0,0,0,0,0,0,0,0,0,0,0,0,0,0,0,0,0,0,0,0,0,0,0,0,0,0,0,0,0,0,0,0,0,0,0,0,0,0,0,0,0,0,0,0,0,0,0,0,0,0,0,0,0,0,0,0,0,0,0,0,0,0,
0,0,0,0,0,0,0,0,0,0,0,0,0,0,0,0,0,0,0,0,0,0,0,0,0,0,0,0,0,0,0,0,0,0,0,0,0,0,0,0,0,0,0,0,0,0,0,0,0,0,0,0,0,0,0,0,0,0,0,0,0,0,0,0,0,0,0,0,0,0,0,0,0,0,0,
0,0,0,0,0,0,0,0,0,0,0,0,0,0,0,0,0,0,0,0,0,0,0,0,0,0,0,0,0,0,0,0,0,0,0,0,0,0,0,0,0,0,0,0,0,0,0,0,0,0,0,0,0,0,0,0,0,0,0,0,0,0,0,0,0,0,0,0,0,0,0,0,0,0,0,
0,0,0,0,0,0,0,0,0,0,0,0,0,0,0,0,0,0,0,0,0,0,0,0,0,0,0,0,0,0,0,0,0,0,0,0,0,0,0,0,0,0,0,0,0,0,0,0,0,0,0,0,0,0,0,0,0,0,0,0,0,0,0,0,0,0,0,0,0,0,0,0,0,0,0,
0,0,0,0,0,0,0,0,0,0,0,0,0,0,0,0,0,0,0,0,0,0,0,0,0,0,0,0,0,0,0,0,0,0,0,0,0,0,0,0,0,0,0,0,0,0,0,0,0,0,0,0,0,0,0,0,0,0,0,0,0,0,0,0,0,0,0,0,0,0,0,0,0,0,0,
0,0,0,0,0,0,0,0,0,0,0,0,0,0,0,0,0,0,0,0,0,0,0,0,0,0,0,0,0,0,0,0,0,0,0,0,0,0,0,0,0,0,0,0,0,0,0,0,0,0,0,0,0,0,0,0,0,0,0,0,0,0,0,0,0,0,0,0,0,0,0,0,0,0,0,
0,0,0,0,0,0,0,0,0,0,0,0,0,0,0,0,0,0,0,0,0,0,0,0,0,0,0,0,0,0,0,0,0,0,0,0,0,0,0,0,0,0,0,0,0,0,0,0,0,0,0,0,0,0,0,0,0,0,0,0,0,0,0,0,0,0,0,0,0,0,0,0,0,0,0,
0,0,0,0,0,0,0,0,0,0,0,0,0,0,0,0,0,0,0,0,0,0,0,0,0,0,0,0,0,0,0,0,0,0,0,0,0,0,0,0,0,0,0,0,0,0,0,0,0,0,0,0,0,0,0,0,0,0,0,0,0,0,0,0,0,0,0,0,0,0,0,0,0,0,0
</data>
 </layer>
 <layer id="10" name="Buildings1" width="75" height="75">
  <data encoding="csv">
0,0,0,0,0,0,0,0,0,0,0,0,0,0,0,0,0,0,0,0,0,0,0,0,0,0,0,0,0,0,0,0,0,0,0,0,0,0,0,0,0,0,0,0,0,0,0,0,0,0,0,0,0,0,0,0,0,0,0,0,0,0,0,0,0,0,0,0,0,0,0,0,0,0,0,
0,0,0,0,0,0,0,0,0,0,0,0,0,0,0,0,0,0,0,0,0,0,0,0,0,0,0,0,0,0,0,0,0,0,0,0,0,0,0,0,0,0,0,0,0,0,0,0,0,0,0,0,0,0,0,0,0,0,0,0,0,0,0,0,0,0,0,0,0,0,0,0,0,0,0,
0,0,0,0,0,0,0,0,0,0,0,0,0,0,0,0,0,0,0,0,0,0,0,0,0,0,0,0,0,0,0,0,0,0,0,0,0,0,0,0,0,0,0,0,0,0,0,0,0,0,0,0,0,0,0,0,0,0,0,0,0,0,0,0,0,0,0,0,0,0,0,0,0,0,0,
0,0,0,0,0,0,0,0,0,0,0,0,0,0,0,0,0,0,0,0,0,0,0,0,0,0,0,0,0,0,0,0,0,0,0,0,0,0,0,0,0,0,0,0,0,0,0,0,0,0,0,0,0,0,0,0,0,0,0,0,0,0,0,0,0,0,0,0,0,0,0,0,0,0,0,
0,0,0,0,0,0,0,0,0,0,0,0,0,0,0,0,0,0,0,0,0,0,0,0,0,0,0,0,0,0,0,0,0,0,0,0,0,0,0,0,0,0,0,0,0,0,0,0,0,0,0,0,0,0,0,0,0,0,0,0,0,0,0,0,0,0,0,0,0,0,0,0,0,0,0,
0,0,0,0,0,0,0,0,0,0,0,0,0,0,0,0,0,0,0,0,0,0,0,0,0,0,0,0,0,0,0,0,0,0,0,0,0,0,0,0,0,0,0,0,0,0,0,0,0,0,0,0,0,0,0,0,0,0,0,0,0,0,0,0,0,0,0,0,0,0,0,0,0,0,0,
0,0,0,0,0,0,0,0,0,0,0,0,0,0,0,0,0,0,0,0,0,0,0,0,0,0,0,0,0,0,0,0,0,0,0,0,0,0,0,0,0,0,0,0,0,0,0,0,0,0,0,0,0,0,0,0,0,0,0,0,0,0,0,0,0,0,0,0,0,0,0,0,0,0,0,
0,0,0,0,0,0,0,0,0,0,0,0,0,0,0,0,0,0,0,0,0,0,0,0,0,0,0,0,0,0,0,0,0,0,0,0,0,0,0,0,0,0,0,0,0,0,0,0,0,0,0,0,0,0,0,0,0,0,0,0,0,0,0,0,0,0,0,0,0,0,0,0,0,0,0,
0,0,0,0,0,0,0,0,0,0,0,0,0,0,0,0,0,0,0,0,0,0,0,0,0,0,0,0,0,0,0,0,0,0,0,0,0,0,0,0,0,0,0,0,0,0,0,0,0,0,0,0,0,0,0,0,0,0,0,0,0,0,0,0,0,0,0,0,0,0,0,0,0,0,0,
0,0,0,0,0,0,0,0,0,0,0,0,0,0,0,0,0,0,0,0,0,0,0,0,0,0,0,0,0,0,0,0,0,0,0,0,0,0,0,0,0,0,0,0,0,0,0,0,0,0,0,0,0,0,0,0,0,0,0,0,0,0,0,0,0,0,0,0,0,0,0,0,0,0,0,
0,0,0,0,0,0,0,0,0,0,0,0,0,0,0,0,0,0,0,0,0,0,0,0,0,0,0,0,0,0,0,0,0,0,0,0,0,0,0,0,0,0,0,0,0,0,0,0,0,0,0,0,0,0,0,0,0,0,0,0,0,0,0,0,0,0,0,0,0,0,0,0,0,0,0,
0,0,0,0,0,0,0,0,0,0,0,0,0,0,0,0,0,0,0,0,0,0,0,0,0,0,0,0,0,0,0,0,0,0,0,0,0,0,0,0,0,0,0,0,0,0,0,0,0,0,0,0,0,0,0,0,0,0,0,0,0,0,0,0,0,0,0,0,0,0,0,0,0,0,0,
0,0,0,0,0,0,0,0,0,0,0,0,0,0,0,0,0,0,0,0,0,0,0,0,0,0,0,0,0,0,0,0,0,0,0,0,0,0,0,0,0,0,0,0,0,0,0,0,0,0,0,0,0,0,0,0,0,0,0,0,0,0,0,0,0,0,0,0,0,0,0,0,0,0,0,
0,0,0,0,0,0,0,0,0,0,0,0,0,0,0,0,0,0,0,0,0,0,0,0,0,0,0,0,0,0,0,0,0,0,0,0,0,0,0,0,0,0,0,0,0,0,0,0,0,0,0,0,0,0,0,0,0,0,0,0,0,0,0,0,0,0,0,0,0,0,0,0,0,0,0,
0,0,0,0,0,0,0,0,0,0,0,0,0,0,0,0,0,0,0,0,0,0,0,0,0,0,0,0,0,0,0,0,0,0,0,0,0,0,0,0,0,0,0,0,0,0,0,0,0,0,0,0,0,0,0,0,0,0,0,0,0,0,0,0,0,0,0,0,0,0,0,0,0,0,0,
0,0,0,0,0,0,0,0,0,0,0,0,0,0,0,0,0,0,0,0,0,0,0,0,0,0,0,0,0,0,0,0,0,0,0,0,0,0,0,0,0,0,0,0,0,0,0,0,0,0,0,0,0,0,0,0,0,0,0,0,0,0,0,0,0,0,0,0,0,0,0,0,0,0,0,
0,0,0,0,0,0,0,0,0,0,0,0,0,0,0,0,0,0,0,0,0,0,0,0,0,0,0,0,0,0,0,0,0,0,0,0,0,0,0,0,0,0,0,0,0,0,0,0,0,0,0,0,0,0,0,0,0,0,0,0,0,0,0,0,0,0,0,0,0,0,0,0,0,0,0,
0,0,0,0,0,0,0,0,0,0,0,0,0,0,0,0,0,0,0,0,0,0,0,0,0,0,0,0,0,0,0,0,0,0,0,0,0,0,0,0,0,0,0,0,0,0,0,0,0,0,0,0,0,0,0,0,0,0,0,0,0,0,0,0,0,0,0,0,0,0,0,0,0,0,0,
0,0,0,0,0,0,0,0,0,0,0,0,0,0,0,0,0,0,0,0,0,0,0,0,0,0,0,0,0,0,0,0,0,0,0,0,0,0,0,0,0,0,0,0,0,0,0,0,0,0,0,0,0,0,0,0,0,0,0,0,0,0,0,0,0,0,0,0,0,0,0,0,0,0,0,
0,0,0,0,0,0,0,0,0,0,0,0,0,0,0,0,0,0,0,0,0,0,0,0,0,0,0,0,0,0,0,0,0,0,0,0,0,0,0,0,0,0,0,0,0,0,0,0,0,0,0,0,0,0,0,0,0,0,0,0,0,0,0,0,0,0,0,0,0,0,0,0,0,0,0,
0,0,0,0,0,0,0,0,0,0,0,0,0,0,0,0,0,0,0,0,0,0,0,0,0,0,0,0,0,0,0,0,0,0,0,0,0,0,0,0,0,0,0,0,0,0,0,0,0,0,0,0,0,0,0,0,0,0,0,0,0,0,0,0,0,0,0,0,0,0,0,0,0,0,0,
0,0,0,0,0,0,0,0,0,0,0,0,0,0,0,0,0,0,0,0,0,0,0,0,0,0,0,0,0,0,0,0,0,0,0,0,0,0,0,0,0,0,0,0,0,0,0,0,0,0,0,0,0,0,0,0,0,0,0,0,0,0,0,0,0,0,0,0,0,0,0,0,0,0,0,
0,0,0,0,0,0,0,0,0,0,0,0,0,0,0,0,0,0,0,0,0,0,0,0,0,0,0,0,0,0,0,0,0,0,0,0,0,0,0,0,0,0,0,0,0,0,0,0,0,0,0,0,0,0,0,0,0,0,0,0,0,0,0,0,0,0,0,0,0,0,0,0,0,0,0,
0,0,0,0,0,0,0,0,0,0,0,0,0,0,0,0,0,0,0,0,0,0,0,0,0,0,0,0,0,0,0,0,0,0,0,0,0,0,0,0,0,0,0,0,0,0,0,0,0,0,0,0,0,0,0,0,0,0,0,0,0,0,0,0,0,0,0,0,0,0,0,0,0,0,0,
0,0,0,0,0,0,0,0,0,0,0,0,0,0,0,0,0,0,0,0,0,0,0,0,0,0,0,0,0,0,0,0,0,0,0,0,0,0,0,0,0,0,0,0,0,0,0,0,0,0,0,0,0,0,0,0,0,0,0,0,0,0,0,0,0,0,0,0,0,0,0,0,0,0,0,
0,0,0,0,0,0,0,0,0,0,0,0,0,0,0,0,0,0,0,0,0,0,0,0,0,0,0,0,0,0,0,0,0,0,0,0,0,0,0,0,0,0,0,0,0,0,0,0,0,0,0,0,0,0,0,0,0,0,0,0,0,0,0,0,0,0,0,0,0,0,0,0,0,0,0,
0,0,0,0,0,0,0,0,0,0,0,0,0,0,0,0,0,0,0,0,0,0,0,0,0,0,0,0,0,0,0,0,0,0,0,0,0,0,0,0,0,0,0,0,0,0,0,0,0,0,0,0,0,0,0,0,0,0,0,0,0,0,0,0,0,0,0,0,0,0,0,0,0,0,0,
0,0,0,0,0,0,0,0,0,0,0,0,0,0,0,0,0,0,0,0,0,0,0,0,0,0,0,0,0,0,0,0,0,0,0,0,0,0,0,0,0,0,0,0,0,0,0,0,0,0,0,0,0,0,0,0,0,0,0,0,0,0,0,0,0,0,0,0,0,0,0,0,0,0,0,
0,0,0,0,0,0,0,0,0,0,0,0,0,0,0,0,0,0,0,0,0,0,0,0,0,0,0,0,0,0,0,0,0,0,0,0,0,0,0,0,0,0,0,0,0,0,0,0,0,0,0,0,0,0,0,0,0,0,0,0,0,0,0,0,0,0,0,0,0,0,0,0,0,0,0,
0,0,0,0,0,0,0,0,0,0,0,0,0,0,0,0,0,0,0,0,0,0,0,0,0,0,0,0,0,0,0,0,0,0,0,0,0,0,0,0,0,0,0,0,0,0,0,0,0,0,0,0,0,0,0,0,0,0,0,0,0,0,0,0,0,0,0,0,0,0,0,0,0,0,0,
0,0,0,0,0,0,0,0,0,0,0,0,0,0,0,0,0,0,0,0,0,0,0,0,0,0,0,0,0,0,0,0,0,0,0,0,0,0,0,0,0,0,0,0,0,0,0,0,0,0,0,0,0,0,0,0,0,0,0,0,0,0,0,0,0,0,0,0,0,0,0,0,0,0,0,
0,0,0,0,0,0,0,0,0,0,0,0,0,0,0,0,0,0,0,0,0,0,0,0,0,0,0,0,0,0,0,0,0,0,0,0,0,0,0,0,0,0,0,0,0,0,0,0,0,0,0,0,0,0,0,0,0,0,0,0,0,0,0,0,0,0,0,0,0,0,0,0,0,0,0,
0,0,0,0,0,0,0,0,0,0,0,0,0,0,0,0,0,0,0,0,0,0,0,0,0,0,0,0,0,0,0,0,0,0,0,0,0,0,0,0,0,0,0,0,0,0,0,0,0,0,0,0,0,0,0,0,0,0,0,0,0,0,0,0,0,0,0,0,0,0,0,0,0,0,0,
0,0,0,0,0,0,0,0,0,0,0,0,0,0,0,0,0,0,0,0,0,0,0,0,0,0,0,0,0,0,0,0,0,0,0,0,0,0,0,0,0,0,0,0,0,0,0,0,0,0,0,0,0,0,0,0,0,0,0,0,0,0,0,0,0,0,0,0,0,0,0,0,0,0,0,
0,0,0,0,0,0,0,0,0,0,0,0,0,0,0,0,0,0,0,0,0,0,0,0,0,0,0,0,0,0,0,0,0,0,0,0,0,0,0,0,0,0,0,0,0,0,0,0,0,0,0,0,0,0,0,0,0,0,0,0,0,0,0,0,0,0,0,0,0,0,0,0,0,0,0,
0,0,0,0,0,0,0,0,0,0,0,0,0,0,0,0,0,0,0,0,0,0,0,0,0,0,0,0,0,0,0,0,0,0,0,0,0,0,0,0,0,0,0,0,0,0,0,0,0,0,0,0,0,0,0,0,0,0,0,0,0,0,0,0,0,0,0,0,0,0,0,0,0,0,0,
0,0,0,0,0,0,0,0,0,0,0,0,0,0,0,0,0,0,0,0,0,0,0,0,0,0,0,0,0,0,0,0,0,0,0,0,0,0,0,0,0,0,0,0,0,0,0,0,0,0,0,0,0,0,0,0,0,0,0,0,0,0,0,0,0,0,0,0,0,0,0,0,0,0,0,
0,0,0,0,0,0,0,0,0,0,0,0,0,0,0,0,0,0,0,0,0,0,0,0,0,0,0,0,0,0,0,0,0,0,0,0,0,0,0,0,0,0,0,0,0,0,0,0,0,0,0,0,0,0,0,0,0,0,0,0,0,0,0,0,0,0,0,0,0,0,0,0,0,0,0,
0,0,0,0,0,0,0,0,0,0,0,0,0,0,0,0,0,0,0,0,0,0,0,0,0,0,0,0,0,0,0,0,0,0,0,0,0,0,0,0,0,0,0,0,0,0,0,0,0,0,0,0,0,0,0,0,0,0,0,0,0,0,0,0,0,0,0,0,0,0,0,0,0,0,0,
0,0,0,0,0,0,0,0,0,0,0,0,0,0,0,0,0,0,0,0,0,0,0,0,0,0,0,0,0,0,0,0,0,0,0,0,0,0,0,0,0,0,0,0,0,0,0,0,0,0,0,0,0,0,0,0,0,0,0,0,0,0,0,0,0,0,0,0,0,0,0,0,0,0,0,
0,0,0,0,0,0,0,0,0,0,0,0,0,0,0,0,0,0,0,0,0,0,0,0,0,0,0,0,0,0,0,0,0,0,0,0,0,0,0,0,0,0,0,0,0,0,0,0,0,0,0,0,0,0,0,0,0,0,0,0,0,0,0,0,0,0,0,0,0,0,0,0,0,0,0,
0,0,0,0,0,0,0,0,0,0,0,0,0,0,0,0,0,0,0,0,0,0,0,0,0,0,0,0,0,0,0,0,0,0,0,0,0,0,0,0,0,0,0,0,0,0,0,0,0,0,0,0,0,0,0,0,0,0,0,0,0,0,0,0,0,0,0,0,0,0,0,0,0,0,0,
0,0,0,0,0,0,0,0,0,0,0,0,0,0,0,0,0,0,0,0,0,0,0,0,0,0,0,0,0,0,0,0,0,0,0,0,0,0,0,0,0,0,0,0,0,0,0,0,0,0,0,0,0,0,0,0,0,0,0,0,0,0,0,0,0,0,0,0,0,0,0,0,0,0,0,
0,0,0,0,0,0,0,0,0,0,0,0,0,0,0,0,0,0,0,0,0,0,0,0,0,0,0,0,0,0,0,0,0,0,0,0,0,0,0,0,0,0,0,0,0,0,0,0,0,0,0,0,0,0,0,0,0,0,0,0,0,0,0,0,0,0,0,0,0,0,0,0,0,0,0,
0,0,0,0,0,0,0,0,0,0,0,0,0,0,0,0,0,0,0,0,0,0,0,0,0,0,0,0,0,0,0,0,0,0,0,0,0,0,0,0,0,0,0,0,0,0,0,0,0,0,0,0,0,0,0,0,0,0,0,0,0,0,0,0,0,0,0,0,0,0,0,0,0,0,0,
0,0,0,0,0,0,0,0,0,0,0,0,0,0,0,0,0,0,0,0,0,0,0,0,0,0,0,0,0,0,0,0,0,0,0,0,0,0,0,0,0,0,0,0,0,0,0,0,0,0,0,0,0,0,0,0,0,0,0,0,0,0,0,0,0,0,0,0,0,0,0,0,0,0,0,
0,0,0,0,0,0,0,0,0,0,0,0,0,0,0,0,0,0,0,0,0,0,0,0,0,0,0,0,0,0,0,0,0,0,0,0,0,0,0,0,0,0,0,0,0,0,0,0,0,0,0,0,0,0,0,0,0,0,0,0,0,0,0,0,0,0,0,0,0,0,0,0,0,0,0,
0,0,0,0,0,0,0,0,0,0,0,0,0,0,0,0,0,0,0,0,0,0,0,0,0,0,0,0,0,0,0,0,0,0,0,0,0,0,0,0,0,0,0,0,0,0,0,0,0,0,0,0,0,0,0,0,0,0,0,0,0,0,0,0,0,0,0,0,0,0,0,0,0,0,0,
0,0,0,0,0,0,0,0,0,0,0,0,0,0,0,0,0,0,0,0,0,0,0,0,0,0,0,0,0,0,0,0,0,0,0,0,0,0,0,0,0,0,0,0,0,0,0,0,0,0,0,0,0,0,0,0,0,0,0,0,0,0,0,0,0,0,0,0,0,0,0,0,0,0,0,
0,0,0,0,0,0,0,0,0,0,0,0,0,0,0,0,0,0,0,0,0,0,0,0,0,0,0,0,0,0,0,0,0,0,0,0,0,0,0,0,0,0,0,0,0,0,0,0,0,0,0,0,0,0,0,0,0,0,0,0,0,0,0,0,0,0,0,0,0,0,0,0,0,0,0,
0,0,0,0,0,0,0,0,0,0,0,0,0,0,0,0,0,0,0,0,0,0,0,0,0,0,0,0,0,0,0,0,0,0,0,0,0,0,0,0,0,0,0,0,0,0,0,0,0,0,0,0,0,0,0,0,0,0,0,0,0,0,0,0,0,0,0,0,0,0,0,0,0,0,0,
0,0,0,0,0,0,0,0,0,0,0,0,0,0,0,0,0,0,0,0,0,0,0,0,0,0,0,0,0,0,0,0,0,0,0,0,0,0,0,0,0,0,0,0,0,0,0,0,0,0,0,0,0,0,0,0,0,0,0,0,0,0,0,0,0,0,0,0,0,0,0,0,0,0,0,
0,0,0,0,0,0,0,0,0,0,0,0,0,0,0,0,0,0,0,0,0,0,0,0,0,0,0,0,0,0,0,0,0,0,0,0,0,0,0,0,0,0,0,0,0,0,0,0,0,0,0,0,0,0,0,0,0,0,0,0,0,0,0,0,0,0,0,0,0,0,0,0,0,0,0,
0,0,0,0,0,0,0,0,0,0,0,0,0,0,0,0,0,0,0,0,0,0,0,0,0,0,0,0,0,0,0,0,0,0,0,0,0,0,0,0,0,0,0,0,0,0,0,0,0,0,0,0,0,0,0,0,0,0,0,0,0,0,0,0,0,0,0,0,0,0,0,0,0,0,0,
0,0,0,0,0,0,0,0,0,0,0,0,0,0,0,0,0,0,0,0,0,0,0,0,0,0,0,0,0,0,0,0,0,0,0,0,0,0,0,0,0,0,0,0,0,0,0,0,0,0,0,0,0,0,0,0,0,0,0,0,0,0,0,0,0,0,0,0,0,0,0,0,0,0,0,
0,0,0,0,0,0,0,0,0,0,0,0,0,0,0,0,0,0,0,0,0,0,0,0,0,0,0,0,0,0,0,0,0,0,0,0,0,0,0,0,0,0,0,0,0,0,0,0,0,0,0,0,0,0,0,0,0,0,0,0,0,0,0,0,0,0,0,0,0,0,0,0,0,0,0,
0,0,0,0,0,0,0,0,0,0,0,0,0,0,0,0,0,0,0,0,0,0,0,0,0,0,0,0,0,0,0,0,0,0,0,0,0,0,0,0,0,0,0,0,0,0,0,0,0,0,0,0,0,0,0,0,0,0,0,0,0,0,0,0,0,0,0,0,0,0,0,0,0,0,0,
0,0,0,0,0,0,0,0,0,0,0,0,0,0,0,0,0,0,0,0,0,0,0,0,0,0,0,0,0,0,0,0,0,0,0,0,0,0,0,0,0,0,0,0,0,0,0,0,0,0,0,0,0,0,0,0,0,0,0,0,0,0,0,0,0,0,0,0,0,0,0,0,0,0,0,
0,0,0,0,0,0,0,0,0,0,0,0,0,0,0,0,0,0,0,0,0,0,0,0,0,0,0,0,0,0,0,0,0,0,0,0,0,0,0,0,0,0,0,0,0,0,0,0,0,0,0,0,0,0,0,0,0,0,0,0,0,0,0,0,0,0,0,0,0,0,0,0,0,0,0,
0,0,0,0,0,0,0,0,0,0,0,0,0,0,0,0,0,0,0,0,0,0,0,0,0,0,0,0,0,0,0,0,0,0,0,0,0,0,0,0,0,0,0,0,0,0,0,0,0,0,0,0,0,0,0,0,0,0,0,0,0,0,0,0,0,0,0,0,0,0,0,0,0,0,0,
0,0,0,0,0,0,0,0,0,0,0,0,0,0,0,0,0,0,0,0,0,0,0,0,0,0,0,0,0,0,0,0,0,0,0,0,0,0,0,0,0,0,0,0,0,0,0,0,0,0,0,0,0,0,0,0,0,0,0,0,0,0,0,0,0,0,0,0,0,0,0,0,0,0,0,
0,0,0,0,0,0,0,0,0,0,0,0,0,0,0,0,0,0,0,0,0,0,0,0,0,0,0,0,0,0,0,0,0,0,0,0,0,0,0,0,0,0,0,0,0,0,0,0,0,0,0,0,0,0,0,0,0,0,0,0,0,0,0,0,0,0,0,0,0,0,0,0,0,0,0,
0,0,0,0,0,0,0,0,0,0,0,0,0,0,0,0,0,0,0,0,0,0,0,0,0,0,0,0,0,0,0,0,0,0,0,0,0,0,0,0,0,0,0,0,0,0,0,0,0,0,0,0,0,0,0,0,0,0,0,0,0,0,0,0,0,0,0,0,0,0,0,0,0,0,0,
0,0,0,0,0,0,0,0,0,0,0,0,0,0,0,0,0,0,0,0,0,0,0,0,0,0,0,0,0,0,0,0,0,0,0,0,0,0,0,0,0,0,0,0,0,0,0,0,0,0,0,0,0,0,0,0,0,0,0,0,0,0,0,0,0,0,0,0,0,0,0,0,0,0,0,
0,0,0,0,0,0,0,0,0,0,0,0,0,0,0,0,0,0,0,0,0,0,0,0,0,0,0,0,0,0,0,0,0,0,0,0,0,0,0,0,0,0,0,0,0,0,0,0,0,0,0,0,0,0,0,0,0,0,0,0,0,0,0,0,0,0,0,0,0,0,0,0,0,0,0,
0,0,0,0,0,0,0,0,0,0,0,0,0,0,0,0,0,0,0,0,0,0,0,0,0,0,0,0,0,0,0,0,0,0,0,0,0,0,0,0,0,0,0,0,0,0,0,0,0,0,0,0,0,0,0,0,0,0,0,0,0,0,0,0,0,0,0,0,0,0,0,0,0,0,0,
0,0,0,0,0,0,0,0,0,0,0,0,0,0,0,0,0,0,0,0,0,0,0,0,0,0,0,0,0,0,0,0,0,0,0,0,0,0,0,0,0,0,0,0,0,0,0,0,0,0,0,0,0,0,0,0,0,0,0,0,0,0,0,0,0,0,0,0,0,0,0,0,0,0,0,
0,0,0,0,0,0,0,0,0,0,0,0,0,0,0,0,0,0,0,0,0,0,0,0,0,0,0,0,0,0,0,0,0,0,0,0,0,0,0,0,0,0,0,0,0,0,0,0,0,0,0,0,0,0,0,0,0,0,0,0,0,0,0,0,0,0,0,0,0,0,0,0,0,0,0,
0,0,0,0,0,0,0,0,0,0,0,0,0,0,0,0,0,0,0,0,0,0,0,0,0,0,0,0,0,0,0,0,0,0,0,0,0,0,0,0,0,0,0,0,0,0,0,0,0,0,0,0,0,0,0,0,0,0,0,0,0,0,0,0,0,0,0,0,0,0,0,0,0,0,0,
0,0,0,0,0,0,0,0,0,0,0,0,0,0,0,0,0,0,0,0,0,0,0,0,0,0,0,0,0,0,0,0,0,0,0,0,0,0,0,0,0,0,0,0,0,0,0,0,0,0,0,0,0,0,0,0,0,0,0,0,0,0,0,0,0,0,0,0,0,0,0,0,0,0,0,
0,0,0,0,0,0,0,0,0,0,0,0,0,0,0,0,0,0,0,0,0,0,0,0,0,0,0,0,0,0,0,0,0,0,0,0,0,0,0,0,0,0,0,0,0,0,0,0,0,0,0,0,0,0,0,0,0,0,0,0,0,0,0,0,0,0,0,0,0,0,0,0,0,0,0,
0,0,0,0,0,0,0,0,0,0,0,0,0,0,0,0,0,0,0,0,0,0,0,0,0,0,0,0,0,0,0,0,0,0,0,0,0,0,0,0,0,0,0,0,0,0,0,0,0,0,0,0,0,0,0,0,0,0,0,0,0,0,0,0,0,0,0,0,0,0,0,0,0,0,0,
0,0,0,0,0,0,0,0,0,0,0,0,0,0,0,0,0,0,0,0,0,0,0,0,0,0,0,0,0,0,0,0,0,0,0,0,0,0,0,0,0,0,0,0,0,0,0,0,0,0,0,0,0,0,0,0,0,0,0,0,0,0,0,0,0,0,0,0,0,0,0,0,0,0,0,
0,0,0,0,0,0,0,0,0,0,0,0,0,0,0,0,0,0,0,0,0,0,0,0,0,0,0,0,0,0,0,0,0,0,0,0,0,0,0,0,0,0,0,0,0,0,0,0,0,0,0,0,0,0,0,0,0,0,0,0,0,0,0,0,0,0,0,0,0,0,0,0,0,0,0,
0,0,0,0,0,0,0,0,0,0,0,0,0,0,0,0,0,0,0,0,0,0,0,0,0,0,0,0,0,0,0,0,0,0,0,0,0,0,0,0,0,0,0,0,0,0,0,0,0,0,0,0,0,0,0,0,0,0,0,0,0,0,0,0,0,0,0,0,0,0,0,0,0,0,0
</data>
 </layer>
 <layer id="3" name="Front" width="75" height="75">
  <data encoding="csv">
0,0,0,0,0,0,0,0,0,0,0,0,0,0,0,0,0,0,0,0,0,0,0,0,0,0,0,0,0,0,0,0,0,0,0,0,0,0,0,0,0,0,0,0,0,0,0,0,0,0,0,0,0,0,0,0,0,0,0,0,0,0,0,0,0,0,0,0,0,0,0,0,0,0,0,
0,0,0,0,0,0,0,0,0,0,0,0,0,0,0,0,0,0,0,0,0,0,0,0,0,0,0,0,0,0,0,0,0,0,0,0,0,0,0,0,0,0,0,0,0,0,0,0,0,0,0,0,0,0,0,0,0,0,0,0,0,0,0,0,0,0,0,0,0,0,0,0,0,0,0,
0,0,0,0,0,0,0,0,0,0,0,0,0,0,0,0,0,0,0,0,0,0,0,0,0,0,0,0,0,0,0,0,0,0,0,0,0,0,0,0,0,0,0,0,0,0,0,0,0,0,0,0,0,0,0,0,0,0,0,0,0,0,0,0,0,0,0,0,0,0,0,0,0,0,0,
0,0,0,0,0,0,0,0,0,0,0,0,0,0,0,0,0,0,0,0,0,0,0,0,0,0,0,0,0,0,0,0,0,0,0,0,0,0,0,0,0,0,0,0,0,0,0,0,0,0,0,0,0,0,0,0,0,0,0,0,0,0,0,0,0,0,0,0,0,0,0,0,0,0,0,
0,0,0,0,0,0,0,0,0,0,0,0,0,0,0,0,0,0,0,0,0,0,0,0,0,0,0,0,0,0,0,0,0,0,0,0,0,0,0,0,0,0,0,0,0,0,0,0,0,0,0,0,0,0,0,0,0,0,0,0,0,0,0,0,0,0,0,0,0,0,0,0,0,0,0,
0,0,0,0,0,0,0,0,0,0,0,0,0,0,0,0,0,0,0,0,0,0,0,0,0,0,0,0,0,0,0,0,0,0,0,0,0,0,0,0,0,0,0,0,0,0,0,0,0,0,0,0,0,0,0,0,0,0,0,0,0,0,0,0,0,0,0,0,0,0,0,0,0,0,0,
0,0,0,0,0,0,0,0,0,0,0,0,0,0,0,0,0,0,0,0,0,0,0,0,0,0,0,0,0,0,0,0,0,0,0,0,0,0,0,0,0,0,0,0,0,0,0,0,0,0,0,0,0,0,0,0,0,0,0,0,0,0,0,0,0,0,0,0,0,0,0,0,0,0,0,
0,0,0,0,0,0,0,0,0,0,0,0,0,0,0,0,0,0,0,0,0,0,0,0,0,0,0,0,0,0,0,0,0,0,0,0,0,0,0,0,0,0,0,0,0,0,0,0,0,0,0,0,0,0,0,0,0,0,0,0,0,0,0,0,0,0,0,0,0,0,0,0,0,0,0,
0,0,0,0,0,0,0,0,0,0,0,0,0,0,0,0,0,0,0,0,0,0,0,0,0,0,0,0,0,0,0,0,0,0,0,0,0,0,0,0,0,0,0,0,0,0,0,0,0,0,0,0,0,0,0,0,0,0,0,0,0,0,0,0,0,0,0,0,0,0,0,0,0,0,0,
0,0,0,0,0,0,0,0,0,0,0,0,0,0,0,0,0,0,0,0,0,0,0,0,0,0,0,0,0,0,0,0,0,0,0,0,0,0,0,0,0,0,0,0,0,0,0,0,0,0,0,0,0,0,0,0,0,0,0,0,0,0,0,0,0,0,0,0,0,0,0,0,0,0,0,
0,0,0,0,0,0,0,0,0,0,0,0,0,0,0,0,0,0,0,0,0,0,0,0,0,0,0,0,0,0,0,0,0,0,0,0,0,0,0,0,0,0,0,0,0,0,0,0,0,0,0,0,0,0,0,0,0,0,0,0,0,0,0,0,0,0,0,0,0,0,0,0,0,0,0,
0,0,0,0,0,0,0,0,0,0,0,0,0,0,0,0,0,0,0,0,0,0,0,0,0,0,0,0,0,0,0,0,0,0,0,0,0,0,0,0,0,0,0,0,0,0,0,0,0,0,0,0,0,0,0,0,0,0,0,0,0,0,0,0,0,0,0,0,0,0,0,0,0,0,0,
0,0,0,0,0,0,0,0,0,0,0,0,0,0,0,0,0,0,0,0,0,0,0,0,0,0,0,0,0,0,0,0,0,0,0,0,0,0,0,0,0,0,0,0,0,0,0,0,0,0,0,0,0,0,0,0,0,0,0,0,0,0,0,0,0,0,0,0,0,0,0,0,0,0,0,
0,0,0,0,0,0,0,0,0,0,0,0,0,0,0,0,0,0,0,0,0,0,0,0,0,0,0,0,0,0,0,0,0,0,0,0,0,0,0,0,0,0,0,0,0,0,0,0,0,0,0,0,0,0,0,0,0,0,0,0,0,0,0,0,0,0,0,0,0,0,0,0,0,0,0,
0,0,0,0,0,0,0,0,0,0,0,0,0,0,0,0,0,0,0,0,0,0,0,0,0,0,0,0,0,0,0,0,0,0,0,0,0,0,0,0,0,0,0,0,0,0,0,0,0,0,0,0,0,0,0,0,0,0,0,0,0,0,0,0,0,0,0,0,0,0,0,0,0,0,0,
0,0,0,0,0,0,0,0,0,0,0,0,0,0,0,0,0,0,0,0,0,0,0,0,0,0,0,0,0,0,0,0,0,0,0,0,0,0,0,0,0,0,0,0,0,0,0,0,0,0,0,0,0,0,0,0,0,0,0,0,0,0,0,0,0,0,0,0,0,0,0,0,0,0,0,
0,0,0,0,0,0,0,0,0,0,0,0,0,0,0,0,0,0,0,0,0,0,0,0,0,0,0,0,0,0,0,0,0,0,0,0,0,0,0,0,0,0,0,0,0,0,0,0,0,0,0,0,0,0,0,0,0,0,0,0,0,0,0,0,0,0,0,0,0,0,0,0,0,0,0,
0,0,0,0,0,0,0,0,0,0,0,0,0,0,0,0,0,0,0,0,0,0,0,0,0,0,0,0,0,0,0,0,0,0,0,0,0,0,0,0,0,0,0,0,0,0,0,0,0,0,0,0,0,0,0,0,0,0,0,0,0,0,0,0,0,0,0,0,0,0,0,0,0,0,0,
0,0,0,0,0,0,0,0,0,0,0,0,0,0,0,0,0,0,0,0,0,0,0,0,0,0,0,0,0,0,0,0,0,0,0,0,0,0,0,0,0,0,0,0,0,0,0,0,0,0,0,0,0,0,0,0,0,0,0,0,0,0,0,0,0,0,0,0,0,0,0,0,0,0,0,
0,0,0,0,0,0,0,0,0,0,0,0,0,0,0,0,0,0,0,0,0,0,0,0,0,0,0,0,0,0,0,0,0,0,0,0,0,0,0,0,0,0,0,0,0,0,0,0,0,0,0,0,0,0,0,0,0,0,0,0,0,0,0,0,0,0,0,0,0,0,0,0,0,0,0,
0,0,0,0,0,0,0,0,0,0,0,0,0,0,0,0,0,0,0,0,0,0,0,0,0,0,0,0,0,0,0,0,0,0,0,0,0,0,0,0,0,0,0,0,0,0,0,0,0,0,0,0,0,0,0,0,0,0,0,0,0,0,0,0,0,0,0,0,0,0,0,0,0,0,0,
0,0,0,0,0,0,0,0,0,0,0,0,0,0,0,0,0,0,0,0,0,0,0,0,0,0,0,0,0,0,0,0,0,0,0,0,0,0,0,0,0,0,0,0,0,0,0,0,0,0,0,0,0,0,0,0,0,0,0,0,0,0,0,0,0,0,0,0,0,0,0,0,0,0,0,
0,0,0,0,0,0,0,0,0,0,0,0,0,0,0,0,0,0,0,0,0,0,0,0,0,0,0,0,0,0,0,0,0,0,0,0,0,0,0,0,0,0,0,0,0,0,0,0,0,0,0,0,0,0,0,0,0,0,0,0,0,0,0,0,0,0,0,0,0,0,0,0,0,0,0,
0,0,0,0,0,0,0,0,0,0,0,0,0,0,0,0,0,0,0,0,0,0,0,0,0,0,0,0,0,0,0,0,0,0,0,0,0,0,0,0,0,0,0,0,0,0,0,0,0,0,0,0,0,0,0,0,0,0,0,0,0,0,0,0,0,0,0,0,0,0,0,0,0,0,0,
0,0,0,0,0,0,0,0,0,0,0,0,0,0,0,0,0,0,0,0,0,0,0,0,0,0,0,0,0,0,0,0,0,0,0,0,0,0,0,0,0,0,0,0,0,0,0,0,0,0,0,0,0,0,0,0,0,0,0,0,0,0,0,0,0,0,0,0,0,0,0,0,0,0,0,
0,0,0,0,0,0,0,0,0,0,0,0,0,0,0,0,0,0,0,0,0,0,0,0,0,0,0,0,0,0,0,0,0,0,0,0,0,0,0,0,0,0,0,0,0,0,0,0,0,0,0,0,0,0,0,0,0,0,0,0,0,0,0,0,0,0,0,0,0,0,0,0,0,0,0,
0,0,0,0,0,0,0,0,0,0,0,0,0,0,0,0,0,0,0,0,0,0,0,0,0,0,0,0,0,0,0,0,0,0,0,0,0,0,0,0,0,0,0,0,0,0,0,0,0,0,0,0,0,0,0,0,0,0,0,0,0,0,0,0,0,0,0,0,0,0,0,0,0,0,0,
0,0,0,0,0,0,0,0,0,0,0,0,0,0,0,0,0,0,0,0,0,0,0,0,0,0,0,0,0,0,0,0,0,0,0,0,0,0,0,0,0,0,0,0,0,0,0,0,0,0,0,0,0,0,0,0,0,0,0,0,0,0,0,0,0,0,0,0,0,0,0,0,0,0,0,
0,0,0,0,0,0,0,0,0,0,0,0,0,0,0,0,0,0,0,0,0,0,0,0,0,0,0,0,0,0,0,0,0,0,0,0,0,0,0,0,0,0,0,0,0,0,0,0,0,0,0,0,0,0,0,0,0,0,0,0,0,0,0,0,0,0,0,0,0,0,0,0,0,0,0,
0,0,0,0,0,0,0,0,0,0,0,0,0,0,0,0,0,0,0,0,0,0,0,0,0,0,0,0,0,0,0,0,0,0,0,0,0,0,0,0,0,0,0,0,0,0,0,0,0,0,0,0,0,0,0,0,0,0,0,0,0,0,0,0,0,0,0,0,0,0,0,0,0,0,0,
0,0,0,0,0,0,0,0,0,0,0,0,0,0,0,0,0,0,0,0,0,0,0,0,0,0,0,0,0,0,0,0,0,0,0,0,0,0,0,0,0,0,0,0,0,0,0,0,0,0,0,0,0,0,0,0,0,0,0,0,0,0,0,0,0,0,0,0,0,0,0,0,0,0,0,
0,0,0,0,0,0,0,0,0,0,0,0,0,0,0,0,0,0,0,0,0,0,0,0,0,0,0,0,0,0,0,0,0,0,0,0,0,0,0,0,0,0,0,0,0,0,0,0,0,0,0,0,0,0,0,0,0,0,0,0,0,0,0,0,0,0,0,0,0,0,0,0,0,0,0,
0,0,0,0,0,0,0,0,0,0,0,0,0,0,0,0,0,0,0,0,0,0,0,0,0,0,0,0,0,0,0,0,0,0,0,0,0,0,0,0,0,0,0,0,0,0,0,0,0,0,0,0,0,0,0,0,0,0,0,0,0,0,0,0,0,0,0,0,0,0,0,0,0,0,0,
0,0,0,0,0,0,0,0,0,0,0,0,0,0,0,0,0,0,0,0,0,0,0,0,0,0,0,0,0,0,0,0,0,0,0,0,0,0,0,0,0,0,0,0,0,0,0,0,0,0,0,0,0,0,0,0,0,0,0,0,0,0,0,0,0,0,0,0,0,0,0,0,0,0,0,
0,0,0,0,0,0,0,0,0,0,0,0,0,0,0,0,0,0,0,0,0,0,0,0,0,0,0,0,0,0,0,0,0,0,0,0,0,0,0,0,0,0,0,0,0,0,0,0,0,0,0,0,0,0,0,0,0,0,0,0,0,0,0,0,0,0,0,0,0,0,0,0,0,0,0,
0,0,0,0,0,0,0,0,0,0,0,0,0,0,0,0,0,0,0,0,0,0,0,0,0,0,0,0,0,0,0,0,0,0,0,0,0,0,0,0,0,0,0,0,0,0,0,0,0,0,0,0,0,0,0,0,0,0,0,0,0,0,0,0,0,0,0,0,0,0,0,0,0,0,0,
0,0,0,0,0,0,0,0,0,0,0,0,0,0,0,0,0,0,0,0,0,0,0,0,0,0,0,0,0,0,0,0,0,0,0,0,0,0,0,0,0,0,0,0,0,0,0,0,0,0,0,0,0,0,0,0,0,0,0,0,0,0,0,0,0,0,0,0,0,0,0,0,0,0,0,
0,0,0,0,0,0,0,0,0,0,0,0,0,0,0,0,0,0,0,0,0,0,0,0,0,0,0,0,0,0,0,0,0,0,0,0,0,0,0,0,0,0,0,0,0,0,0,0,0,0,0,0,0,0,0,0,0,0,0,0,0,0,0,0,0,0,0,0,0,0,0,0,0,0,0,
0,0,0,0,0,0,0,0,0,0,0,0,0,0,0,0,0,0,0,0,0,0,0,0,0,0,0,0,0,0,0,0,0,0,0,0,0,0,0,0,0,0,0,0,0,0,0,0,0,0,0,0,0,0,0,0,0,0,0,0,0,0,0,0,0,0,0,0,0,0,0,0,0,0,0,
0,0,0,0,0,0,0,0,0,0,0,0,0,0,0,0,0,0,0,0,0,0,0,0,0,0,0,0,0,0,0,0,0,0,0,0,0,0,0,0,0,0,0,0,0,0,0,0,0,0,0,0,0,0,0,0,0,0,0,0,0,0,0,0,0,0,0,0,0,0,0,0,0,0,0,
0,0,0,0,0,0,0,0,0,0,0,0,0,0,0,0,0,0,0,0,0,0,0,0,0,0,0,0,0,0,0,0,0,0,0,0,0,0,0,0,0,0,0,0,0,0,0,0,0,0,0,0,0,0,0,0,0,0,0,0,0,0,0,0,0,0,0,0,0,0,0,0,0,0,0,
0,0,0,0,0,0,0,0,0,0,0,0,0,0,0,0,0,0,0,0,0,0,0,0,0,0,0,0,0,0,0,0,0,0,0,0,0,0,0,0,0,0,0,0,0,0,0,0,0,0,0,0,0,0,0,0,0,0,0,0,0,0,0,0,0,0,0,0,0,0,0,0,0,0,0,
0,0,0,0,0,0,0,0,0,0,0,0,0,0,0,0,0,0,0,0,0,0,0,0,0,0,0,0,0,0,0,0,0,0,0,0,0,0,0,0,0,0,0,0,0,0,0,0,0,0,0,0,0,0,0,0,0,0,0,0,0,0,0,0,0,0,0,0,0,0,0,0,0,0,0,
0,0,0,0,0,0,0,0,0,0,0,0,0,0,0,0,0,0,0,0,0,0,0,0,0,0,0,0,0,0,0,0,0,0,0,0,0,0,0,0,0,0,0,0,0,0,0,0,0,0,0,0,0,0,0,0,0,0,0,0,0,0,0,0,0,0,0,0,0,0,0,0,0,0,0,
0,0,0,0,0,0,0,0,0,0,0,0,0,0,0,0,0,0,0,0,0,0,0,0,0,0,0,0,0,0,0,0,0,0,0,0,0,0,0,0,0,0,0,0,0,0,0,0,0,0,0,0,0,0,0,0,0,0,0,0,0,0,0,0,0,0,0,0,0,0,0,0,0,0,0,
0,0,0,0,0,0,0,0,0,0,0,0,0,0,0,0,0,0,0,0,0,0,0,0,0,0,0,0,0,0,0,0,0,0,0,0,0,0,0,0,0,0,0,0,0,0,0,0,0,0,0,0,0,0,0,0,0,0,0,0,0,0,0,0,0,0,0,0,0,0,0,0,0,0,0,
0,0,0,0,0,0,0,0,0,0,0,0,0,0,0,0,0,0,0,0,0,0,0,0,0,0,0,0,0,0,0,0,0,0,0,0,0,0,0,0,0,0,0,0,0,0,0,0,0,0,0,0,0,0,0,0,0,0,0,0,0,0,0,0,0,0,0,0,0,0,0,0,0,0,0,
0,0,0,0,0,0,0,0,0,0,0,0,0,0,0,0,0,0,0,0,0,0,0,0,0,0,0,0,0,0,0,0,0,0,0,0,0,0,0,0,0,0,0,0,0,0,0,0,0,0,0,0,0,0,0,0,0,0,0,0,0,0,0,0,0,0,0,0,0,0,0,0,0,0,0,
0,0,0,0,0,0,0,0,0,0,0,0,0,0,0,0,0,0,0,0,0,0,0,0,0,0,0,0,0,0,0,0,0,0,0,0,0,0,0,0,0,0,0,0,0,0,0,0,0,0,0,0,0,0,0,0,0,0,0,0,0,0,0,0,0,0,0,0,0,0,0,0,0,0,0,
0,0,0,0,0,0,0,0,0,0,0,0,0,0,0,0,0,0,0,0,0,0,0,0,0,0,0,0,0,0,0,0,0,0,0,0,0,0,0,0,0,0,0,0,0,0,0,0,0,0,0,0,0,0,0,0,0,0,0,0,0,0,0,0,0,0,0,0,0,0,0,0,0,0,0,
0,0,0,0,0,0,0,0,0,0,0,0,0,0,0,0,0,0,0,0,0,0,0,0,0,0,0,0,0,0,0,0,0,0,0,0,0,0,0,0,0,0,0,0,0,0,0,0,0,0,0,0,0,0,0,0,0,0,0,0,0,0,0,0,0,0,0,0,0,0,0,0,0,0,0,
0,0,0,0,0,0,0,0,0,0,0,0,0,0,0,0,0,0,0,0,0,0,0,0,0,0,0,0,0,0,0,0,0,0,0,0,0,0,0,0,0,0,0,0,0,0,0,0,0,0,0,0,0,0,0,0,0,0,0,0,0,0,0,0,0,0,0,0,0,0,0,0,0,0,0,
0,0,0,0,0,0,0,0,0,0,0,0,0,0,0,0,0,0,0,0,0,0,0,0,0,0,0,0,0,0,0,0,0,0,0,0,0,0,0,0,0,0,0,0,0,0,0,0,0,0,0,0,0,0,0,0,0,0,0,0,0,0,0,0,0,0,0,0,0,0,0,0,0,0,0,
0,0,0,0,0,0,0,0,0,0,0,0,0,0,0,0,0,0,0,0,0,0,0,0,0,0,0,0,0,0,0,0,0,0,0,0,0,0,0,0,0,0,0,0,0,0,0,0,0,0,0,0,0,0,0,0,0,0,0,0,0,0,0,0,0,0,0,0,0,0,0,0,0,0,0,
0,0,0,0,0,0,0,0,0,0,0,0,0,0,0,0,0,0,0,0,0,0,0,0,0,0,0,0,0,0,0,0,0,0,0,0,0,0,0,0,0,0,0,0,0,0,0,0,0,0,0,0,0,0,0,0,0,0,0,0,0,0,0,0,0,0,0,0,0,0,0,0,0,0,0,
0,0,0,0,0,0,0,0,0,0,0,0,0,0,0,0,0,0,0,0,0,0,0,0,0,0,0,0,0,0,0,0,0,0,0,0,0,0,0,0,0,0,0,0,0,0,0,0,0,0,0,0,0,0,0,0,0,0,0,0,0,0,0,0,0,0,0,0,0,0,0,0,0,0,0,
0,0,0,0,0,0,0,0,0,0,0,0,0,0,0,0,0,0,0,0,0,0,0,0,0,0,0,0,0,0,0,0,0,0,0,0,0,0,0,0,0,0,0,0,0,0,0,0,0,0,0,0,0,0,0,0,0,0,0,0,0,0,0,0,0,0,0,0,0,0,0,0,0,0,0,
0,0,0,0,0,0,0,0,0,0,0,0,0,0,0,0,0,0,0,0,0,0,0,0,0,0,0,0,0,0,0,0,0,0,0,0,0,0,0,0,0,0,0,0,0,0,0,0,0,0,0,0,0,0,0,0,0,0,0,0,0,0,0,0,0,0,0,0,0,0,0,0,0,0,0,
0,0,0,0,0,0,0,0,0,0,0,0,0,0,0,0,0,0,0,0,0,0,0,0,0,0,0,0,0,0,0,0,0,0,0,0,0,0,0,0,0,0,0,0,0,0,0,0,0,0,0,0,0,0,0,0,0,0,0,0,0,0,0,0,0,0,0,0,0,0,0,0,0,0,0,
0,0,0,0,0,0,0,0,0,0,0,0,0,0,0,0,0,0,0,0,0,0,0,0,0,0,0,0,0,0,0,0,0,0,0,0,0,0,0,0,0,0,0,0,0,0,0,0,0,0,0,0,0,0,0,0,0,0,0,0,0,0,0,0,0,0,0,0,0,0,0,0,0,0,0,
0,0,0,0,0,0,0,0,0,0,0,0,0,0,0,0,0,0,0,0,0,0,0,0,0,0,0,0,0,0,0,0,0,0,0,0,0,0,0,0,0,0,0,0,0,0,0,0,0,0,0,0,0,0,0,0,0,0,0,0,0,0,0,0,0,0,0,0,0,0,0,0,0,0,0,
0,0,0,0,0,0,0,0,0,0,0,0,0,0,0,0,0,0,0,0,0,0,0,0,0,0,0,0,0,0,0,0,0,0,0,0,0,0,0,0,0,0,0,0,0,0,0,0,0,0,0,0,0,0,0,0,0,0,0,0,0,0,0,0,0,0,0,0,0,0,0,0,0,0,0,
0,0,0,0,0,0,0,0,0,0,0,0,0,0,0,0,0,0,0,0,0,0,0,0,0,0,0,0,0,0,0,0,0,0,0,0,0,0,0,0,0,0,0,0,0,0,0,0,0,0,0,0,0,0,0,0,0,0,0,0,0,0,0,0,0,0,0,0,0,0,0,0,0,0,0,
0,0,0,0,0,0,0,0,0,0,0,0,0,0,0,0,0,0,0,0,0,0,0,0,0,0,0,0,0,0,0,0,0,0,0,0,0,0,0,0,0,0,0,0,0,0,0,0,0,0,0,0,0,0,0,0,0,0,0,0,0,0,0,0,0,0,0,0,0,0,0,0,0,0,0,
0,0,0,0,0,0,0,0,0,0,0,0,0,0,0,0,0,0,0,0,0,0,0,0,0,0,0,0,0,0,0,0,0,0,0,0,0,0,0,0,0,0,0,0,0,0,0,0,0,0,0,0,0,0,0,0,0,0,0,0,0,0,0,0,0,0,0,0,0,0,0,0,0,0,0,
0,0,0,0,0,0,0,0,0,0,0,0,0,0,0,0,0,0,0,0,0,0,0,0,0,0,0,0,0,0,0,0,0,0,0,0,0,0,0,0,0,0,0,0,0,0,0,0,0,0,0,0,0,0,0,0,0,0,0,0,0,0,0,0,0,0,0,0,0,0,0,0,0,0,0,
0,0,0,0,0,0,0,0,0,0,0,0,0,0,0,0,0,0,0,0,0,0,0,0,0,0,0,0,0,0,0,0,0,0,0,0,0,0,0,0,0,0,0,0,0,0,0,0,0,0,0,0,0,0,0,0,0,0,0,0,0,0,0,0,0,0,0,0,0,0,0,0,0,0,0,
0,0,0,0,0,0,0,0,0,0,0,0,0,0,0,0,0,0,0,0,0,0,0,0,0,0,0,0,0,0,0,0,0,0,0,0,0,0,0,0,0,0,0,0,0,0,0,0,0,0,0,0,0,0,0,0,0,0,0,0,0,0,0,0,0,0,0,0,0,0,0,0,0,0,0,
0,0,0,0,0,0,0,0,0,0,0,0,0,0,0,0,0,0,0,0,0,0,0,0,0,0,0,0,0,0,0,0,0,0,0,0,0,0,0,0,0,0,0,0,0,0,0,0,0,0,0,0,0,0,0,0,0,0,0,0,0,0,0,0,0,0,0,0,0,0,0,0,0,0,0,
0,0,0,0,0,0,0,0,0,0,0,0,0,0,0,0,0,0,0,0,0,0,0,0,0,0,0,0,0,0,0,0,0,0,0,0,0,0,0,0,0,0,0,0,0,0,0,0,0,0,0,0,0,0,0,0,0,0,0,0,0,0,0,0,0,0,0,0,0,0,0,0,0,0,0,
0,0,0,0,0,0,0,0,0,0,0,0,0,0,0,0,0,0,0,0,0,0,0,0,0,0,0,0,0,0,0,0,0,0,0,0,0,0,0,0,0,0,0,0,0,0,0,0,0,0,0,0,0,0,0,0,0,0,0,0,0,0,0,0,0,0,0,0,0,0,0,0,0,0,0,
0,0,0,0,0,0,0,0,0,0,0,0,0,0,0,0,0,0,0,0,0,0,0,0,0,0,0,0,0,0,0,0,0,0,0,0,0,0,0,0,0,0,0,0,0,0,0,0,0,0,0,0,0,0,0,0,0,0,0,0,0,0,0,0,0,0,0,0,0,0,0,0,0,0,0,
0,0,0,0,0,0,0,0,0,0,0,0,0,0,0,0,0,0,0,0,0,0,0,0,0,0,0,0,0,0,0,0,0,0,0,0,0,0,0,0,0,0,0,0,0,0,0,0,0,0,0,0,0,0,0,0,0,0,0,0,0,0,0,0,0,0,0,0,0,0,0,0,0,0,0,
0,0,0,0,0,0,0,0,0,0,0,0,0,0,0,0,0,0,0,0,0,0,0,0,0,0,0,0,0,0,0,0,0,0,0,0,0,0,0,0,0,0,0,0,0,0,0,0,0,0,0,0,0,0,0,0,0,0,0,0,0,0,0,0,0,0,0,0,0,0,0,0,0,0,0,
0,0,0,0,0,0,0,0,0,0,0,0,0,0,0,0,0,0,0,0,0,0,0,0,0,0,0,0,0,0,0,0,0,0,0,0,0,0,0,0,0,0,0,0,0,0,0,0,0,0,0,0,0,0,0,0,0,0,0,0,0,0,0,0,0,0,0,0,0,0,0,0,0,0,0
</data>
 </layer>
 <layer id="11" name="Front1" width="75" height="75">
  <data encoding="csv">
0,0,0,0,0,0,0,0,0,0,0,0,0,0,0,0,0,0,0,0,0,0,0,0,0,0,0,0,0,0,0,0,0,0,0,0,0,0,0,0,0,0,0,0,0,0,0,0,0,0,0,0,0,0,0,0,0,0,0,0,0,0,0,0,0,0,0,0,0,0,0,0,0,0,0,
0,0,0,0,0,0,0,0,0,0,0,0,0,0,0,0,0,0,0,0,0,0,0,0,0,0,0,0,0,0,0,0,0,0,0,0,0,0,0,0,0,0,0,0,0,0,0,0,0,0,0,0,0,0,0,0,0,0,0,0,0,0,0,0,0,0,0,0,0,0,0,0,0,0,0,
0,0,0,0,0,0,0,0,0,0,0,0,0,0,0,0,0,0,0,0,0,0,0,0,0,0,0,0,0,0,0,0,0,0,0,0,0,0,0,0,0,0,0,0,0,0,0,0,0,0,0,0,0,0,0,0,0,0,0,0,0,0,0,0,0,0,0,0,0,0,0,0,0,0,0,
0,0,0,0,0,0,0,0,0,0,0,0,0,0,0,0,0,0,0,0,0,0,0,0,0,0,0,0,0,0,0,0,0,0,0,0,0,0,0,0,0,0,0,0,0,0,0,0,0,0,0,0,0,0,0,0,0,0,0,0,0,0,0,0,0,0,0,0,0,0,0,0,0,0,0,
0,0,0,0,0,0,0,0,0,0,0,0,0,0,0,0,0,0,0,0,0,0,0,0,0,0,0,0,0,0,0,0,0,0,0,0,0,0,0,0,0,0,0,0,0,0,0,0,0,0,0,0,0,0,0,0,0,0,0,0,0,0,0,0,0,0,0,0,0,0,0,0,0,0,0,
0,0,0,0,0,0,0,0,0,0,0,0,0,0,0,0,0,0,0,0,0,0,0,0,0,0,0,0,0,0,0,0,0,0,0,0,0,0,0,0,0,0,0,0,0,0,0,0,0,0,0,0,0,0,0,0,0,0,0,0,0,0,0,0,0,0,0,0,0,0,0,0,0,0,0,
0,0,0,0,0,0,0,0,0,0,0,0,0,0,0,0,0,0,0,0,0,0,0,0,0,0,0,0,0,0,0,0,0,0,0,0,0,0,0,0,0,0,0,0,0,0,0,0,0,0,0,0,0,0,0,0,0,0,0,0,0,0,0,0,0,0,0,0,0,0,0,0,0,0,0,
0,0,0,0,0,0,0,0,0,0,0,0,0,0,0,0,0,0,0,0,0,0,0,0,0,0,0,0,0,0,0,0,0,0,0,0,0,0,0,0,0,0,0,0,0,0,0,0,0,0,0,0,0,0,0,0,0,0,0,0,0,0,0,0,0,0,0,0,0,0,0,0,0,0,0,
0,0,0,0,0,0,0,0,0,0,0,0,0,0,0,0,0,0,0,0,0,0,0,0,0,0,0,0,0,0,0,0,0,0,0,0,0,0,0,0,0,0,0,0,0,0,0,0,0,0,0,0,0,0,0,0,0,0,0,0,0,0,0,0,0,0,0,0,0,0,0,0,0,0,0,
0,0,0,0,0,0,0,0,0,0,0,0,0,0,0,0,0,0,0,0,0,0,0,0,0,0,0,0,0,0,0,0,0,0,0,0,0,0,0,0,0,0,0,0,0,0,0,0,0,0,0,0,0,0,0,0,0,0,0,0,0,0,0,0,0,0,0,0,0,0,0,0,0,0,0,
0,0,0,0,0,0,0,0,0,0,0,0,0,0,0,0,0,0,0,0,0,0,0,0,0,0,0,0,0,0,0,0,0,0,0,0,0,0,0,0,0,0,0,0,0,0,0,0,0,0,0,0,0,0,0,0,0,0,0,0,0,0,0,0,0,0,0,0,0,0,0,0,0,0,0,
0,0,0,0,0,0,0,0,0,0,0,0,0,0,0,0,0,0,0,0,0,0,0,0,0,0,0,0,0,0,0,0,0,0,0,0,0,0,0,0,0,0,0,0,0,0,0,0,0,0,0,0,0,0,0,0,0,0,0,0,0,0,0,0,0,0,0,0,0,0,0,0,0,0,0,
0,0,0,0,0,0,0,0,0,0,0,0,0,0,0,0,0,0,0,0,0,0,0,0,0,0,0,0,0,0,0,0,0,0,0,0,0,0,0,0,0,0,0,0,0,0,0,0,0,0,0,0,0,0,0,0,0,0,0,0,0,0,0,0,0,0,0,0,0,0,0,0,0,0,0,
0,0,0,0,0,0,0,0,0,0,0,0,0,0,0,0,0,0,0,0,0,0,0,0,0,0,0,0,0,0,0,0,0,0,0,0,0,0,0,0,0,0,0,0,0,0,0,0,0,0,0,0,0,0,0,0,0,0,0,0,0,0,0,0,0,0,0,0,0,0,0,0,0,0,0,
0,0,0,0,0,0,0,0,0,0,0,0,0,0,0,0,0,0,0,0,0,0,0,0,0,0,0,0,0,0,0,0,0,0,0,0,0,0,0,0,0,0,0,0,0,0,0,0,0,0,0,0,0,0,0,0,0,0,0,0,0,0,0,0,0,0,0,0,0,0,0,0,0,0,0,
0,0,0,0,0,0,0,0,0,0,0,0,0,0,0,0,0,0,0,0,0,0,0,0,0,0,0,0,0,0,0,0,0,0,0,0,0,0,0,0,0,0,0,0,0,0,0,0,0,0,0,0,0,0,0,0,0,0,0,0,0,0,0,0,0,0,0,0,0,0,0,0,0,0,0,
0,0,0,0,0,0,0,0,0,0,0,0,0,0,0,0,0,0,0,0,0,0,0,0,0,0,0,0,0,0,0,0,0,0,0,0,0,0,0,0,0,0,0,0,0,0,0,0,0,0,0,0,0,0,0,0,0,0,0,0,0,0,0,0,0,0,0,0,0,0,0,0,0,0,0,
0,0,0,0,0,0,0,0,0,0,0,0,0,0,0,0,0,0,0,0,0,0,0,0,0,0,0,0,0,0,0,0,0,0,0,0,0,0,0,0,0,0,0,0,0,0,0,0,0,0,0,0,0,0,0,0,0,0,0,0,0,0,0,0,0,0,0,0,0,0,0,0,0,0,0,
0,0,0,0,0,0,0,0,0,0,0,0,0,0,0,0,0,0,0,0,0,0,0,0,0,0,0,0,0,0,0,0,0,0,0,0,0,0,0,0,0,0,0,0,0,0,0,0,0,0,0,0,0,0,0,0,0,0,0,0,0,0,0,0,0,0,0,0,0,0,0,0,0,0,0,
0,0,0,0,0,0,0,0,0,0,0,0,0,0,0,0,0,0,0,0,0,0,0,0,0,0,0,0,0,0,0,0,0,0,0,0,0,0,0,0,0,0,0,0,0,0,0,0,0,0,0,0,0,0,0,0,0,0,0,0,0,0,0,0,0,0,0,0,0,0,0,0,0,0,0,
0,0,0,0,0,0,0,0,0,0,0,0,0,0,0,0,0,0,0,0,0,0,0,0,0,0,0,0,0,0,0,0,0,0,0,0,0,0,0,0,0,0,0,0,0,0,0,0,0,0,0,0,0,0,0,0,0,0,0,0,0,0,0,0,0,0,0,0,0,0,0,0,0,0,0,
0,0,0,0,0,0,0,0,0,0,0,0,0,0,0,0,0,0,0,0,0,0,0,0,0,0,0,0,0,0,0,0,0,0,0,0,0,0,0,0,0,0,0,0,0,0,0,0,0,0,0,0,0,0,0,0,0,0,0,0,0,0,0,0,0,0,0,0,0,0,0,0,0,0,0,
0,0,0,0,0,0,0,0,0,0,0,0,0,0,0,0,0,0,0,0,0,0,0,0,0,0,0,0,0,0,0,0,0,0,0,0,0,0,0,0,0,0,0,0,0,0,0,0,0,0,0,0,0,0,0,0,0,0,0,0,0,0,0,0,0,0,0,0,0,0,0,0,0,0,0,
0,0,0,0,0,0,0,0,0,0,0,0,0,0,0,0,0,0,0,0,0,0,0,0,0,0,0,0,0,0,0,0,0,0,0,0,0,0,0,0,0,0,0,0,0,0,0,0,0,0,0,0,0,0,0,0,0,0,0,0,0,0,0,0,0,0,0,0,0,0,0,0,0,0,0,
0,0,0,0,0,0,0,0,0,0,0,0,0,0,0,0,0,0,0,0,0,0,0,0,0,0,0,0,0,0,0,0,0,0,0,0,0,0,0,0,0,0,0,0,0,0,0,0,0,0,0,0,0,0,0,0,0,0,0,0,0,0,0,0,0,0,0,0,0,0,0,0,0,0,0,
0,0,0,0,0,0,0,0,0,0,0,0,0,0,0,0,0,0,0,0,0,0,0,0,0,0,0,0,0,0,0,0,0,0,0,0,0,0,0,0,0,0,0,0,0,0,0,0,0,0,0,0,0,0,0,0,0,0,0,0,0,0,0,0,0,0,0,0,0,0,0,0,0,0,0,
0,0,0,0,0,0,0,0,0,0,0,0,0,0,0,0,0,0,0,0,0,0,0,0,0,0,0,0,0,0,0,0,0,0,0,0,0,0,0,0,0,0,0,0,0,0,0,0,0,0,0,0,0,0,0,0,0,0,0,0,0,0,0,0,0,0,0,0,0,0,0,0,0,0,0,
0,0,0,0,0,0,0,0,0,0,0,0,0,0,0,0,0,0,0,0,0,0,0,0,0,0,0,0,0,0,0,0,0,0,0,0,0,0,0,0,0,0,0,0,0,0,0,0,0,0,0,0,0,0,0,0,0,0,0,0,0,0,0,0,0,0,0,0,0,0,0,0,0,0,0,
0,0,0,0,0,0,0,0,0,0,0,0,0,0,0,0,0,0,0,0,0,0,0,0,0,0,0,0,0,0,0,0,0,0,0,0,0,0,0,0,0,0,0,0,0,0,0,0,0,0,0,0,0,0,0,0,0,0,0,0,0,0,0,0,0,0,0,0,0,0,0,0,0,0,0,
0,0,0,0,0,0,0,0,0,0,0,0,0,0,0,0,0,0,0,0,0,0,0,0,0,0,0,0,0,0,0,0,0,0,0,0,0,0,0,0,0,0,0,0,0,0,0,0,0,0,0,0,0,0,0,0,0,0,0,0,0,0,0,0,0,0,0,0,0,0,0,0,0,0,0,
0,0,0,0,0,0,0,0,0,0,0,0,0,0,0,0,0,0,0,0,0,0,0,0,0,0,0,0,0,0,0,0,0,0,0,0,0,0,0,0,0,0,0,0,0,0,0,0,0,0,0,0,0,0,0,0,0,0,0,0,0,0,0,0,0,0,0,0,0,0,0,0,0,0,0,
0,0,0,0,0,0,0,0,0,0,0,0,0,0,0,0,0,0,0,0,0,0,0,0,0,0,0,0,0,0,0,0,0,0,0,0,0,0,0,0,0,0,0,0,0,0,0,0,0,0,0,0,0,0,0,0,0,0,0,0,0,0,0,0,0,0,0,0,0,0,0,0,0,0,0,
0,0,0,0,0,0,0,0,0,0,0,0,0,0,0,0,0,0,0,0,0,0,0,0,0,0,0,0,0,0,0,0,0,0,0,0,0,0,0,0,0,0,0,0,0,0,0,0,0,0,0,0,0,0,0,0,0,0,0,0,0,0,0,0,0,0,0,0,0,0,0,0,0,0,0,
0,0,0,0,0,0,0,0,0,0,0,0,0,0,0,0,0,0,0,0,0,0,0,0,0,0,0,0,0,0,0,0,0,0,0,0,0,0,0,0,0,0,0,0,0,0,0,0,0,0,0,0,0,0,0,0,0,0,0,0,0,0,0,0,0,0,0,0,0,0,0,0,0,0,0,
0,0,0,0,0,0,0,0,0,0,0,0,0,0,0,0,0,0,0,0,0,0,0,0,0,0,0,0,0,0,0,0,0,0,0,0,0,0,0,0,0,0,0,0,0,0,0,0,0,0,0,0,0,0,0,0,0,0,0,0,0,0,0,0,0,0,0,0,0,0,0,0,0,0,0,
0,0,0,0,0,0,0,0,0,0,0,0,0,0,0,0,0,0,0,0,0,0,0,0,0,0,0,0,0,0,0,0,0,0,0,0,0,0,0,0,0,0,0,0,0,0,0,0,0,0,0,0,0,0,0,0,0,0,0,0,0,0,0,0,0,0,0,0,0,0,0,0,0,0,0,
0,0,0,0,0,0,0,0,0,0,0,0,0,0,0,0,0,0,0,0,0,0,0,0,0,0,0,0,0,0,0,0,0,0,0,0,0,0,0,0,0,0,0,0,0,0,0,0,0,0,0,0,0,0,0,0,0,0,0,0,0,0,0,0,0,0,0,0,0,0,0,0,0,0,0,
0,0,0,0,0,0,0,0,0,0,0,0,0,0,0,0,0,0,0,0,0,0,0,0,0,0,0,0,0,0,0,0,0,0,0,0,0,0,0,0,0,0,0,0,0,0,0,0,0,0,0,0,0,0,0,0,0,0,0,0,0,0,0,0,0,0,0,0,0,0,0,0,0,0,0,
0,0,0,0,0,0,0,0,0,0,0,0,0,0,0,0,0,0,0,0,0,0,0,0,0,0,0,0,0,0,0,0,0,0,0,0,0,0,0,0,0,0,0,0,0,0,0,0,0,0,0,0,0,0,0,0,0,0,0,0,0,0,0,0,0,0,0,0,0,0,0,0,0,0,0,
0,0,0,0,0,0,0,0,0,0,0,0,0,0,0,0,0,0,0,0,0,0,0,0,0,0,0,0,0,0,0,0,0,0,0,0,0,0,0,0,0,0,0,0,0,0,0,0,0,0,0,0,0,0,0,0,0,0,0,0,0,0,0,0,0,0,0,0,0,0,0,0,0,0,0,
0,0,0,0,0,0,0,0,0,0,0,0,0,0,0,0,0,0,0,0,0,0,0,0,0,0,0,0,0,0,0,0,0,0,0,0,0,0,0,0,0,0,0,0,0,0,0,0,0,0,0,0,0,0,0,0,0,0,0,0,0,0,0,0,0,0,0,0,0,0,0,0,0,0,0,
0,0,0,0,0,0,0,0,0,0,0,0,0,0,0,0,0,0,0,0,0,0,0,0,0,0,0,0,0,0,0,0,0,0,0,0,0,0,0,0,0,0,0,0,0,0,0,0,0,0,0,0,0,0,0,0,0,0,0,0,0,0,0,0,0,0,0,0,0,0,0,0,0,0,0,
0,0,0,0,0,0,0,0,0,0,0,0,0,0,0,0,0,0,0,0,0,0,0,0,0,0,0,0,0,0,0,0,0,0,0,0,0,0,0,0,0,0,0,0,0,0,0,0,0,0,0,0,0,0,0,0,0,0,0,0,0,0,0,0,0,0,0,0,0,0,0,0,0,0,0,
0,0,0,0,0,0,0,0,0,0,0,0,0,0,0,0,0,0,0,0,0,0,0,0,0,0,0,0,0,0,0,0,0,0,0,0,0,0,0,0,0,0,0,0,0,0,0,0,0,0,0,0,0,0,0,0,0,0,0,0,0,0,0,0,0,0,0,0,0,0,0,0,0,0,0,
0,0,0,0,0,0,0,0,0,0,0,0,0,0,0,0,0,0,0,0,0,0,0,0,0,0,0,0,0,0,0,0,0,0,0,0,0,0,0,0,0,0,0,0,0,0,0,0,0,0,0,0,0,0,0,0,0,0,0,0,0,0,0,0,0,0,0,0,0,0,0,0,0,0,0,
0,0,0,0,0,0,0,0,0,0,0,0,0,0,0,0,0,0,0,0,0,0,0,0,0,0,0,0,0,0,0,0,0,0,0,0,0,0,0,0,0,0,0,0,0,0,0,0,0,0,0,0,0,0,0,0,0,0,0,0,0,0,0,0,0,0,0,0,0,0,0,0,0,0,0,
0,0,0,0,0,0,0,0,0,0,0,0,0,0,0,0,0,0,0,0,0,0,0,0,0,0,0,0,0,0,0,0,0,0,0,0,0,0,0,0,0,0,0,0,0,0,0,0,0,0,0,0,0,0,0,0,0,0,0,0,0,0,0,0,0,0,0,0,0,0,0,0,0,0,0,
0,0,0,0,0,0,0,0,0,0,0,0,0,0,0,0,0,0,0,0,0,0,0,0,0,0,0,0,0,0,0,0,0,0,0,0,0,0,0,0,0,0,0,0,0,0,0,0,0,0,0,0,0,0,0,0,0,0,0,0,0,0,0,0,0,0,0,0,0,0,0,0,0,0,0,
0,0,0,0,0,0,0,0,0,0,0,0,0,0,0,0,0,0,0,0,0,0,0,0,0,0,0,0,0,0,0,0,0,0,0,0,0,0,0,0,0,0,0,0,0,0,0,0,0,0,0,0,0,0,0,0,0,0,0,0,0,0,0,0,0,0,0,0,0,0,0,0,0,0,0,
0,0,0,0,0,0,0,0,0,0,0,0,0,0,0,0,0,0,0,0,0,0,0,0,0,0,0,0,0,0,0,0,0,0,0,0,0,0,0,0,0,0,0,0,0,0,0,0,0,0,0,0,0,0,0,0,0,0,0,0,0,0,0,0,0,0,0,0,0,0,0,0,0,0,0,
0,0,0,0,0,0,0,0,0,0,0,0,0,0,0,0,0,0,0,0,0,0,0,0,0,0,0,0,0,0,0,0,0,0,0,0,0,0,0,0,0,0,0,0,0,0,0,0,0,0,0,0,0,0,0,0,0,0,0,0,0,0,0,0,0,0,0,0,0,0,0,0,0,0,0,
0,0,0,0,0,0,0,0,0,0,0,0,0,0,0,0,0,0,0,0,0,0,0,0,0,0,0,0,0,0,0,0,0,0,0,0,0,0,0,0,0,0,0,0,0,0,0,0,0,0,0,0,0,0,0,0,0,0,0,0,0,0,0,0,0,0,0,0,0,0,0,0,0,0,0,
0,0,0,0,0,0,0,0,0,0,0,0,0,0,0,0,0,0,0,0,0,0,0,0,0,0,0,0,0,0,0,0,0,0,0,0,0,0,0,0,0,0,0,0,0,0,0,0,0,0,0,0,0,0,0,0,0,0,0,0,0,0,0,0,0,0,0,0,0,0,0,0,0,0,0,
0,0,0,0,0,0,0,0,0,0,0,0,0,0,0,0,0,0,0,0,0,0,0,0,0,0,0,0,0,0,0,0,0,0,0,0,0,0,0,0,0,0,0,0,0,0,0,0,0,0,0,0,0,0,0,0,0,0,0,0,0,0,0,0,0,0,0,0,0,0,0,0,0,0,0,
0,0,0,0,0,0,0,0,0,0,0,0,0,0,0,0,0,0,0,0,0,0,0,0,0,0,0,0,0,0,0,0,0,0,0,0,0,0,0,0,0,0,0,0,0,0,0,0,0,0,0,0,0,0,0,0,0,0,0,0,0,0,0,0,0,0,0,0,0,0,0,0,0,0,0,
0,0,0,0,0,0,0,0,0,0,0,0,0,0,0,0,0,0,0,0,0,0,0,0,0,0,0,0,0,0,0,0,0,0,0,0,0,0,0,0,0,0,0,0,0,0,0,0,0,0,0,0,0,0,0,0,0,0,0,0,0,0,0,0,0,0,0,0,0,0,0,0,0,0,0,
0,0,0,0,0,0,0,0,0,0,0,0,0,0,0,0,0,0,0,0,0,0,0,0,0,0,0,0,0,0,0,0,0,0,0,0,0,0,0,0,0,0,0,0,0,0,0,0,0,0,0,0,0,0,0,0,0,0,0,0,0,0,0,0,0,0,0,0,0,0,0,0,0,0,0,
0,0,0,0,0,0,0,0,0,0,0,0,0,0,0,0,0,0,0,0,0,0,0,0,0,0,0,0,0,0,0,0,0,0,0,0,0,0,0,0,0,0,0,0,0,0,0,0,0,0,0,0,0,0,0,0,0,0,0,0,0,0,0,0,0,0,0,0,0,0,0,0,0,0,0,
0,0,0,0,0,0,0,0,0,0,0,0,0,0,0,0,0,0,0,0,0,0,0,0,0,0,0,0,0,0,0,0,0,0,0,0,0,0,0,0,0,0,0,0,0,0,0,0,0,0,0,0,0,0,0,0,0,0,0,0,0,0,0,0,0,0,0,0,0,0,0,0,0,0,0,
0,0,0,0,0,0,0,0,0,0,0,0,0,0,0,0,0,0,0,0,0,0,0,0,0,0,0,0,0,0,0,0,0,0,0,0,0,0,0,0,0,0,0,0,0,0,0,0,0,0,0,0,0,0,0,0,0,0,0,0,0,0,0,0,0,0,0,0,0,0,0,0,0,0,0,
0,0,0,0,0,0,0,0,0,0,0,0,0,0,0,0,0,0,0,0,0,0,0,0,0,0,0,0,0,0,0,0,0,0,0,0,0,0,0,0,0,0,0,0,0,0,0,0,0,0,0,0,0,0,0,0,0,0,0,0,0,0,0,0,0,0,0,0,0,0,0,0,0,0,0,
0,0,0,0,0,0,0,0,0,0,0,0,0,0,0,0,0,0,0,0,0,0,0,0,0,0,0,0,0,0,0,0,0,0,0,0,0,0,0,0,0,0,0,0,0,0,0,0,0,0,0,0,0,0,0,0,0,0,0,0,0,0,0,0,0,0,0,0,0,0,0,0,0,0,0,
0,0,0,0,0,0,0,0,0,0,0,0,0,0,0,0,0,0,0,0,0,0,0,0,0,0,0,0,0,0,0,0,0,0,0,0,0,0,0,0,0,0,0,0,0,0,0,0,0,0,0,0,0,0,0,0,0,0,0,0,0,0,0,0,0,0,0,0,0,0,0,0,0,0,0,
0,0,0,0,0,0,0,0,0,0,0,0,0,0,0,0,0,0,0,0,0,0,0,0,0,0,0,0,0,0,0,0,0,0,0,0,0,0,0,0,0,0,0,0,0,0,0,0,0,0,0,0,0,0,0,0,0,0,0,0,0,0,0,0,0,0,0,0,0,0,0,0,0,0,0,
0,0,0,0,0,0,0,0,0,0,0,0,0,0,0,0,0,0,0,0,0,0,0,0,0,0,0,0,0,0,0,0,0,0,0,0,0,0,0,0,0,0,0,0,0,0,0,0,0,0,0,0,0,0,0,0,0,0,0,0,0,0,0,0,0,0,0,0,0,0,0,0,0,0,0,
0,0,0,0,0,0,0,0,0,0,0,0,0,0,0,0,0,0,0,0,0,0,0,0,0,0,0,0,0,0,0,0,0,0,0,0,0,0,0,0,0,0,0,0,0,0,0,0,0,0,0,0,0,0,0,0,0,0,0,0,0,0,0,0,0,0,0,0,0,0,0,0,0,0,0,
0,0,0,0,0,0,0,0,0,0,0,0,0,0,0,0,0,0,0,0,0,0,0,0,0,0,0,0,0,0,0,0,0,0,0,0,0,0,0,0,0,0,0,0,0,0,0,0,0,0,0,0,0,0,0,0,0,0,0,0,0,0,0,0,0,0,0,0,0,0,0,0,0,0,0,
0,0,0,0,0,0,0,0,0,0,0,0,0,0,0,0,0,0,0,0,0,0,0,0,0,0,0,0,0,0,0,0,0,0,0,0,0,0,0,0,0,0,0,0,0,0,0,0,0,0,0,0,0,0,0,0,0,0,0,0,0,0,0,0,0,0,0,0,0,0,0,0,0,0,0,
0,0,0,0,0,0,0,0,0,0,0,0,0,0,0,0,0,0,0,0,0,0,0,0,0,0,0,0,0,0,0,0,0,0,0,0,0,0,0,0,0,0,0,0,0,0,0,0,0,0,0,0,0,0,0,0,0,0,0,0,0,0,0,0,0,0,0,0,0,0,0,0,0,0,0,
0,0,0,0,0,0,0,0,0,0,0,0,0,0,0,0,0,0,0,0,0,0,0,0,0,0,0,0,0,0,0,0,0,0,0,0,0,0,0,0,0,0,0,0,0,0,0,0,0,0,0,0,0,0,0,0,0,0,0,0,0,0,0,0,0,0,0,0,0,0,0,0,0,0,0,
0,0,0,0,0,0,0,0,0,0,0,0,0,0,0,0,0,0,0,0,0,0,0,0,0,0,0,0,0,0,0,0,0,0,0,0,0,0,0,0,0,0,0,0,0,0,0,0,0,0,0,0,0,0,0,0,0,0,0,0,0,0,0,0,0,0,0,0,0,0,0,0,0,0,0,
0,0,0,0,0,0,0,0,0,0,0,0,0,0,0,0,0,0,0,0,0,0,0,0,0,0,0,0,0,0,0,0,0,0,0,0,0,0,0,0,0,0,0,0,0,0,0,0,0,0,0,0,0,0,0,0,0,0,0,0,0,0,0,0,0,0,0,0,0,0,0,0,0,0,0,
0,0,0,0,0,0,0,0,0,0,0,0,0,0,0,0,0,0,0,0,0,0,0,0,0,0,0,0,0,0,0,0,0,0,0,0,0,0,0,0,0,0,0,0,0,0,0,0,0,0,0,0,0,0,0,0,0,0,0,0,0,0,0,0,0,0,0,0,0,0,0,0,0,0,0,
0,0,0,0,0,0,0,0,0,0,0,0,0,0,0,0,0,0,0,0,0,0,0,0,0,0,0,0,0,0,0,0,0,0,0,0,0,0,0,0,0,0,0,0,0,0,0,0,0,0,0,0,0,0,0,0,0,0,0,0,0,0,0,0,0,0,0,0,0,0,0,0,0,0,0,
0,0,0,0,0,0,0,0,0,0,0,0,0,0,0,0,0,0,0,0,0,0,0,0,0,0,0,0,0,0,0,0,0,0,0,0,0,0,0,0,0,0,0,0,0,0,0,0,0,0,0,0,0,0,0,0,0,0,0,0,0,0,0,0,0,0,0,0,0,0,0,0,0,0,0
</data>
 </layer>
 <layer id="4" name="AlwaysFront" width="75" height="75">
  <data encoding="csv">
0,0,0,0,0,0,0,0,0,0,0,0,0,0,0,0,0,0,0,0,0,0,0,0,0,0,0,0,0,0,0,0,0,0,0,0,0,0,0,0,0,0,0,0,0,0,0,0,0,0,0,0,0,0,0,0,0,0,0,0,0,0,0,0,0,0,0,0,0,0,0,0,0,0,0,
0,0,0,0,0,0,0,0,0,0,0,0,0,0,0,0,0,0,0,0,0,0,0,0,0,0,0,0,0,0,0,0,0,0,0,0,0,0,0,0,0,0,0,0,0,0,0,0,0,0,0,0,0,0,0,0,0,0,0,0,0,0,0,0,0,0,0,0,0,0,0,0,0,0,0,
0,0,0,0,0,0,0,0,0,0,0,0,0,0,0,0,0,0,0,0,0,0,0,0,0,0,0,0,0,0,0,0,0,0,0,0,0,0,0,0,0,0,0,0,0,0,0,0,0,0,0,0,0,0,0,0,0,0,0,0,0,0,0,0,0,0,0,0,0,0,0,0,0,0,0,
0,0,0,0,0,0,0,0,0,0,0,0,0,0,0,0,0,0,0,0,0,0,0,0,0,0,0,0,0,0,0,0,0,0,0,0,0,0,0,0,0,0,0,0,0,0,0,0,0,0,0,0,0,0,0,0,0,0,0,0,0,0,0,0,0,0,0,0,0,0,0,0,0,0,0,
0,0,0,0,0,0,0,0,0,0,0,0,0,0,0,0,0,0,0,0,0,0,0,0,0,0,0,0,0,0,0,0,0,0,0,0,0,0,0,0,0,0,0,0,0,0,0,0,0,0,0,0,0,0,0,0,0,0,0,0,0,0,0,0,0,0,0,0,0,0,0,0,0,0,0,
0,0,0,0,0,0,0,0,0,0,0,0,0,0,0,0,0,0,0,0,0,0,0,0,0,0,0,0,0,0,0,0,0,0,0,0,0,0,0,0,0,0,0,0,0,0,0,0,0,0,0,0,0,0,0,0,0,0,0,0,0,0,0,0,0,0,0,0,0,0,0,0,0,0,0,
0,0,0,0,0,0,0,0,0,0,0,0,0,0,0,0,0,0,0,0,0,0,0,0,0,0,0,0,0,0,0,0,0,0,0,0,0,0,0,0,0,0,0,0,0,0,0,0,0,0,0,0,0,0,0,0,0,0,0,0,0,0,0,0,0,0,0,0,0,0,0,0,0,0,0,
0,0,0,0,0,0,0,0,0,0,0,0,0,0,0,0,0,0,0,0,0,0,0,0,0,0,0,0,0,0,0,0,0,0,0,0,0,0,0,0,0,0,0,0,0,0,0,0,0,0,0,0,0,0,0,0,0,0,0,0,0,0,0,0,0,0,0,0,0,0,0,0,0,0,0,
0,0,0,0,0,0,0,0,0,0,0,0,0,0,0,0,0,0,0,0,0,0,0,0,0,0,0,0,0,0,0,0,0,0,0,0,0,0,0,0,0,0,0,0,0,0,0,0,0,0,0,0,0,0,0,0,0,0,0,0,0,0,0,0,0,0,0,0,0,0,0,0,0,0,0,
0,0,0,0,0,0,0,0,0,0,0,0,0,0,0,0,0,0,0,0,0,0,0,0,0,0,0,0,0,0,0,0,0,0,0,0,0,0,0,0,0,0,0,0,0,0,0,0,0,0,0,0,0,0,0,0,0,0,0,0,0,0,0,0,0,0,0,0,0,0,0,0,0,0,0,
0,0,0,0,0,0,0,0,0,0,0,0,0,0,0,0,0,0,0,0,0,0,0,0,0,0,0,0,0,0,0,0,0,0,0,0,0,0,0,0,0,0,0,0,0,0,0,0,0,0,0,0,0,0,0,0,0,0,0,0,0,0,0,0,0,0,0,0,0,0,0,0,0,0,0,
0,0,0,0,0,0,0,0,0,0,0,0,0,0,0,0,0,0,0,0,0,0,0,0,0,0,0,0,0,0,0,0,0,0,0,0,0,0,0,0,0,0,0,0,0,0,0,0,0,0,0,0,0,0,0,0,0,0,0,0,0,0,0,0,0,0,0,0,0,0,0,0,0,0,0,
0,0,0,0,0,0,0,0,0,0,0,0,0,0,0,0,0,0,0,0,0,0,0,0,0,0,0,0,0,0,0,0,0,0,0,0,0,0,0,0,0,0,0,0,0,0,0,0,0,0,0,0,0,0,0,0,0,0,0,0,0,0,0,0,0,0,0,0,0,0,0,0,0,0,0,
0,0,0,0,0,0,0,0,0,0,0,0,0,0,0,0,0,0,0,0,0,0,0,0,0,0,0,0,0,0,0,0,0,0,0,0,0,0,0,0,0,0,0,0,0,0,0,0,0,0,0,0,0,0,0,0,0,0,0,0,0,0,0,0,0,0,0,0,0,0,0,0,0,0,0,
0,0,0,0,0,0,0,0,0,0,0,0,0,0,0,0,0,0,0,0,0,0,0,0,0,0,0,0,0,0,0,0,0,0,0,0,0,0,0,0,0,0,0,0,0,0,0,0,0,0,0,0,0,0,0,0,0,0,0,0,0,0,0,0,0,0,0,0,0,0,0,0,0,0,0,
0,0,0,0,0,0,0,0,0,0,0,0,0,0,0,0,0,0,0,0,0,0,0,0,0,0,0,0,0,0,0,0,0,0,0,0,0,0,0,0,0,0,0,0,0,0,0,0,0,0,0,0,0,0,0,0,0,0,0,0,0,0,0,0,0,0,0,0,0,0,0,0,0,0,0,
0,0,0,0,0,0,0,0,0,0,0,0,0,0,0,0,0,0,0,0,0,0,0,0,0,0,0,0,0,0,0,0,0,0,0,0,0,0,0,0,0,0,0,0,0,0,0,0,0,0,0,0,0,0,0,0,0,0,0,0,0,0,0,0,0,0,0,0,0,0,0,0,0,0,0,
0,0,0,0,0,0,0,0,0,0,0,0,0,0,0,0,0,0,0,0,0,0,0,0,0,0,0,0,0,0,0,0,0,0,0,0,0,0,0,0,0,0,0,0,0,0,0,0,0,0,0,0,0,0,0,0,0,0,0,0,0,0,0,0,0,0,0,0,0,0,0,0,0,0,0,
0,0,0,0,0,0,0,0,0,0,0,0,0,0,0,0,0,0,0,0,0,0,0,0,0,0,0,0,0,0,0,0,0,0,0,0,0,0,0,0,0,0,0,0,0,0,0,0,0,0,0,0,0,0,0,0,0,0,0,0,0,0,0,0,0,0,0,0,0,0,0,0,0,0,0,
0,0,0,0,0,0,0,0,0,0,0,0,0,0,0,0,0,0,0,0,0,0,0,0,0,0,0,0,0,0,0,0,0,0,0,0,0,0,0,0,0,0,0,0,0,0,0,0,0,0,0,0,0,0,0,0,0,0,0,0,0,0,0,0,0,0,0,0,0,0,0,0,0,0,0,
0,0,0,0,0,0,0,0,0,0,0,0,0,0,0,0,0,0,0,0,0,0,0,0,0,0,0,0,0,0,0,0,0,0,0,0,0,0,0,0,0,0,0,0,0,0,0,0,0,0,0,0,0,0,0,0,0,0,0,0,0,0,0,0,0,0,0,0,0,0,0,0,0,0,0,
0,0,0,0,0,0,0,0,0,0,0,0,0,0,0,0,0,0,0,0,0,0,0,0,0,0,0,0,0,0,0,0,0,0,0,0,0,0,0,0,0,0,0,0,0,0,0,0,0,0,0,0,0,0,0,0,0,0,0,0,0,0,0,0,0,0,0,0,0,0,0,0,0,0,0,
0,0,0,0,0,0,0,0,0,0,0,0,0,0,0,0,0,0,0,0,0,0,0,0,0,0,0,0,0,0,0,0,0,0,0,0,0,0,0,0,0,0,0,0,0,0,0,0,0,0,0,0,0,0,0,0,0,0,0,0,0,0,0,0,0,0,0,0,0,0,0,0,0,0,0,
0,0,0,0,0,0,0,0,0,0,0,0,0,0,0,0,0,0,0,0,0,0,0,0,0,0,0,0,0,0,0,0,0,0,0,0,0,0,0,0,0,0,0,0,0,0,0,0,0,0,0,0,0,0,0,0,0,0,0,0,0,0,0,0,0,0,0,0,0,0,0,0,0,0,0,
0,0,0,0,0,0,0,0,0,0,0,0,0,0,0,0,0,0,0,0,0,0,0,0,0,0,0,0,0,0,0,0,0,0,0,0,0,0,0,0,0,0,0,0,0,0,0,0,0,0,0,0,0,0,0,0,0,0,0,0,0,0,0,0,0,0,0,0,0,0,0,0,0,0,0,
0,0,0,0,0,0,0,0,0,0,0,0,0,0,0,0,0,0,0,0,0,0,0,0,0,0,0,0,0,0,0,0,0,0,0,0,0,0,0,0,0,0,0,0,0,0,0,0,0,0,0,0,0,0,0,0,0,0,0,0,0,0,0,0,0,0,0,0,0,0,0,0,0,0,0,
0,0,0,0,0,0,0,0,0,0,0,0,0,0,0,0,0,0,0,0,0,0,0,0,0,0,0,0,0,0,0,0,0,0,0,0,0,0,0,0,0,0,0,0,0,0,0,0,0,0,0,0,0,0,0,0,0,0,0,0,0,0,0,0,0,0,0,0,0,0,0,0,0,0,0,
0,0,0,0,0,0,0,0,0,0,0,0,0,0,0,0,0,0,0,0,0,0,0,0,0,0,0,0,0,0,0,0,0,0,0,0,0,0,0,0,0,0,0,0,0,0,0,0,0,0,0,0,0,0,0,0,0,0,0,0,0,0,0,0,0,0,0,0,0,0,0,0,0,0,0,
0,0,0,0,0,0,0,0,0,0,0,0,0,0,0,0,0,0,0,0,0,0,0,0,0,0,0,0,0,0,0,0,0,0,0,0,0,0,0,0,0,0,0,0,0,0,0,0,0,0,0,0,0,0,0,0,0,0,0,0,0,0,0,0,0,0,0,0,0,0,0,0,0,0,0,
0,0,0,0,0,0,0,0,0,0,0,0,0,0,0,0,0,0,0,0,0,0,0,0,0,0,0,0,0,0,0,0,0,0,0,0,0,0,0,0,0,0,0,0,0,0,0,0,0,0,0,0,0,0,0,0,0,0,0,0,0,0,0,0,0,0,0,0,0,0,0,0,0,0,0,
0,0,0,0,0,0,0,0,0,0,0,0,0,0,0,0,0,0,0,0,0,0,0,0,0,0,0,0,0,0,0,0,0,0,0,0,0,0,0,0,0,0,0,0,0,0,0,0,0,0,0,0,0,0,0,0,0,0,0,0,0,0,0,0,0,0,0,0,0,0,0,0,0,0,0,
0,0,0,0,0,0,0,0,0,0,0,0,0,0,0,0,0,0,0,0,0,0,0,0,0,0,0,0,0,0,0,0,0,0,0,0,0,0,0,0,0,0,0,0,0,0,0,0,0,0,0,0,0,0,0,0,0,0,0,0,0,0,0,0,0,0,0,0,0,0,0,0,0,0,0,
0,0,0,0,0,0,0,0,0,0,0,0,0,0,0,0,0,0,0,0,0,0,0,0,0,0,0,0,0,0,0,0,0,0,0,0,0,0,0,0,0,0,0,0,0,0,0,0,0,0,0,0,0,0,0,0,0,0,0,0,0,0,0,0,0,0,0,0,0,0,0,0,0,0,0,
0,0,0,0,0,0,0,0,0,0,0,0,0,0,0,0,0,0,0,0,0,0,0,0,0,0,0,0,0,0,0,0,0,0,0,0,0,0,0,0,0,0,0,0,0,0,0,0,0,0,0,0,0,0,0,0,0,0,0,0,0,0,0,0,0,0,0,0,0,0,0,0,0,0,0,
0,0,0,0,0,0,0,0,0,0,0,0,0,0,0,0,0,0,0,0,0,0,0,0,0,0,0,0,0,0,0,0,0,0,0,0,0,0,0,0,0,0,0,0,0,0,0,0,0,0,0,0,0,0,0,0,0,0,0,0,0,0,0,0,0,0,0,0,0,0,0,0,0,0,0,
0,0,0,0,0,0,0,0,0,0,0,0,0,0,0,0,0,0,0,0,0,0,0,0,0,0,0,0,0,0,0,0,0,0,0,0,0,0,0,0,0,0,0,0,0,0,0,0,0,0,0,0,0,0,0,0,0,0,0,0,0,0,0,0,0,0,0,0,0,0,0,0,0,0,0,
0,0,0,0,0,0,0,0,0,0,0,0,0,0,0,0,0,0,0,0,0,0,0,0,0,0,0,0,0,0,0,0,0,0,0,0,0,0,0,0,0,0,0,0,0,0,0,0,0,0,0,0,0,0,0,0,0,0,0,0,0,0,0,0,0,0,0,0,0,0,0,0,0,0,0,
0,0,0,0,0,0,0,0,0,0,0,0,0,0,0,0,0,0,0,0,0,0,0,0,0,0,0,0,0,0,0,0,0,0,0,0,0,0,0,0,0,0,0,0,0,0,0,0,0,0,0,0,0,0,0,0,0,0,0,0,0,0,0,0,0,0,0,0,0,0,0,0,0,0,0,
0,0,0,0,0,0,0,0,0,0,0,0,0,0,0,0,0,0,0,0,0,0,0,0,0,0,0,0,0,0,0,0,0,0,0,0,0,0,0,0,0,0,0,0,0,0,0,0,0,0,0,0,0,0,0,0,0,0,0,0,0,0,0,0,0,0,0,0,0,0,0,0,0,0,0,
0,0,0,0,0,0,0,0,0,0,0,0,0,0,0,0,0,0,0,0,0,0,0,0,0,0,0,0,0,0,0,0,0,0,0,0,0,0,0,0,0,0,0,0,0,0,0,0,0,0,0,0,0,0,0,0,0,0,0,0,0,0,0,0,0,0,0,0,0,0,0,0,0,0,0,
0,0,0,0,0,0,0,0,0,0,0,0,0,0,0,0,0,0,0,0,0,0,0,0,0,0,0,0,0,0,0,0,0,0,0,0,0,0,0,0,0,0,0,0,0,0,0,0,0,0,0,0,0,0,0,0,0,0,0,0,0,0,0,0,0,0,0,0,0,0,0,0,0,0,0,
0,0,0,0,0,0,0,0,0,0,0,0,0,0,0,0,0,0,0,0,0,0,0,0,0,0,0,0,0,0,0,0,0,0,0,0,0,0,0,0,0,0,0,0,0,0,0,0,0,0,0,0,0,0,0,0,0,0,0,0,0,0,0,0,0,0,0,0,0,0,0,0,0,0,0,
0,0,0,0,0,0,0,0,0,0,0,0,0,0,0,0,0,0,0,0,0,0,0,0,0,0,0,0,0,0,0,0,0,0,0,0,0,0,0,0,0,0,0,0,0,0,0,0,0,0,0,0,0,0,0,0,0,0,0,0,0,0,0,0,0,0,0,0,0,0,0,0,0,0,0,
0,0,0,0,0,0,0,0,0,0,0,0,0,0,0,0,0,0,0,0,0,0,0,0,0,0,0,0,0,0,0,0,0,0,0,0,0,0,0,0,0,0,0,0,0,0,0,0,0,0,0,0,0,0,0,0,0,0,0,0,0,0,0,0,0,0,0,0,0,0,0,0,0,0,0,
0,0,0,0,0,0,0,0,0,0,0,0,0,0,0,0,0,0,0,0,0,0,0,0,0,0,0,0,0,0,0,0,0,0,0,0,0,0,0,0,0,0,0,0,0,0,0,0,0,0,0,0,0,0,0,0,0,0,0,0,0,0,0,0,0,0,0,0,0,0,0,0,0,0,0,
0,0,0,0,0,0,0,0,0,0,0,0,0,0,0,0,0,0,0,0,0,0,0,0,0,0,0,0,0,0,0,0,0,0,0,0,0,0,0,0,0,0,0,0,0,0,0,0,0,0,0,0,0,0,0,0,0,0,0,0,0,0,0,0,0,0,0,0,0,0,0,0,0,0,0,
0,0,0,0,0,0,0,0,0,0,0,0,0,0,0,0,0,0,0,0,0,0,0,0,0,0,0,0,0,0,0,0,0,0,0,0,0,0,0,0,0,0,0,0,0,0,0,0,0,0,0,0,0,0,0,0,0,0,0,0,0,0,0,0,0,0,0,0,0,0,0,0,0,0,0,
0,0,0,0,0,0,0,0,0,0,0,0,0,0,0,0,0,0,0,0,0,0,0,0,0,0,0,0,0,0,0,0,0,0,0,0,0,0,0,0,0,0,0,0,0,0,0,0,0,0,0,0,0,0,0,0,0,0,0,0,0,0,0,0,0,0,0,0,0,0,0,0,0,0,0,
0,0,0,0,0,0,0,0,0,0,0,0,0,0,0,0,0,0,0,0,0,0,0,0,0,0,0,0,0,0,0,0,0,0,0,0,0,0,0,0,0,0,0,0,0,0,0,0,0,0,0,0,0,0,0,0,0,0,0,0,0,0,0,0,0,0,0,0,0,0,0,0,0,0,0,
0,0,0,0,0,0,0,0,0,0,0,0,0,0,0,0,0,0,0,0,0,0,0,0,0,0,0,0,0,0,0,0,0,0,0,0,0,0,0,0,0,0,0,0,0,0,0,0,0,0,0,0,0,0,0,0,0,0,0,0,0,0,0,0,0,0,0,0,0,0,0,0,0,0,0,
0,0,0,0,0,0,0,0,0,0,0,0,0,0,0,0,0,0,0,0,0,0,0,0,0,0,0,0,0,0,0,0,0,0,0,0,0,0,0,0,0,0,0,0,0,0,0,0,0,0,0,0,0,0,0,0,0,0,0,0,0,0,0,0,0,0,0,0,0,0,0,0,0,0,0,
0,0,0,0,0,0,0,0,0,0,0,0,0,0,0,0,0,0,0,0,0,0,0,0,0,0,0,0,0,0,0,0,0,0,0,0,0,0,0,0,0,0,0,0,0,0,0,0,0,0,0,0,0,0,0,0,0,0,0,0,0,0,0,0,0,0,0,0,0,0,0,0,0,0,0,
0,0,0,0,0,0,0,0,0,0,0,0,0,0,0,0,0,0,0,0,0,0,0,0,0,0,0,0,0,0,0,0,0,0,0,0,0,0,0,0,0,0,0,0,0,0,0,0,0,0,0,0,0,0,0,0,0,0,0,0,0,0,0,0,0,0,0,0,0,0,0,0,0,0,0,
0,0,0,0,0,0,0,0,0,0,0,0,0,0,0,0,0,0,0,0,0,0,0,0,0,0,0,0,0,0,0,0,0,0,0,0,0,0,0,0,0,0,0,0,0,0,0,0,0,0,0,0,0,0,0,0,0,0,0,0,0,0,0,0,0,0,0,0,0,0,0,0,0,0,0,
0,0,0,0,0,0,0,0,0,0,0,0,0,0,0,0,0,0,0,0,0,0,0,0,0,0,0,0,0,0,0,0,0,0,0,0,0,0,0,0,0,0,0,0,0,0,0,0,0,0,0,0,0,0,0,0,0,0,0,0,0,0,0,0,0,0,0,0,0,0,0,0,0,0,0,
0,0,0,0,0,0,0,0,0,0,0,0,0,0,0,0,0,0,0,0,0,0,0,0,0,0,0,0,0,0,0,0,0,0,0,0,0,0,0,0,0,0,0,0,0,0,0,0,0,0,0,0,0,0,0,0,0,0,0,0,0,0,0,0,0,0,0,0,0,0,0,0,0,0,0,
0,0,0,0,0,0,0,0,0,0,0,0,0,0,0,0,0,0,0,0,0,0,0,0,0,0,0,0,0,0,0,0,0,0,0,0,0,0,0,0,0,0,0,0,0,0,0,0,0,0,0,0,0,0,0,0,0,0,0,0,0,0,0,0,0,0,0,0,0,0,0,0,0,0,0,
0,0,0,0,0,0,0,0,0,0,0,0,0,0,0,0,0,0,0,0,0,0,0,0,0,0,0,0,0,0,0,0,0,0,0,0,0,0,0,0,0,0,0,0,0,0,0,0,0,0,0,0,0,0,0,0,0,0,0,0,0,0,0,0,0,0,0,0,0,0,0,0,0,0,0,
0,0,0,0,0,0,0,0,0,0,0,0,0,0,0,0,0,0,0,0,0,0,0,0,0,0,0,0,0,0,0,0,0,0,0,0,0,0,0,0,0,0,0,0,0,0,0,0,0,0,0,0,0,0,0,0,0,0,0,0,0,0,0,0,0,0,0,0,0,0,0,0,0,0,0,
0,0,0,0,0,0,0,0,0,0,0,0,0,0,0,0,0,0,0,0,0,0,0,0,0,0,0,0,0,0,0,0,0,0,0,0,0,0,0,0,0,0,0,0,0,0,0,0,0,0,0,0,0,0,0,0,0,0,0,0,0,0,0,0,0,0,0,0,0,0,0,0,0,0,0,
0,0,0,0,0,0,0,0,0,0,0,0,0,0,0,0,0,0,0,0,0,0,0,0,0,0,0,0,0,0,0,0,0,0,0,0,0,0,0,0,0,0,0,0,0,0,0,0,0,0,0,0,0,0,0,0,0,0,0,0,0,0,0,0,0,0,0,0,0,0,0,0,0,0,0,
0,0,0,0,0,0,0,0,0,0,0,0,0,0,0,0,0,0,0,0,0,0,0,0,0,0,0,0,0,0,0,0,0,0,0,0,0,0,0,0,0,0,0,0,0,0,0,0,0,0,0,0,0,0,0,0,0,0,0,0,0,0,0,0,0,0,0,0,0,0,0,0,0,0,0,
0,0,0,0,0,0,0,0,0,0,0,0,0,0,0,0,0,0,0,0,0,0,0,0,0,0,0,0,0,0,0,0,0,0,0,0,0,0,0,0,0,0,0,0,0,0,0,0,0,0,0,0,0,0,0,0,0,0,0,0,0,0,0,0,0,0,0,0,0,0,0,0,0,0,0,
0,0,0,0,0,0,0,0,0,0,0,0,0,0,0,0,0,0,0,0,0,0,0,0,0,0,0,0,0,0,0,0,0,0,0,0,0,0,0,0,0,0,0,0,0,0,0,0,0,0,0,0,0,0,0,0,0,0,0,0,0,0,0,0,0,0,0,0,0,0,0,0,0,0,0,
0,0,0,0,0,0,0,0,0,0,0,0,0,0,0,0,0,0,0,0,0,0,0,0,0,0,0,0,0,0,0,0,0,0,0,0,0,0,0,0,0,0,0,0,0,0,0,0,0,0,0,0,0,0,0,0,0,0,0,0,0,0,0,0,0,0,0,0,0,0,0,0,0,0,0,
0,0,0,0,0,0,0,0,0,0,0,0,0,0,0,0,0,0,0,0,0,0,0,0,0,0,0,0,0,0,0,0,0,0,0,0,0,0,0,0,0,0,0,0,0,0,0,0,0,0,0,0,0,0,0,0,0,0,0,0,0,0,0,0,0,0,0,0,0,0,0,0,0,0,0,
0,0,0,0,0,0,0,0,0,0,0,0,0,0,0,0,0,0,0,0,0,0,0,0,0,0,0,0,0,0,0,0,0,0,0,0,0,0,0,0,0,0,0,0,0,0,0,0,0,0,0,0,0,0,0,0,0,0,0,0,0,0,0,0,0,0,0,0,0,0,0,0,0,0,0,
0,0,0,0,0,0,0,0,0,0,0,0,0,0,0,0,0,0,0,0,0,0,0,0,0,0,0,0,0,0,0,0,0,0,0,0,0,0,0,0,0,0,0,0,0,0,0,0,0,0,0,0,0,0,0,0,0,0,0,0,0,0,0,0,0,0,0,0,0,0,0,0,0,0,0,
0,0,0,0,0,0,0,0,0,0,0,0,0,0,0,0,0,0,0,0,0,0,0,0,0,0,0,0,0,0,0,0,0,0,0,0,0,0,0,0,0,0,0,0,0,0,0,0,0,0,0,0,0,0,0,0,0,0,0,0,0,0,0,0,0,0,0,0,0,0,0,0,0,0,0,
0,0,0,0,0,0,0,0,0,0,0,0,0,0,0,0,0,0,0,0,0,0,0,0,0,0,0,0,0,0,0,0,0,0,0,0,0,0,0,0,0,0,0,0,0,0,0,0,0,0,0,0,0,0,0,0,0,0,0,0,0,0,0,0,0,0,0,0,0,0,0,0,0,0,0,
0,0,0,0,0,0,0,0,0,0,0,0,0,0,0,0,0,0,0,0,0,0,0,0,0,0,0,0,0,0,0,0,0,0,0,0,0,0,0,0,0,0,0,0,0,0,0,0,0,0,0,0,0,0,0,0,0,0,0,0,0,0,0,0,0,0,0,0,0,0,0,0,0,0,0,
0,0,0,0,0,0,0,0,0,0,0,0,0,0,0,0,0,0,0,0,0,0,0,0,0,0,0,0,0,0,0,0,0,0,0,0,0,0,0,0,0,0,0,0,0,0,0,0,0,0,0,0,0,0,0,0,0,0,0,0,0,0,0,0,0,0,0,0,0,0,0,0,0,0,0,
0,0,0,0,0,0,0,0,0,0,0,0,0,0,0,0,0,0,0,0,0,0,0,0,0,0,0,0,0,0,0,0,0,0,0,0,0,0,0,0,0,0,0,0,0,0,0,0,0,0,0,0,0,0,0,0,0,0,0,0,0,0,0,0,0,0,0,0,0,0,0,0,0,0,0,
0,0,0,0,0,0,0,0,0,0,0,0,0,0,0,0,0,0,0,0,0,0,0,0,0,0,0,0,0,0,0,0,0,0,0,0,0,0,0,0,0,0,0,0,0,0,0,0,0,0,0,0,0,0,0,0,0,0,0,0,0,0,0,0,0,0,0,0,0,0,0,0,0,0,0,
0,0,0,0,0,0,0,0,0,0,0,0,0,0,0,0,0,0,0,0,0,0,0,0,0,0,0,0,0,0,0,0,0,0,0,0,0,0,0,0,0,0,0,0,0,0,0,0,0,0,0,0,0,0,0,0,0,0,0,0,0,0,0,0,0,0,0,0,0,0,0,0,0,0,0
</data>
 </layer>
 <objectgroup id="5" name="Back"/>
 <objectgroup id="6" name="Buildings"/>
 <objectgroup id="7" name="Front"/>
 <objectgroup id="8" name="AlwaysFront"/>
</map>
