<?xml version="1.0" encoding="UTF-8"?>
<map version="1.10" tiledversion="1.11.2" orientation="orthogonal" renderorder="right-down" compressionlevel="0" width="66" height="33" tilewidth="16" tileheight="16" infinite="0" nextlayerid="27" nextobjectid="3">
 <properties>
  <property name="AmbientLight" value="120 65 120"/>
  <property name="LocationContext" value="Custom_Hikawa_Grove"/>
  <property name="Outdoors" value="T"/>
  <property name="Warp" value="-1 -1 Town -1 -1"/>
 </properties>
 <tileset firstgid="1" name="Paths" tilewidth="16" tileheight="16" tilecount="64" columns="4">
  <image source="paths" width="64" height="256"/>
 </tileset>
 <tileset firstgid="65" name="untitled tile sheet" tilewidth="16" tileheight="16" tilecount="1975" columns="25">
  <image source="spring_outdoorsTileSheet" width="400" height="1264"/>
  <tile id="150">
   <properties>
    <property name="Spawnable" value="T"/>
    <property name="Type" value="Grass"/>
   </properties>
  </tile>
  <tile id="151">
   <properties>
    <property name="Type" value="Grass"/>
   </properties>
  </tile>
  <tile id="175">
   <properties>
    <property name="Spawnable" value="T"/>
    <property name="Type" value="Grass"/>
   </properties>
  </tile>
  <tile id="176">
   <properties>
    <property name="Diggable" value="T"/>
    <property name="Type" value="Dirt"/>
   </properties>
  </tile>
  <tile id="177">
   <properties>
    <property name="Type" value="Dirt"/>
   </properties>
  </tile>
  <tile id="178">
   <properties>
    <property name="Type" value="Dirt"/>
   </properties>
  </tile>
  <tile id="179">
   <properties>
    <property name="Type" value="Grass"/>
   </properties>
  </tile>
  <tile id="180">
   <properties>
    <property name="Spawnable" value="T"/>
    <property name="Type" value="Grass"/>
   </properties>
  </tile>
  <tile id="181">
   <properties>
    <property name="Type" value="Dirt"/>
   </properties>
  </tile>
  <tile id="182">
   <properties>
    <property name="Type" value="Dirt"/>
   </properties>
  </tile>
  <tile id="200">
   <properties>
    <property name="Spawnable" value="T"/>
    <property name="Type" value="Grass"/>
   </properties>
  </tile>
  <tile id="202">
   <properties>
    <property name="Type" value="Dirt"/>
   </properties>
  </tile>
  <tile id="203">
   <properties>
    <property name="Type" value="Grass"/>
   </properties>
  </tile>
  <tile id="204">
   <properties>
    <property name="Type" value="Grass"/>
   </properties>
  </tile>
  <tile id="205">
   <properties>
    <property name="Type" value="Grass"/>
   </properties>
  </tile>
  <tile id="206">
   <properties>
    <property name="Diggable" value="T"/>
    <property name="Type" value="Dirt"/>
   </properties>
  </tile>
  <tile id="207">
   <properties>
    <property name="Diggable" value="T"/>
    <property name="Type" value="Dirt"/>
   </properties>
  </tile>
  <tile id="209">
   <properties>
    <property name="Water" value="T"/>
   </properties>
   <animation>
    <frame tileid="209" duration="1000"/>
    <frame tileid="1260" duration="1000"/>
   </animation>
  </tile>
  <tile id="225">
   <properties>
    <property name="Type" value="Dirt"/>
   </properties>
  </tile>
  <tile id="226">
   <properties>
    <property name="Diggable" value="T"/>
    <property name="Type" value="Dirt"/>
   </properties>
  </tile>
  <tile id="227">
   <properties>
    <property name="Diggable" value="T"/>
    <property name="Type" value="Dirt"/>
   </properties>
  </tile>
  <tile id="228">
   <properties>
    <property name="Type" value="Dirt"/>
   </properties>
  </tile>
  <tile id="229">
   <properties>
    <property name="Type" value="Grass"/>
   </properties>
  </tile>
  <tile id="230">
   <properties>
    <property name="Type" value="Grass"/>
   </properties>
  </tile>
  <tile id="231">
   <properties>
    <property name="Diggable" value="T"/>
    <property name="Type" value="Dirt"/>
   </properties>
  </tile>
  <tile id="234">
   <properties>
    <property name="Water" value="T"/>
   </properties>
  </tile>
  <tile id="250">
   <properties>
    <property name="Type" value="Grass"/>
   </properties>
  </tile>
  <tile id="251">
   <properties>
    <property name="Type" value="Dirt"/>
   </properties>
  </tile>
  <tile id="252">
   <properties>
    <property name="Diggable" value="T"/>
    <property name="Type" value="Dirt"/>
   </properties>
  </tile>
  <tile id="253">
   <properties>
    <property name="Type" value="Grass"/>
   </properties>
  </tile>
  <tile id="254">
   <properties>
    <property name="Type" value="Grass"/>
   </properties>
  </tile>
  <tile id="255">
   <properties>
    <property name="Type" value="Grass"/>
   </properties>
  </tile>
  <tile id="256">
   <properties>
    <property name="Type" value="Grass"/>
   </properties>
  </tile>
  <tile id="265">
   <properties>
    <property name="Type" value="Dirt"/>
   </properties>
  </tile>
  <tile id="276">
   <properties>
    <property name="Type" value="Grass"/>
   </properties>
  </tile>
  <tile id="277">
   <properties>
    <property name="Spawnable" value="T"/>
    <property name="Type" value="Grass"/>
   </properties>
  </tile>
  <tile id="278">
   <properties>
    <property name="Type" value="Grass"/>
   </properties>
  </tile>
  <tile id="279">
   <properties>
    <property name="Type" value="Grass"/>
   </properties>
  </tile>
  <tile id="285">
   <properties>
    <property name="Water" value="T"/>
   </properties>
  </tile>
  <tile id="301">
   <properties>
    <property name="Type" value="Grass"/>
   </properties>
  </tile>
  <tile id="302">
   <properties>
    <property name="Spawnable" value="T"/>
    <property name="Type" value="Grass"/>
   </properties>
  </tile>
  <tile id="303">
   <properties>
    <property name="Type" value="Grass"/>
   </properties>
  </tile>
  <tile id="304">
   <properties>
    <property name="Type" value="Grass"/>
   </properties>
  </tile>
  <tile id="305">
   <properties>
    <property name="Type" value="Grass"/>
   </properties>
  </tile>
  <tile id="308">
   <properties>
    <property name="Water" value="T"/>
   </properties>
  </tile>
  <tile id="309">
   <properties>
    <property name="Water" value="T"/>
   </properties>
  </tile>
  <tile id="310">
   <properties>
    <property name="Water" value="T"/>
   </properties>
  </tile>
  <tile id="325">
   <properties>
    <property name="Type" value="Grass"/>
   </properties>
  </tile>
  <tile id="326">
   <properties>
    <property name="Type" value="Grass"/>
   </properties>
  </tile>
  <tile id="327">
   <properties>
    <property name="Type" value="Grass"/>
   </properties>
  </tile>
  <tile id="328">
   <properties>
    <property name="Type" value="Grass"/>
   </properties>
  </tile>
  <tile id="329">
   <properties>
    <property name="Type" value="Grass"/>
   </properties>
  </tile>
  <tile id="333">
   <properties>
    <property name="Water" value="T"/>
   </properties>
  </tile>
  <tile id="334">
   <properties>
    <property name="Water" value="T"/>
   </properties>
  </tile>
  <tile id="335">
   <properties>
    <property name="Water" value="T"/>
   </properties>
  </tile>
  <tile id="336">
   <properties>
    <property name="Water" value="T"/>
   </properties>
  </tile>
  <tile id="350">
   <properties>
    <property name="Type" value="Grass"/>
   </properties>
  </tile>
  <tile id="351">
   <properties>
    <property name="Spawnable" value="T"/>
    <property name="Type" value="Grass"/>
   </properties>
  </tile>
  <tile id="352">
   <properties>
    <property name="Type" value="Grass"/>
   </properties>
  </tile>
  <tile id="353">
   <properties>
    <property name="Type" value="Grass"/>
   </properties>
  </tile>
  <tile id="354">
   <properties>
    <property name="Type" value="Grass"/>
   </properties>
  </tile>
  <tile id="355">
   <properties>
    <property name="Type" value="Grass"/>
   </properties>
  </tile>
  <tile id="356">
   <properties>
    <property name="Type" value="Grass"/>
   </properties>
  </tile>
  <tile id="375">
   <properties>
    <property name="Type" value="Grass"/>
   </properties>
  </tile>
  <tile id="376">
   <properties>
    <property name="Type" value="Grass"/>
   </properties>
  </tile>
  <tile id="377">
   <properties>
    <property name="Type" value="Grass"/>
   </properties>
  </tile>
  <tile id="378">
   <properties>
    <property name="Type" value="Grass"/>
   </properties>
  </tile>
  <tile id="379">
   <properties>
    <property name="Type" value="Grass"/>
   </properties>
  </tile>
  <tile id="380">
   <properties>
    <property name="Spawnable" value="T"/>
    <property name="Type" value="Grass"/>
   </properties>
  </tile>
  <tile id="381">
   <properties>
    <property name="Type" value="Grass"/>
   </properties>
  </tile>
  <tile id="400">
   <properties>
    <property name="Type" value="Grass"/>
   </properties>
  </tile>
  <tile id="401">
   <properties>
    <property name="Type" value="Grass"/>
   </properties>
  </tile>
  <tile id="402">
   <properties>
    <property name="Spawnable" value="T"/>
    <property name="Type" value="Grass"/>
   </properties>
  </tile>
  <tile id="403">
   <properties>
    <property name="Spawnable" value="T"/>
    <property name="Type" value="Grass"/>
   </properties>
  </tile>
  <tile id="404">
   <properties>
    <property name="Type" value="Grass"/>
   </properties>
  </tile>
  <tile id="405">
   <properties>
    <property name="Type" value="Grass"/>
   </properties>
  </tile>
  <tile id="406">
   <properties>
    <property name="Type" value="Grass"/>
   </properties>
  </tile>
  <tile id="512">
   <properties>
    <property name="Type" value="Dirt"/>
   </properties>
  </tile>
  <tile id="534">
   <properties>
    <property name="Type" value="Dirt"/>
   </properties>
  </tile>
  <tile id="536">
   <properties>
    <property name="Type" value="Dirt"/>
   </properties>
  </tile>
  <tile id="537">
   <properties>
    <property name="Type" value="Dirt"/>
   </properties>
  </tile>
  <tile id="538">
   <properties>
    <property name="Type" value="Dirt"/>
   </properties>
  </tile>
  <tile id="558">
   <properties>
    <property name="Diggable" value="T"/>
    <property name="Type" value="Dirt"/>
   </properties>
  </tile>
  <tile id="559">
   <animation>
    <frame tileid="559" duration="1000"/>
    <frame tileid="1289" duration="1000"/>
   </animation>
  </tile>
  <tile id="560">
   <properties>
    <property name="Diggable" value="T"/>
    <property name="Type" value="Dirt"/>
   </properties>
  </tile>
  <tile id="561">
   <properties>
    <property name="Type" value="Dirt"/>
   </properties>
  </tile>
  <tile id="562">
   <properties>
    <property name="Type" value="Dirt"/>
   </properties>
  </tile>
  <tile id="563">
   <properties>
    <property name="Type" value="Dirt"/>
   </properties>
  </tile>
  <tile id="564">
   <properties>
    <property name="Diggable" value="T"/>
    <property name="Type" value="Dirt"/>
   </properties>
  </tile>
  <tile id="565">
   <properties>
    <property name="Type" value="Dirt"/>
   </properties>
  </tile>
  <tile id="566">
   <properties>
    <property name="Type" value="Dirt"/>
   </properties>
  </tile>
  <tile id="567">
   <properties>
    <property name="Spawnable" value="T"/>
    <property name="Type" value="Grass"/>
   </properties>
  </tile>
  <tile id="568">
   <properties>
    <property name="Type" value="Grass"/>
   </properties>
  </tile>
  <tile id="569">
   <properties>
    <property name="Spawnable" value="T"/>
    <property name="Type" value="Grass"/>
   </properties>
  </tile>
  <tile id="570">
   <properties>
    <property name="Type" value="Grass"/>
   </properties>
  </tile>
  <tile id="583">
   <properties>
    <property name="Diggable" value="T"/>
    <property name="Type" value="Dirt"/>
   </properties>
  </tile>
  <tile id="584">
   <animation>
    <frame tileid="584" duration="1000"/>
    <frame tileid="1314" duration="1000"/>
   </animation>
  </tile>
  <tile id="585">
   <properties>
    <property name="Diggable" value="T"/>
    <property name="Type" value="Dirt"/>
   </properties>
  </tile>
  <tile id="586">
   <properties>
    <property name="Type" value="Dirt"/>
   </properties>
  </tile>
  <tile id="587">
   <properties>
    <property name="Diggable" value="T"/>
    <property name="Type" value="Dirt"/>
   </properties>
  </tile>
  <tile id="588">
   <properties>
    <property name="Type" value="Dirt"/>
   </properties>
  </tile>
  <tile id="589">
   <properties>
    <property name="Diggable" value="T"/>
    <property name="Type" value="Dirt"/>
   </properties>
  </tile>
  <tile id="590">
   <properties>
    <property name="Type" value="Dirt"/>
   </properties>
  </tile>
  <tile id="591">
   <properties>
    <property name="Type" value="Dirt"/>
   </properties>
  </tile>
  <tile id="592">
   <properties>
    <property name="Type" value="Grass"/>
   </properties>
  </tile>
  <tile id="593">
   <properties>
    <property name="Type" value="Grass"/>
   </properties>
  </tile>
  <tile id="594">
   <properties>
    <property name="Type" value="Grass"/>
   </properties>
  </tile>
  <tile id="595">
   <properties>
    <property name="Type" value="Grass"/>
   </properties>
  </tile>
  <tile id="596">
   <properties>
    <property name="Type" value="Dirt"/>
   </properties>
  </tile>
  <tile id="597">
   <properties>
    <property name="Type" value="Dirt"/>
   </properties>
  </tile>
  <tile id="598">
   <properties>
    <property name="Type" value="Stone"/>
   </properties>
  </tile>
  <tile id="599">
   <properties>
    <property name="Type" value="Stone"/>
   </properties>
  </tile>
  <tile id="606">
   <properties>
    <property name="Diggable" value="T"/>
    <property name="Type" value="Dirt"/>
   </properties>
  </tile>
  <tile id="607">
   <properties>
    <property name="Diggable" value="T"/>
    <property name="Type" value="Dirt"/>
   </properties>
  </tile>
  <tile id="608">
   <properties>
    <property name="Diggable" value="T"/>
    <property name="Type" value="Dirt"/>
   </properties>
  </tile>
  <tile id="609">
   <animation>
    <frame tileid="609" duration="1000"/>
    <frame tileid="1285" duration="1000"/>
   </animation>
  </tile>
  <tile id="610">
   <properties>
    <property name="Diggable" value="T"/>
    <property name="Type" value="Dirt"/>
   </properties>
  </tile>
  <tile id="611">
   <properties>
    <property name="Type" value="Dirt"/>
   </properties>
  </tile>
  <tile id="612">
   <properties>
    <property name="Type" value="Dirt"/>
   </properties>
  </tile>
  <tile id="613">
   <properties>
    <property name="Type" value="Dirt"/>
   </properties>
  </tile>
  <tile id="614">
   <properties>
    <property name="Diggable" value="T"/>
    <property name="Type" value="Dirt"/>
   </properties>
  </tile>
  <tile id="615">
   <properties>
    <property name="Type" value="Dirt"/>
   </properties>
  </tile>
  <tile id="616">
   <properties>
    <property name="Type" value="Dirt"/>
   </properties>
  </tile>
  <tile id="617">
   <properties>
    <property name="Type" value="Dirt"/>
   </properties>
  </tile>
  <tile id="619">
   <properties>
    <property name="Type" value="Grass"/>
   </properties>
  </tile>
  <tile id="620">
   <properties>
    <property name="Type" value="Dirt"/>
   </properties>
  </tile>
  <tile id="621">
   <properties>
    <property name="Type" value="Dirt"/>
   </properties>
  </tile>
  <tile id="622">
   <properties>
    <property name="Type" value="Dirt"/>
   </properties>
  </tile>
  <tile id="623">
   <properties>
    <property name="Type" value="Stone"/>
   </properties>
  </tile>
  <tile id="628">
   <properties>
    <property name="Water" value="T"/>
   </properties>
  </tile>
  <tile id="629">
   <properties>
    <property name="Water" value="T"/>
   </properties>
  </tile>
  <tile id="630">
   <properties>
    <property name="Diggable" value="T"/>
    <property name="Type" value="Dirt"/>
   </properties>
  </tile>
  <tile id="631">
   <properties>
    <property name="Type" value="Dirt"/>
   </properties>
  </tile>
  <tile id="632">
   <properties>
    <property name="Diggable" value="T"/>
    <property name="Type" value="Dirt"/>
   </properties>
  </tile>
  <tile id="633">
   <properties>
    <property name="Type" value="Grass"/>
   </properties>
  </tile>
  <tile id="634">
   <properties>
    <property name="Spawnable" value="T"/>
    <property name="Type" value="Grass"/>
   </properties>
  </tile>
  <tile id="635">
   <properties>
    <property name="Type" value="Dirt"/>
   </properties>
  </tile>
  <tile id="636">
   <properties>
    <property name="Type" value="Dirt"/>
   </properties>
  </tile>
  <tile id="653">
   <properties>
    <property name="Water" value="T"/>
   </properties>
  </tile>
  <tile id="654">
   <properties>
    <property name="Type" value="Grass"/>
   </properties>
  </tile>
  <tile id="655">
   <properties>
    <property name="Type" value="Dirt"/>
   </properties>
  </tile>
  <tile id="656">
   <properties>
    <property name="Type" value="Dirt"/>
   </properties>
  </tile>
  <tile id="657">
   <properties>
    <property name="Type" value="Grass"/>
   </properties>
  </tile>
  <tile id="658">
   <properties>
    <property name="Type" value="Grass"/>
   </properties>
  </tile>
  <tile id="659">
   <properties>
    <property name="Type" value="Grass"/>
   </properties>
  </tile>
  <tile id="679">
   <properties>
    <property name="Type" value="Dirt"/>
   </properties>
  </tile>
  <tile id="680">
   <properties>
    <property name="Diggable" value="T"/>
    <property name="Type" value="Dirt"/>
   </properties>
  </tile>
  <tile id="681">
   <properties>
    <property name="Diggable" value="T"/>
    <property name="Type" value="Dirt"/>
   </properties>
  </tile>
  <tile id="682">
   <properties>
    <property name="Type" value="Dirt"/>
   </properties>
  </tile>
  <tile id="683">
   <properties>
    <property name="Type" value="Grass"/>
   </properties>
  </tile>
  <tile id="684">
   <properties>
    <property name="Type" value="Grass"/>
   </properties>
  </tile>
  <tile id="685">
   <properties>
    <property name="Diggable" value="T"/>
    <property name="Type" value="Dirt"/>
   </properties>
  </tile>
  <tile id="704">
   <properties>
    <property name="Type" value="Grass"/>
   </properties>
  </tile>
  <tile id="705">
   <properties>
    <property name="Type" value="Dirt"/>
   </properties>
  </tile>
  <tile id="706">
   <properties>
    <property name="Diggable" value="T"/>
    <property name="Type" value="Dirt"/>
   </properties>
  </tile>
  <tile id="707">
   <properties>
    <property name="Type" value="Grass"/>
   </properties>
  </tile>
  <tile id="708">
   <animation>
    <frame tileid="708" duration="1000"/>
    <frame tileid="1234" duration="1000"/>
   </animation>
  </tile>
  <tile id="709">
   <animation>
    <frame tileid="709" duration="1000"/>
    <frame tileid="1235" duration="1000"/>
   </animation>
  </tile>
  <tile id="710">
   <animation>
    <frame tileid="710" duration="1000"/>
    <frame tileid="1236" duration="1000"/>
   </animation>
  </tile>
  <tile id="733">
   <animation>
    <frame tileid="733" duration="1000"/>
    <frame tileid="1259" duration="1000"/>
   </animation>
  </tile>
  <tile id="734">
   <properties>
    <property name="Water" value="T"/>
   </properties>
  </tile>
  <tile id="735">
   <animation>
    <frame tileid="735" duration="1000"/>
    <frame tileid="1261" duration="1000"/>
   </animation>
  </tile>
  <tile id="758">
   <animation>
    <frame tileid="758" duration="1000"/>
    <frame tileid="1284" duration="1000"/>
   </animation>
  </tile>
  <tile id="759">
   <properties>
    <property name="Water" value="T"/>
   </properties>
  </tile>
  <tile id="760">
   <animation>
    <frame tileid="760" duration="1000"/>
    <frame tileid="1286" duration="1000"/>
   </animation>
  </tile>
  <tile id="779">
   <properties>
    <property name="Passable" value="T"/>
    <property name="Type" value="Wood"/>
   </properties>
  </tile>
  <tile id="780">
   <properties>
    <property name="Passable" value="T"/>
    <property name="Type" value="Wood"/>
   </properties>
  </tile>
  <tile id="781">
   <properties>
    <property name="Passable" value="T"/>
    <property name="Type" value="Wood"/>
   </properties>
  </tile>
  <tile id="782">
   <properties>
    <property name="Passable" value="T"/>
    <property name="Type" value="Wood"/>
   </properties>
  </tile>
  <tile id="783">
   <animation>
    <frame tileid="783" duration="1000"/>
    <frame tileid="1309" duration="1000"/>
   </animation>
  </tile>
  <tile id="785">
   <animation>
    <frame tileid="785" duration="1000"/>
    <frame tileid="1311" duration="1000"/>
   </animation>
  </tile>
  <tile id="809">
   <properties>
    <property name="Passable" value="T"/>
    <property name="Type" value="Wood"/>
   </properties>
  </tile>
  <tile id="812">
   <properties>
    <property name="Type" value="Stone"/>
   </properties>
  </tile>
  <tile id="813">
   <properties>
    <property name="Type" value="Stone"/>
   </properties>
  </tile>
  <tile id="834">
   <properties>
    <property name="Passable" value="T"/>
    <property name="Type" value="Wood"/>
   </properties>
  </tile>
  <tile id="859">
   <properties>
    <property name="Passable" value="T"/>
    <property name="Type" value="Wood"/>
   </properties>
  </tile>
  <tile id="884">
   <properties>
    <property name="Passable" value="T"/>
    <property name="Type" value="Wood"/>
   </properties>
  </tile>
  <tile id="947">
   <properties>
    <property name="Type" value="Stone"/>
   </properties>
  </tile>
  <tile id="948">
   <properties>
    <property name="Type" value="Stone"/>
   </properties>
  </tile>
  <tile id="949">
   <properties>
    <property name="Type" value="Stone"/>
   </properties>
  </tile>
  <tile id="972">
   <properties>
    <property name="Type" value="Grass"/>
   </properties>
  </tile>
  <tile id="973">
   <properties>
    <property name="Type" value="Stone"/>
   </properties>
  </tile>
  <tile id="974">
   <properties>
    <property name="Type" value="Grass"/>
   </properties>
  </tile>
  <tile id="998">
   <properties>
    <property name="Type" value="Grass"/>
   </properties>
  </tile>
  <tile id="999">
   <properties>
    <property name="Type" value="Stone"/>
   </properties>
  </tile>
  <tile id="1186">
   <properties>
    <property name="Water" value="T"/>
   </properties>
  </tile>
  <tile id="1187">
   <properties>
    <property name="Water" value="T"/>
   </properties>
  </tile>
  <tile id="1188">
   <properties>
    <property name="Water" value="T"/>
   </properties>
  </tile>
  <tile id="1211">
   <properties>
    <property name="Water" value="T"/>
   </properties>
  </tile>
  <tile id="1212">
   <properties>
    <property name="Water" value="T"/>
   </properties>
  </tile>
  <tile id="1213">
   <properties>
    <property name="Water" value="T"/>
   </properties>
  </tile>
  <tile id="1227">
   <properties>
    <property name="Water" value="T"/>
   </properties>
  </tile>
  <tile id="1228">
   <properties>
    <property name="Water" value="T"/>
   </properties>
  </tile>
  <tile id="1229">
   <properties>
    <property name="Water" value="T"/>
   </properties>
  </tile>
  <tile id="1230">
   <properties>
    <property name="Water" value="T"/>
   </properties>
  </tile>
  <tile id="1231">
   <properties>
    <property name="Water" value="T"/>
   </properties>
  </tile>
  <tile id="1237">
   <properties>
    <property name="Water" value="T"/>
   </properties>
  </tile>
  <tile id="1238">
   <properties>
    <property name="Water" value="T"/>
   </properties>
  </tile>
  <tile id="1239">
   <properties>
    <property name="Water" value="T"/>
   </properties>
  </tile>
  <tile id="1240">
   <properties>
    <property name="Water" value="T"/>
   </properties>
  </tile>
  <tile id="1241">
   <properties>
    <property name="Water" value="T"/>
   </properties>
  </tile>
  <tile id="1242">
   <properties>
    <property name="Water" value="T"/>
   </properties>
  </tile>
  <tile id="1243">
   <properties>
    <property name="Water" value="T"/>
   </properties>
  </tile>
  <tile id="1244">
   <properties>
    <property name="Water" value="T"/>
   </properties>
  </tile>
  <tile id="1245">
   <properties>
    <property name="Water" value="T"/>
   </properties>
  </tile>
  <tile id="1246">
   <properties>
    <property name="Passable" value="F"/>
    <property name="Water" value="T"/>
   </properties>
  </tile>
  <tile id="1247">
   <properties>
    <property name="Water" value="T"/>
   </properties>
  </tile>
  <tile id="1248">
   <properties>
    <property name="Water" value="T"/>
   </properties>
  </tile>
  <tile id="1249">
   <properties>
    <property name="Passable" value="F"/>
    <property name="Water" value="T"/>
   </properties>
  </tile>
  <tile id="1252">
   <properties>
    <property name="Water" value="T"/>
   </properties>
  </tile>
  <tile id="1253">
   <properties>
    <property name="Water" value="T"/>
   </properties>
  </tile>
  <tile id="1254">
   <properties>
    <property name="Water" value="T"/>
   </properties>
  </tile>
  <tile id="1255">
   <properties>
    <property name="Water" value="T"/>
   </properties>
  </tile>
  <tile id="1256">
   <properties>
    <property name="Water" value="T"/>
   </properties>
  </tile>
  <tile id="1263">
   <properties>
    <property name="Water" value="T"/>
   </properties>
  </tile>
  <tile id="1264">
   <properties>
    <property name="Water" value="T"/>
   </properties>
  </tile>
  <tile id="1265">
   <properties>
    <property name="Water" value="T"/>
   </properties>
  </tile>
  <tile id="1266">
   <properties>
    <property name="Passable" value="F"/>
    <property name="Water" value="T"/>
   </properties>
  </tile>
  <tile id="1267">
   <properties>
    <property name="Passable" value="F"/>
    <property name="Water" value="T"/>
   </properties>
  </tile>
  <tile id="1268">
   <properties>
    <property name="Water" value="T"/>
   </properties>
  </tile>
  <tile id="1269">
   <properties>
    <property name="Water" value="T"/>
   </properties>
  </tile>
  <tile id="1270">
   <properties>
    <property name="Water" value="T"/>
   </properties>
  </tile>
  <tile id="1271">
   <properties>
    <property name="Passable" value="F"/>
    <property name="Water" value="T"/>
   </properties>
  </tile>
  <tile id="1272">
   <properties>
    <property name="Water" value="T"/>
   </properties>
  </tile>
  <tile id="1273">
   <properties>
    <property name="Water" value="T"/>
   </properties>
  </tile>
  <tile id="1274">
   <properties>
    <property name="Water" value="T"/>
   </properties>
  </tile>
  <tile id="1277">
   <properties>
    <property name="Water" value="T"/>
   </properties>
  </tile>
  <tile id="1278">
   <properties>
    <property name="Water" value="T"/>
   </properties>
  </tile>
  <tile id="1279">
   <properties>
    <property name="Water" value="T"/>
   </properties>
  </tile>
  <tile id="1280">
   <properties>
    <property name="Water" value="T"/>
   </properties>
  </tile>
  <tile id="1281">
   <properties>
    <property name="Water" value="T"/>
   </properties>
  </tile>
  <tile id="1293">
   <animation>
    <frame tileid="1293" duration="500"/>
    <frame tileid="1294" duration="500"/>
    <frame tileid="1295" duration="500"/>
    <frame tileid="1296" duration="500"/>
   </animation>
  </tile>
  <tile id="1297">
   <properties>
    <property name="Water" value="T"/>
   </properties>
  </tile>
  <tile id="1298">
   <properties>
    <property name="Water" value="T"/>
   </properties>
  </tile>
  <tile id="1299">
   <properties>
    <property name="Passable" value="F"/>
    <property name="Water" value="T"/>
   </properties>
  </tile>
  <tile id="1302">
   <properties>
    <property name="Water" value="T"/>
   </properties>
  </tile>
  <tile id="1303">
   <properties>
    <property name="Water" value="T"/>
   </properties>
  </tile>
  <tile id="1304">
   <properties>
    <property name="Water" value="T"/>
   </properties>
  </tile>
  <tile id="1305">
   <properties>
    <property name="Water" value="T"/>
   </properties>
  </tile>
  <tile id="1306">
   <properties>
    <property name="Water" value="T"/>
   </properties>
  </tile>
  <tile id="1322">
   <properties>
    <property name="Water" value="T"/>
   </properties>
  </tile>
  <tile id="1323">
   <properties>
    <property name="Water" value="T"/>
   </properties>
  </tile>
  <tile id="1324">
   <properties>
    <property name="Water" value="T"/>
   </properties>
  </tile>
  <tile id="1345">
   <properties>
    <property name="Passable" value="T"/>
   </properties>
  </tile>
  <tile id="1637">
   <properties>
    <property name="Type" value="Wood"/>
   </properties>
  </tile>
  <tile id="1638">
   <properties>
    <property name="Type" value="Wood"/>
   </properties>
  </tile>
  <tile id="1639">
   <properties>
    <property name="Type" value="Wood"/>
   </properties>
  </tile>
  <tile id="1662">
   <properties>
    <property name="Type" value="Wood"/>
   </properties>
  </tile>
  <tile id="1663">
   <properties>
    <property name="Type" value="Wood"/>
   </properties>
  </tile>
  <tile id="1664">
   <properties>
    <property name="Type" value="Wood"/>
   </properties>
  </tile>
  <tile id="1716">
   <properties>
    <property name="Water" value="T"/>
   </properties>
  </tile>
  <tile id="1717">
   <properties>
    <property name="Water" value="T"/>
   </properties>
  </tile>
  <tile id="1718">
   <properties>
    <property name="Water" value="T"/>
   </properties>
  </tile>
 </tileset>
 <tileset firstgid="2040" name="v16_Outdoors2" tilewidth="16" tileheight="16" tilecount="1120" columns="16">
  <image source="spring_outdoorsTileSheet2" width="256" height="1120"/>
  <tile id="770">
   <properties>
    <property name="Type" value="Grass"/>
   </properties>
  </tile>
  <tile id="771">
   <properties>
    <property name="Type" value="Grass"/>
   </properties>
  </tile>
  <tile id="786">
   <properties>
    <property name="Type" value="Grass"/>
   </properties>
  </tile>
  <tile id="787">
   <properties>
    <property name="Type" value="Grass"/>
   </properties>
  </tile>
  <tile id="802">
   <properties>
    <property name="Type" value="Grass"/>
   </properties>
  </tile>
  <tile id="803">
   <properties>
    <property name="Type" value="Grass"/>
   </properties>
  </tile>
  <tile id="816">
   <properties>
    <property name="Water" value="T"/>
   </properties>
  </tile>
  <tile id="817">
   <properties>
    <property name="Water" value="T"/>
   </properties>
  </tile>
  <tile id="820">
   <properties>
    <property name="Water" value="T"/>
   </properties>
  </tile>
  <tile id="821">
   <properties>
    <property name="Water" value="T"/>
   </properties>
  </tile>
  <tile id="822">
   <properties>
    <property name="Water" value="T"/>
   </properties>
  </tile>
  <tile id="832">
   <properties>
    <property name="Water" value="T"/>
   </properties>
  </tile>
  <tile id="833">
   <properties>
    <property name="Water" value="T"/>
   </properties>
  </tile>
  <tile id="834">
   <properties>
    <property name="Water" value="T"/>
   </properties>
  </tile>
  <tile id="835">
   <properties>
    <property name="Water" value="T"/>
   </properties>
  </tile>
  <tile id="836">
   <properties>
    <property name="Water" value="T"/>
   </properties>
  </tile>
  <tile id="837">
   <properties>
    <property name="Water" value="T"/>
   </properties>
  </tile>
  <tile id="838">
   <properties>
    <property name="Water" value="T"/>
   </properties>
  </tile>
  <tile id="848">
   <properties>
    <property name="Water" value="T"/>
   </properties>
  </tile>
  <tile id="849">
   <properties>
    <property name="Water" value="T"/>
   </properties>
  </tile>
  <tile id="850">
   <properties>
    <property name="Water" value="T"/>
   </properties>
  </tile>
  <tile id="851">
   <properties>
    <property name="Water" value="T"/>
   </properties>
  </tile>
  <tile id="852">
   <properties>
    <property name="Water" value="T"/>
   </properties>
  </tile>
  <tile id="853">
   <properties>
    <property name="Water" value="T"/>
   </properties>
  </tile>
  <tile id="854">
   <properties>
    <property name="Water" value="T"/>
   </properties>
  </tile>
  <tile id="864">
   <properties>
    <property name="Water" value="T"/>
   </properties>
  </tile>
  <tile id="865">
   <properties>
    <property name="Water" value="T"/>
   </properties>
  </tile>
  <tile id="866">
   <properties>
    <property name="Water" value="T"/>
   </properties>
  </tile>
  <tile id="867">
   <properties>
    <property name="Water" value="T"/>
   </properties>
  </tile>
  <tile id="868">
   <properties>
    <property name="Water" value="T"/>
   </properties>
  </tile>
  <tile id="869">
   <properties>
    <property name="Water" value="T"/>
   </properties>
  </tile>
  <tile id="870">
   <properties>
    <property name="Water" value="T"/>
   </properties>
  </tile>
  <tile id="880">
   <properties>
    <property name="Water" value="T"/>
   </properties>
  </tile>
  <tile id="881">
   <properties>
    <property name="Water" value="T"/>
   </properties>
  </tile>
  <tile id="882">
   <properties>
    <property name="Water" value="T"/>
   </properties>
  </tile>
  <tile id="883">
   <properties>
    <property name="Water" value="T"/>
   </properties>
  </tile>
  <tile id="934">
   <animation>
    <frame tileid="934" duration="1000"/>
    <frame tileid="935" duration="1000"/>
   </animation>
  </tile>
  <tile id="966">
   <animation>
    <frame tileid="966" duration="1000"/>
    <frame tileid="967" duration="1000"/>
   </animation>
  </tile>
  <tile id="982">
   <animation>
    <frame tileid="982" duration="1000"/>
    <frame tileid="983" duration="1000"/>
   </animation>
  </tile>
 </tileset>
 <tileset firstgid="3160" source="HikawaOutdoors.tsx"/>
 <layer id="1" name="Back" width="66" height="33">
  <data encoding="csv">
5233,5233,5233,5233,5233,5233,5233,5233,5233,5233,5233,5233,5233,5233,5233,5233,5233,5233,5233,5233,5233,5233,5233,5233,5233,5233,5233,5233,5233,5233,5233,5233,5233,5233,5233,5233,5233,5233,5233,5233,5233,5233,5233,5233,5233,5233,5233,5233,5233,5233,5233,5233,5233,5233,5233,5233,5233,5233,5233,5233,5233,5233,5233,5233,5233,5233,
5233,5233,5233,5233,5233,5233,5233,5233,5233,5233,5233,5233,5233,5233,5233,5233,5233,5233,5233,5233,5233,5233,5233,5233,5233,5233,5233,5233,5233,5233,5233,5233,5233,5233,5233,5233,5233,5233,5233,5233,5233,5233,5233,5233,5233,5233,5233,5233,5233,5233,5233,5233,5233,5233,5233,5233,5233,5233,5233,5233,5233,5233,5233,5233,5233,5233,
5233,5233,5233,5233,5233,5233,5233,5233,5233,5233,5233,5233,5233,5233,5233,5233,5233,5233,5233,5233,5233,5233,5233,5233,5233,5233,5233,5233,5233,5233,5233,5233,5233,5233,5233,5233,5233,5233,5233,5233,5233,5233,5233,5233,5233,5233,5233,5233,5233,5233,5233,5233,5233,5233,5233,5233,5233,5233,5233,5233,5233,5233,5233,5233,5233,5233,
5233,5233,5233,5233,5233,5233,5233,5233,5233,5233,5233,5233,5233,5233,5233,5233,5233,5233,5233,5233,5233,5233,5233,5233,5233,5233,5233,5233,5233,5233,5233,5233,5233,5233,5233,5233,5233,5233,5233,5233,5233,5233,5233,5233,5233,5233,5233,5233,5233,5233,5233,5233,5233,5233,5233,5233,5233,5233,5233,5233,5233,5233,5233,5233,5233,5233,
5233,5233,5233,5233,5233,5233,5233,5233,5233,5233,5233,5233,5233,5233,5233,5233,5233,5233,5233,5233,5233,5233,5233,5233,5233,5233,5233,5233,5233,5233,5233,5233,5233,5233,5233,5233,5233,5233,5233,5233,5233,5233,5233,5233,5233,5233,5233,5233,5233,5233,5233,5233,5233,5233,5233,5233,5233,5233,5233,5233,5233,5233,5233,5233,5233,5233,
5233,5233,5233,5233,5233,5233,5233,5233,5233,5233,5233,5233,5233,5233,5233,5233,5233,5233,5233,5233,5233,5233,5233,5233,5233,5233,5233,5233,5233,5233,5233,5233,5233,5233,5233,5233,5233,5233,5233,5233,5233,5233,5233,5233,5233,5233,5233,5233,5233,5233,5233,5233,5233,5233,5233,5233,5233,5233,5233,5233,5233,5233,5233,5233,5233,5233,
5233,5233,5233,5233,5233,5233,5233,5233,5233,5233,5233,5233,5233,5233,5233,5233,5233,5233,5233,5233,5233,5233,5233,5233,5233,5233,5233,5233,5233,5233,5233,5233,5233,5233,5233,5233,5233,5233,5233,5233,5233,5233,5233,5233,5233,5233,5233,5233,5233,5233,5233,5233,5233,5233,5233,5233,5233,5233,5233,5233,5233,5233,5233,5233,5233,5233,
5233,5233,5233,5233,5233,5233,5233,5233,5233,5233,5233,5233,5233,5233,5233,5233,5233,5233,5233,5233,5233,5233,5233,5233,5233,5233,5233,5233,5233,5233,5233,5233,5233,5233,5233,5233,5233,5233,5233,5233,5233,5233,5233,5233,5233,5233,5233,5233,5233,5233,5233,5233,5233,5233,5233,5233,5233,5233,5233,5233,5233,5233,5233,5233,5233,5233,
5233,5233,5233,5233,5233,5233,5233,5233,5233,5233,5233,5233,5233,5233,5233,5233,5233,5233,5233,5233,5233,5233,5233,5233,5233,5233,5233,5233,5233,5233,5233,5233,5233,5233,5233,5233,5233,5233,5233,5233,5233,5233,5233,5233,5233,5233,5233,5233,5233,5233,5233,5233,5233,5233,5233,5233,5233,5233,5233,5233,5233,5233,5233,5233,5233,5233,
5233,5233,5233,5233,5233,5233,5233,5233,5233,5233,5233,5233,5233,5233,5233,5233,5233,5233,5233,5233,5233,5233,5233,5233,5233,5233,5233,5233,5233,5233,5233,5233,5233,5233,5233,5233,5233,5233,5233,5233,5233,5233,5233,5233,5233,5233,5233,5233,5233,5233,5233,5233,5233,5233,5233,5233,5233,5233,5233,5233,5233,5233,5233,5233,5233,5233,
5233,5233,5233,5233,5233,5233,5233,5233,5233,5233,5233,5233,5233,5233,5233,5233,5233,5233,5233,5233,5233,5233,5233,5233,5233,5233,5233,5233,5233,5233,5233,5233,5233,5233,5233,5233,5233,5233,5233,5233,5233,5233,5233,5233,5233,5233,5233,5233,5233,5233,5233,5233,5233,5233,5233,5233,5233,5233,5233,5233,5233,5233,5233,5233,5233,5233,
5233,5233,5233,5233,5233,5233,5233,5233,5233,5233,5233,5233,5233,5233,5233,5233,5233,5233,5233,5233,5233,5233,5233,5233,5233,5233,5233,5233,5233,5233,5233,5233,5233,5233,5233,5233,5233,5233,5233,5233,5233,5233,5233,5233,5233,5233,5233,5233,5233,5233,5233,5233,5233,5233,5233,5233,5233,5233,5233,5233,5233,5233,5233,5233,5233,5233,
5233,5233,5233,5233,5233,5233,5233,5233,5233,5233,5233,5233,5233,5233,5233,5233,5233,5233,5233,5233,5233,5233,5233,5233,5233,5233,5233,5233,5233,5233,5233,5233,5233,5233,5233,5233,5233,5233,5233,5233,5233,5233,5233,5233,5233,5233,5233,5233,5233,5233,5233,5233,5233,5233,5233,5233,5233,5233,5233,5233,5233,5233,5233,5233,5233,5233,
5233,5233,5233,5233,5233,5233,5233,5233,5233,5233,5233,5233,5233,5233,5233,5233,5233,5233,5233,5233,5233,5233,5233,5233,5233,5233,5233,5233,5233,5233,5233,5233,5233,5233,5233,5233,5233,5233,5233,5233,5233,5233,5233,5233,5233,5233,5233,5233,5233,5233,5233,5233,5233,5233,5233,5233,5233,5233,5233,5233,5233,5233,5233,5233,5233,5233,
5233,5233,5233,5233,5233,5233,5233,5233,5233,5233,5233,5233,5233,5233,5233,5233,5233,5233,5233,5233,5233,5233,5233,5233,5233,5233,5233,5233,5233,5233,5233,5233,5233,5233,5233,5233,5233,5233,5233,5233,5233,5233,5233,5233,5233,5233,5233,5233,5233,5233,5233,5233,5233,5233,5233,5233,5233,5233,5233,5233,5233,5233,5233,5233,5233,5233,
5233,5233,5233,5233,5233,5233,5233,5233,5233,5233,5233,5233,5233,5233,5233,5233,5233,5233,5233,5233,5233,5233,5233,5233,5233,5233,5233,5233,5233,5233,5233,5233,5233,5233,5233,5233,5233,5233,5233,5233,5233,5233,5233,5233,5233,5233,5233,5233,5233,5233,5233,5233,5233,5233,5233,5233,5233,5233,5233,5233,5233,5233,5233,5233,5233,5233,
5233,5233,5233,5233,5233,5233,5233,5233,5233,5233,5233,5233,5233,5233,5233,5233,5233,5233,5233,5233,5233,5233,5233,5233,5233,5233,5233,5233,5233,5233,5233,5233,5233,5233,5233,5233,5233,5233,5233,5233,5233,5233,5233,5233,5233,5233,5233,5233,5233,5233,5233,5233,5233,5233,5233,5233,5233,5233,5233,5233,5233,5233,5233,5233,5233,5233,
5233,5233,5233,5233,5233,5233,5233,5233,5233,5233,5233,5233,5233,5233,5233,5233,5233,5233,5233,5233,5233,5233,5233,5233,5233,5233,5233,5233,5233,5233,5233,5233,5233,5233,5233,5233,5233,5233,5233,5233,5233,5233,5233,5233,5233,5233,5233,5233,5233,5233,5233,5233,5233,5233,5233,5233,5233,5233,5233,5233,5233,5233,5233,5233,5233,5233,
5233,5233,5233,5233,5233,5233,5233,5233,5233,5233,5233,5233,5233,5233,5233,5233,5233,5233,5233,5233,5233,5233,5233,5233,5233,5233,5233,5233,5233,5233,5233,5233,5233,5233,5233,5233,5233,5233,5233,5233,5233,5233,5233,5233,5233,5233,5233,5233,5233,5233,5233,5233,5233,5233,5233,5233,5233,5233,5233,5233,5233,5233,5233,5233,5233,5233,
5233,5233,5233,5233,5233,5233,5233,5233,5233,5233,5233,5233,5233,5233,5233,5233,5233,5233,5233,5233,5233,5233,5233,5233,5233,5233,5233,5233,5233,5233,5233,5233,5233,5233,5233,5233,5233,5233,5233,5233,5233,5233,5233,5233,5233,5233,5233,5233,5233,5233,5233,5233,5233,5233,5233,5233,5233,5233,5233,5233,5233,5233,5233,5233,5233,5233,
5233,5233,5233,5233,5233,5233,5233,5233,5233,5233,5233,5233,5233,5233,5233,5233,5233,5233,5233,5233,5233,5233,5233,5233,5233,5233,5233,5233,5233,5233,5233,5233,5233,5233,5233,5233,5233,5233,5233,5233,5233,5233,5233,5233,5233,5233,5233,5233,5233,5233,5233,5233,5233,5233,5233,5233,5233,5233,5233,5233,5233,5233,5233,5233,5233,5233,
5233,5233,5233,5233,5233,5233,5233,5233,5233,5233,5233,5233,5233,5233,5233,5233,5233,5233,5233,5233,5233,5233,5233,5233,5233,5233,5233,5233,5233,5233,5233,5233,5233,5233,5233,5233,5233,5233,5233,5233,5233,5233,5233,5233,5233,5233,5233,5233,5233,5233,5233,5233,5233,5233,5233,5233,5233,5233,5233,5233,5233,5233,5233,5233,5233,5233,
5233,5233,5233,5233,5233,5233,5233,5233,5233,5233,5233,5233,5233,5233,5233,5233,5233,5233,5233,5233,5233,5233,5233,5233,5233,5233,5233,5233,5233,5233,5233,5233,5233,5233,5233,5233,5233,5233,5233,5233,5233,5233,5233,5233,5233,5233,5233,5233,5233,5233,5233,5233,5233,5233,5233,5233,5233,5233,5233,5233,5233,5233,5233,5233,5233,5233,
5233,5233,5233,5233,5233,5233,5233,5233,5233,5233,5233,5233,5233,5233,5233,5233,5233,5233,5233,5233,5233,5233,5233,5233,5233,5233,5233,5233,5233,5233,5233,5233,5233,5233,5233,5233,5233,5233,5233,5233,5233,5233,5233,5233,5233,5233,5233,5233,5233,5233,5233,5233,5233,5233,5233,5233,5233,5233,5233,5233,5233,5233,5233,5233,5233,5233,
5233,5233,5233,5233,5233,5233,5233,5233,5233,5233,5233,5233,5233,5233,5233,5233,5233,5233,5233,5233,5233,5233,5233,5233,5233,5233,5233,5233,5233,5233,5233,5233,5233,5233,5233,5233,5233,5233,5233,5233,5233,5233,5233,5233,5233,5233,5233,5233,5233,5233,5233,5233,5233,5233,5233,5233,5233,5233,5233,5233,5233,5233,5233,5233,5233,5233,
5233,5233,5233,5233,5233,5233,5233,5233,5233,5233,5233,5233,5233,5233,5233,5233,5233,5233,5233,5233,5233,5233,5233,5233,5233,5233,5233,5233,5233,5233,5233,5233,5233,5233,5233,5233,5233,5233,5233,5233,5233,5233,5233,5233,5233,5233,5233,5233,5233,5233,5233,5233,5233,5233,5233,5233,5233,5233,5233,5233,5233,5233,5233,5233,5233,5233,
5233,5233,5233,5233,5233,5233,5233,5233,5233,5233,5233,5233,5233,5233,5233,5233,5233,5233,5233,5233,5233,5233,5233,5233,5233,5233,5233,5233,5233,5233,5233,5233,5233,5233,5233,5233,5233,5233,5233,5233,5233,5233,5233,5233,5233,5233,5233,5233,5233,5233,5233,5233,5233,5233,5233,5233,5233,5233,5233,5233,5233,5233,5233,5233,5233,5233,
5233,5233,5233,5233,5233,5233,5233,5233,5233,5233,5233,5233,5233,5233,5233,5233,5233,5233,5233,5233,5233,5233,5233,5233,5233,5233,5233,5233,5233,5233,5233,5233,5233,5233,5233,5233,5233,5233,5233,5233,5233,5233,5233,5233,5233,5233,5233,5233,5233,5233,5233,5233,5233,5233,5233,5233,5233,5233,5233,5233,5233,5233,5233,5233,5233,5233,
5233,5233,5233,5233,5233,5233,5233,5233,5233,5233,5233,5233,5233,5233,5233,5233,5233,5233,5233,5233,5233,5233,5233,5233,5233,5233,5233,5233,5233,5233,5233,5233,5233,5233,5233,5233,5233,5233,5233,5233,5233,5233,5233,5233,5233,5233,5233,5233,5233,5233,5233,5233,5233,5233,5233,5233,5233,5233,5233,5233,5233,5233,5233,5233,5233,5233,
5233,5233,5233,5233,5233,5233,5233,5233,5233,5233,5233,5233,5233,5233,5233,5233,5233,5233,5233,5233,5233,5233,5233,5233,5233,5233,5233,5233,5233,5233,5233,5233,5233,5233,5233,5233,5233,5233,5233,5233,5233,5233,5233,5233,5233,5233,5233,5233,5233,5233,5233,5233,5233,5233,5233,5233,5233,5233,5233,5233,5233,5233,5233,5233,5233,5233,
5233,5233,5233,5233,5233,5233,5233,5233,5233,5233,5233,5233,5233,5233,5233,5233,5233,5233,5233,5233,5233,5233,5233,5233,5233,5233,5233,5233,5233,5233,5233,5233,5233,5233,5233,5233,5233,5233,5233,5233,5233,5233,5233,5233,5233,5233,5233,5233,5233,5233,5233,5233,5233,5233,5233,5233,5233,5233,5233,5233,5233,5233,5233,5233,5233,5233,
5233,5233,5233,5233,5233,5233,5233,5233,5233,5233,5233,5233,5233,5233,5233,5233,5233,5233,5233,5233,5233,5233,5233,5233,5233,5233,5233,5233,5233,5233,5233,5233,5233,5233,5233,5233,5233,5233,5233,5233,5233,5233,5233,5233,5233,5233,5233,5233,5233,5233,5233,5233,5233,5233,5233,5233,5233,5233,5233,5233,5233,5233,5233,5233,5233,5233,
5233,5233,5233,5233,5233,5233,5233,5233,5233,5233,5233,5233,5233,5233,5233,5233,5233,5233,5233,5233,5233,5233,5233,5233,5233,5233,5233,5233,5233,5233,5233,5233,5233,5233,5233,5233,5233,5233,5233,5233,5233,5233,5233,5233,5233,5233,5233,5233,5233,5233,5233,5233,5233,5233,5233,5233,5233,5233,5233,5233,5233,5233,5233,5233,5233,5233
</data>
 </layer>
 <layer id="16" name="Back1" width="66" height="33">
  <data encoding="csv">
5287,5287,5287,5287,5287,5287,5287,5287,5287,5287,5287,5287,5287,5287,5287,5287,5287,5287,5287,5287,5287,5287,5287,5287,5287,5287,5287,5287,5287,5287,5474,5472,5470,5470,5287,5287,5287,5287,5287,5287,5287,5287,5287,5287,5287,5287,5472,5470,5473,5291,5287,5287,5287,5287,5287,5287,5287,5287,5287,5287,5287,5287,5291,5287,5287,5287,
5287,5287,5287,5287,5287,5287,5287,5287,5287,5287,5287,5287,5287,5287,5227,5287,5287,5287,5287,5291,5474,5473,5287,5287,5287,5287,5287,5287,5287,5287,5412,5226,5407,5348,5349,5473,5291,5227,5287,5287,5287,5474,5470,5471,5472,5350,5347,5221,5348,5473,5287,5474,5349,5473,5291,5287,5287,5287,5287,5287,5287,5287,5287,5287,5291,5287,
5287,5287,5287,5287,5287,5287,5287,5287,5287,5287,5287,5291,5287,5291,5287,5287,5287,5291,5287,5474,5350,5348,5473,5474,5473,5227,5287,5287,5287,5227,5287,5288,5223,5283,5221,5348,5473,5287,5287,5291,5287,5288,5223,5224,5408,5409,5410,5226,5221,5286,5227,5412,5225,5413,5473,5287,5287,5287,5287,5287,5287,5287,5287,5287,5287,5287,
5287,5287,5287,5287,5287,5287,5287,5287,5287,5287,5287,5287,5287,5475,5476,5477,5227,5474,5349,5350,5347,5221,5348,5350,5348,5473,5287,5291,5287,5287,5474,5414,5225,5226,5285,5345,5348,5473,5227,5287,5474,5350,5469,5286,5287,5287,5287,5412,5409,5411,5287,5291,5287,5288,5348,5473,5287,5287,5287,5287,5287,5287,5287,5287,5287,5287,
5287,5287,5291,5287,5287,5287,5287,5287,5287,5291,5287,5287,5287,5287,5287,5291,5474,5350,5469,5346,5222,5224,5225,5226,5345,5348,5473,5287,5287,5474,5414,5411,5287,5412,5225,5226,5221,5415,5287,5474,5350,5224,5225,5411,5287,5291,5287,5287,5287,5287,5287,5287,5287,5412,5225,5411,5291,5287,5287,5287,5287,5287,5287,5287,5287,5287,
5287,5287,5287,5287,5287,5287,5287,5227,5287,5287,5287,5287,5287,5287,5287,5474,5350,5347,5221,5407,5224,5411,5291,5412,5226,5347,5348,5349,5470,5350,5286,5287,5287,5287,5291,5288,5347,5348,5349,5351,5225,5411,5474,5473,5227,5287,5287,5287,5287,5287,5287,5287,5287,5287,5287,5227,5287,5287,5287,5287,5287,5287,5287,5287,5287,5287,
5287,5287,5287,5287,5291,5287,5291,5287,5287,5287,5287,5287,5287,5287,5287,5412,5225,5226,5285,5283,5348,5473,5227,5474,2147488937,5221,5222,5221,5407,5221,5348,5473,5287,5227,5287,5412,5221,5221,5469,5348,5470,5227,5288,5348,5473,5287,5287,5474,5473,5287,5287,5287,5287,5287,5287,5287,5287,5287,5291,5287,5287,5287,5287,5287,5287,5287,
5287,5287,5287,5474,5470,5471,5472,5473,5287,5287,5287,5287,5287,5287,5287,5287,5287,5412,5226,5345,5469,5348,5349,5350,5469,5346,5221,5159,5221,5223,5221,5348,5473,5287,5475,5476,5225,5226,5345,5407,5348,5349,5350,5221,5415,5475,5477,2147489063,5411,5287,5287,5287,5287,5287,5291,5287,5287,5287,5287,5287,5287,5287,5287,5287,5287,5287,
5287,5287,5287,5412,5226,5407,5221,5415,5475,5475,5349,5473,5291,5287,5287,5287,5287,5291,5288,5347,5221,5221,5221,5285,5224,5408,5225,5226,5221,5283,5221,5224,5413,5473,5287,5474,5473,5412,5225,5226,5346,5221,5347,5224,5411,5291,5287,5412,5476,5287,5287,5476,5477,5287,5287,5287,5287,5287,5287,5287,5287,5287,5287,5287,5287,5287,
5287,5287,5287,5287,5412,5226,5223,5286,5287,5227,5412,5411,5287,5291,5471,5474,5470,5472,5414,5225,5226,5223,5221,5221,5415,5475,5477,2147489063,5283,5221,5221,5348,5414,5411,5474,5350,5348,5473,5287,5288,5223,5224,5225,5411,5291,5287,5287,5287,5287,5291,5287,5287,5287,5287,5287,5474,5349,5473,5287,5287,5287,5287,5287,5291,5287,5287,
5287,5287,5287,5291,5287,5412,5225,5411,5287,5287,5287,5291,5287,5474,5350,5469,5224,5408,5411,5291,5412,5225,5226,5407,5348,5470,5472,5350,5221,5221,5469,5221,5348,5473,5412,5225,5408,5411,5287,5412,5225,5411,5287,5291,5287,5287,5227,5287,5287,5287,5287,5287,5287,5287,5287,5288,5347,5411,5287,5291,5287,5287,5287,5287,5287,5287,
5287,5287,5287,5287,5287,5287,5287,5287,5287,5287,5287,5287,5227,5288,5222,5221,5411,5287,5287,5227,5287,5287,5288,5221,5345,5469,5221,5224,5225,5226,5221,5347,5221,5348,5473,5227,5287,5287,5287,5291,5474,5473,5475,5476,5477,5287,5287,5291,5477,5287,5287,5227,5287,5287,5287,5412,5407,5286,5287,5287,5287,5287,5287,5287,5287,5287,
5287,5287,5287,5287,5287,5287,5287,5287,5287,5287,5287,5287,5474,5350,5221,5159,5476,5477,5287,5287,5227,5474,5350,5221,5221,5224,5408,5411,5287,5412,5226,5221,5221,5221,5348,5473,5291,5287,5287,5474,5350,5348,5473,5287,5472,5349,5473,5287,5287,5287,5291,5287,5287,5287,5287,5287,5228,5411,5287,5287,5287,5287,5287,5287,5287,5287,
5287,5287,5287,5287,5287,5287,5287,5287,5287,5287,5287,5227,5412,5226,5221,5413,5473,5291,5287,5287,5474,5350,5221,5223,5221,5411,5227,5287,5291,5474,5350,5285,5221,5221,5346,5348,5470,5472,5349,5350,5221,5469,5348,5349,5350,5347,5348,5473,5287,5287,5287,5287,5287,5287,5287,5287,5287,5287,5287,5287,5287,5287,5287,5287,5287,5287,
5287,5287,5287,5287,5287,5287,5287,5287,5287,5291,5287,5287,5474,5350,5407,5223,5348,5473,5470,5472,5350,5285,5469,5346,5221,5470,5287,5227,5287,5288,5221,5222,5283,5345,5221,5159,5221,5221,5222,5407,5221,5283,5345,5221,5224,5226,5469,5348,5470,5291,5287,5475,5476,5477,5291,5227,5287,5287,5287,5287,5287,5287,5291,5287,5287,5287,
5287,5287,5287,5287,5287,5287,5287,5287,5287,5287,5287,5287,5228,5409,5410,5221,5469,5221,5221,5283,5347,5221,5221,5221,5223,5348,5473,5474,5349,5350,5221,5159,5221,5159,5283,5221,5159,5345,5221,5221,5159,5221,5224,5225,5411,5412,5225,5226,5411,5287,5287,5287,5287,5287,5287,5287,5227,5287,5287,5287,5287,5287,5287,5287,5287,5287,
5287,5287,5287,5287,5287,5287,5287,5474,5470,5472,5473,5291,5287,5287,5287,5410,5225,5226,5345,5407,5221,5224,5408,5409,5410,5226,5348,5350,5469,5221,5346,5221,5159,5221,5345,5221,5159,5283,5221,5284,5224,5225,5411,5287,5287,5291,5287,5288,5348,5470,5291,5474,5349,5473,5287,5287,5287,5287,5291,5227,5474,5473,5287,5287,5287,5287,
5287,5287,5287,5287,5287,5287,5474,5350,5223,5469,5415,5287,5287,5287,5227,5287,5287,5412,5226,5221,5225,5411,5287,5227,5287,5412,5226,5223,5221,5221,5221,5159,5221,5159,5221,5283,5221,5159,5223,5221,5348,5473,5287,5227,5287,5287,5474,5350,5283,5283,5348,5351,5225,5411,5291,5287,5287,5287,5287,5475,2147489063,5415,5291,5287,5287,5287,
5287,5287,5287,5287,5287,5287,5412,5225,5408,5410,5411,5287,5287,5287,5291,5476,5477,5287,5288,5289,5473,5227,5287,5287,5287,5291,5412,5225,5226,5407,5221,5221,5283,5221,5159,5221,5345,5221,5221,5347,5221,5348,5473,5291,5287,5287,5288,5469,5224,5225,5226,5348,5473,5287,5287,5287,5287,5287,5287,5474,5351,5411,5287,5287,5287,5287,
5287,5287,5287,5287,5287,5287,5287,5287,5287,5287,5287,5287,5287,5287,5287,5287,5287,5287,5288,5346,5348,5473,5287,5287,5287,5287,5227,5287,5412,5225,5226,5345,5221,5222,5221,5222,5221,5221,5221,5221,5289,5351,5411,5287,5227,5474,5350,5221,5286,5287,5288,5223,5286,5291,5287,5287,5287,5227,5287,5412,5411,5287,5287,5287,5287,5287,
5287,5287,5287,5287,5287,5287,5287,5287,5227,5287,5287,5287,5287,5287,5287,5287,5287,5474,5350,5221,5408,5411,5287,5287,5287,5287,5287,5291,5287,5474,5350,5159,5221,5159,5285,5224,5225,5346,5221,5469,5221,5348,5473,5287,5287,5288,5347,5221,5348,5349,5350,5347,5348,5473,5287,5287,5287,5291,5287,5287,5287,5291,5287,5287,5287,5287,
5287,5287,5287,5287,5287,5287,5287,5291,5287,5287,5287,5287,5287,5287,5287,5475,5477,2147489063,5221,5289,5473,5291,5287,5475,5476,5477,5287,5287,5474,5350,5159,5221,5159,5469,5224,5411,5287,5412,5408,5410,5226,5221,5348,5470,5472,5350,5221,5221,5283,5283,5224,5225,5407,5348,5473,5227,5287,5287,5474,5349,5349,5473,5287,5287,5287,5287,
5287,5287,5287,5287,5287,5287,5287,5287,5474,5349,5473,5291,5287,5287,5291,5287,5287,5412,5226,5221,5348,5473,5287,5287,5287,5474,5473,5474,5350,5221,5221,5159,5159,5221,5286,5291,5227,5287,5474,5473,5412,5226,5222,5407,5221,5221,5224,5408,5409,5410,5411,5287,5412,5225,5411,5291,5287,5291,5288,5469,5222,5286,5287,5287,5287,5287,
5287,5287,5287,5291,5287,5287,5287,5475,2147489063,5222,5348,5473,5287,5287,5287,5287,5291,5474,5350,5469,5221,5348,5473,5474,5473,5288,5348,5350,5469,5221,5159,5221,5222,5221,5348,5473,5287,5474,5350,5348,5473,5288,5469,5221,5284,5223,5286,5291,5287,5287,5287,5287,5287,5287,5287,5287,5287,5287,5412,5226,5224,5411,5291,5287,5287,5287,
5287,5287,5287,5287,5287,5287,5287,5291,5288,5221,5469,5286,5227,5287,5287,5287,5474,5350,5345,5222,5224,5225,5352,5350,5348,5350,5221,5221,5283,5223,5221,5159,5221,5347,5221,5286,5287,5412,5226,5469,5286,5412,5226,5283,5345,5221,5348,5473,5287,5287,5287,5287,5287,5287,5287,5287,5287,5287,5287,5412,5352,5473,5291,5287,5287,5291,
5287,5287,5287,5287,5475,5477,5287,5287,5412,5408,5410,5411,5287,5287,5474,5349,5350,5221,5347,5221,5411,5291,5412,5226,5223,5469,5221,5347,5221,5221,5221,5346,5221,5221,5408,5411,5227,5287,5412,5409,5411,5287,5288,5347,5221,5407,5221,5348,5287,5287,5291,5474,5473,5287,5287,5287,5287,5287,5291,5474,5350,5415,5287,5287,5287,5287,
5287,5287,5287,5287,5287,5291,5287,5287,5287,5287,5287,5227,5287,5287,5412,5226,5469,5221,5345,5289,5473,5227,5474,5414,5225,5226,5224,5225,5226,5221,5284,5345,5221,5408,5287,5291,5474,5473,5287,5287,5471,5472,5351,5225,5226,5283,5224,5408,5474,5470,5349,5350,5286,5287,5287,5287,5287,5287,5475,5350,5289,5287,5291,5287,5287,5287,
5287,5287,5287,5287,5287,5287,5287,5287,5287,5287,5287,5287,5291,5287,5287,5288,5221,5407,5221,5469,5348,5349,5350,5286,5287,5412,5411,5287,5412,5226,5221,5222,5221,5348,5470,5287,5412,5352,5475,5476,5226,5348,5473,5474,5414,5408,5411,5475,2147489063,5469,5347,5469,5348,5473,5287,5291,5227,5287,5287,5223,5224,5477,5287,5287,5287,5287,
5287,5287,5287,5287,5287,5287,5287,5287,5287,5287,5287,5287,5287,5287,5287,5412,5226,5222,5224,5225,5226,5347,5224,5411,5287,5291,5287,5291,5475,2147489063,5469,5221,5159,5221,5224,5413,5473,5228,5287,5287,5412,5226,5348,5350,5286,5287,5287,5287,5412,5226,5221,5222,5221,5415,5476,5477,5287,5287,5287,5159,5411,5287,5287,5287,5287,5287,
5287,5287,5287,5287,5287,5291,5287,5287,5287,5287,5287,5287,5287,5287,5287,5291,5412,5225,5411,5287,5288,5224,5411,5474,5349,5473,5287,5287,5287,5288,5221,5283,5221,5345,5348,5414,5411,5227,5291,5287,5287,5288,5345,5221,5348,5349,5473,5287,5287,5412,5408,5410,5225,5411,5291,5287,5287,5287,5287,5287,5287,5287,5287,5287,5287,5287,
5287,5287,5287,5287,5287,5287,5287,5287,5287,5287,5291,5227,5287,5287,5287,5227,5476,5477,5287,5474,5351,5411,5287,5288,5407,5286,5287,5287,5474,5350,5345,5223,5221,5407,5221,5348,5473,5287,5287,5227,5287,5288,5469,5221,5347,5224,5413,5287,5291,5227,5287,5287,5287,5287,5287,5287,5287,5287,5287,5287,5287,5287,5287,5287,5287,5287,
5287,5287,5287,5291,5287,5287,5287,5287,5287,5287,5287,5287,5287,5287,5287,5287,5287,5287,5291,5288,5286,5474,5473,5412,5225,5411,5287,5227,5288,5347,5407,5221,5284,5221,5469,5221,5348,5472,5473,5287,5476,5225,5408,5409,5226,5348,5414,5476,5477,5287,5287,5287,5287,5287,5287,5287,5287,5287,5291,5287,5287,5287,5287,5291,5287,5287,
5287,5287,5287,5287,5287,5287,5287,5287,5287,5287,5291,5287,5287,5287,5287,5287,5287,5287,5287,5412,5352,5350,5348,5287,5287,5227,5287,5474,5350,5221,5221,5221,5346,5222,5221,5221,5347,5221,5348,5473,5287,5287,5291,5287,5412,5225,5411,5287,5287,5287,5287,5287,5287,5291,5287,5287,5287,5287,5287,5227,5287,5287,5287,5287,5287,5287
</data>
 </layer>
 <layer id="2" name="Buildings" width="66" height="33">
  <data encoding="csv">
5501,0,5310,5311,4583,0,5299,0,0,0,2147488959,2147488958,0,5496,0,0,5492,5493,5300,5301,3160,3160,5492,5493,3160,2147489136,2147489135,3160,5310,5311,3160,5310,5311,2147489136,2147489135,5236,5237,3160,5492,5493,5492,5493,3160,5310,5311,5487,5488,5236,5237,2147488957,2147488956,0,0,0,0,5310,5311,5312,2147488959,2147488958,5432,5496,0,0,5310,5311,
0,0,5236,5237,0,0,0,0,0,0,0,0,0,0,0,5492,5493,5492,5493,0,5310,5311,4583,5299,0,0,5312,0,0,5236,5237,0,0,5367,0,5432,5299,5308,5309,5310,5311,5492,5493,0,0,0,5248,5249,0,0,0,0,0,0,0,0,0,0,0,5236,5237,0,2147488957,2147488956,5509,5492,
5310,5311,0,0,0,5432,0,0,5298,0,5432,0,5496,0,0,0,3160,5298,5494,0,0,5503,0,0,5506,5507,5298,5492,5493,5494,4583,0,0,0,5312,0,0,5494,0,0,5503,0,0,0,0,0,5310,5311,0,0,0,0,0,0,0,4583,5298,0,0,0,5312,0,0,0,0,0,
0,5312,2147488957,2147488956,0,2147489075,2147489074,5512,5492,5493,0,0,0,0,0,0,3160,0,0,5312,0,0,0,0,0,5512,0,0,5310,5311,0,0,0,0,0,0,0,0,0,0,0,0,0,0,0,0,5298,3160,0,0,0,0,5509,0,0,0,0,0,0,0,0,5310,5311,0,0,0,
0,0,0,0,5506,5299,2147489136,2147489135,0,0,5498,0,0,0,0,0,3160,0,5298,0,0,0,5298,0,0,0,0,2147489075,2147489074,0,0,0,0,0,0,2147489080,0,0,5492,5493,0,0,0,0,5512,5308,5309,3160,0,5492,5493,0,0,5491,0,2147488957,2147488956,0,0,0,0,0,0,5367,0,0,
0,0,0,0,0,0,5496,0,5503,0,5491,0,5310,5311,0,5308,5309,5426,5427,0,0,5308,5309,5432,0,0,0,0,2147489136,2147489135,0,0,5494,0,0,0,0,0,0,0,0,5432,0,5312,0,5299,0,5498,0,0,0,5432,0,0,0,0,0,5512,0,5494,0,0,0,0,0,0,
0,0,0,0,0,0,0,0,0,5308,5309,0,0,0,0,0,5487,5488,0,0,0,0,0,0,0,0,0,0,0,0,0,0,0,0,5501,0,0,0,0,0,0,0,0,0,0,5494,5298,3160,0,0,0,0,0,0,0,0,0,0,0,0,5506,0,5426,5427,0,0,
5509,5492,5493,0,0,0,0,0,0,0,0,0,0,0,4583,5299,3160,0,0,0,0,5310,5311,0,0,0,0,0,0,0,0,0,0,0,0,0,0,0,0,0,0,0,0,0,0,0,5236,5237,0,2147488957,2147488956,0,0,0,0,5496,0,0,5498,5299,0,5487,5488,0,0,0,
0,0,0,0,0,0,0,0,0,0,0,0,0,0,0,0,5491,0,0,0,0,0,0,0,0,0,0,0,0,0,0,0,0,5426,5427,0,0,0,0,0,0,0,0,0,0,0,5367,5426,5427,0,0,0,0,0,0,0,5503,0,0,0,0,0,0,0,0,0,
0,0,0,5498,0,0,0,0,0,0,0,0,0,5501,0,0,3160,5298,0,0,0,0,0,0,0,0,0,0,0,0,0,0,5487,5488,0,0,0,0,0,0,0,0,0,0,5236,5237,5487,5488,0,0,0,0,0,5300,5301,0,0,0,0,0,5501,0,5496,0,0,0,
5432,0,0,0,5312,0,0,0,5509,0,0,0,0,0,0,0,3160,0,5494,0,0,0,0,0,0,0,0,0,0,0,0,0,0,5492,5493,0,0,5310,5311,5498,0,0,0,0,5506,5298,5248,5249,5312,0,0,0,5308,5309,0,0,0,0,0,0,0,5312,5494,0,5299,0,
0,0,5501,5426,5427,0,0,0,0,5310,5311,0,0,0,0,0,3160,5312,0,0,5500,5501,0,0,0,0,0,0,0,0,0,0,0,0,0,0,5509,0,0,0,0,5312,0,0,0,5432,5310,5311,0,0,5506,0,0,0,0,0,0,2147488957,2147488956,0,0,0,0,0,0,4583,
5310,5311,5487,5488,0,0,0,5506,0,0,2147488957,2147488956,0,0,0,0,3160,0,5300,5301,0,0,0,0,0,0,0,0,5503,0,0,0,0,0,0,5496,0,2147489142,5308,5309,0,0,5492,5493,0,0,0,5503,0,0,0,0,0,0,0,0,0,0,0,0,0,0,0,0,0,0,
0,0,0,0,0,0,0,0,0,5496,0,0,5512,0,0,0,5496,2147488957,2147488956,5492,5493,0,0,0,0,0,0,5498,0,0,0,0,0,0,0,0,0,0,0,0,0,0,0,0,0,0,0,3160,5308,5309,0,5496,5494,0,5512,0,0,0,0,0,0,0,5310,5311,0,0,
5501,0,0,0,0,0,0,0,0,0,0,0,0,0,0,0,3160,5299,5432,0,0,0,0,0,0,0,5432,0,0,0,0,0,0,0,0,0,0,0,0,0,0,0,0,0,0,0,0,5426,5427,0,0,0,0,0,0,5432,0,0,0,0,0,0,0,0,5494,0,
0,0,0,0,0,0,0,0,0,0,0,0,0,0,0,0,2147489075,2147489074,0,0,0,0,0,0,0,0,0,0,0,5312,0,0,0,0,0,0,0,0,0,0,0,0,0,0,0,0,5487,5488,0,0,0,0,0,0,0,0,0,0,0,0,0,5509,0,5432,0,5498,
5491,0,0,5299,5503,0,0,0,0,0,0,0,0,0,0,0,3160,2147489136,2147489135,0,0,0,0,5512,0,0,0,0,0,0,0,0,0,0,0,0,0,0,0,0,0,2147489075,2147489074,0,0,0,5312,3160,0,0,0,0,0,0,0,0,0,0,0,0,0,0,0,0,0,0,
5298,0,0,0,0,0,0,0,0,0,0,0,0,0,0,0,3160,5299,0,0,0,0,2147489142,0,0,0,0,0,0,0,0,0,0,0,0,0,0,0,0,0,0,0,2147489136,2147489135,5506,0,0,5308,5309,0,0,0,0,0,0,2147489075,2147489074,0,0,0,0,0,0,0,0,5492,
0,0,5512,0,0,0,0,0,0,0,0,0,0,0,0,0,5308,5309,0,0,0,0,0,5310,5311,5236,5237,2147488957,2147488956,0,0,0,0,0,0,0,0,0,0,0,0,0,0,0,0,5494,0,3160,5236,5237,0,0,5310,5311,0,0,2147489136,2147489135,5512,0,0,0,0,0,5299,0,
0,5299,0,5308,5309,0,0,0,0,0,5312,0,0,5299,5509,0,2147488893,2147488892,5506,0,0,0,0,5312,0,0,0,0,0,0,0,0,0,0,0,0,0,0,0,0,0,0,5496,0,0,0,0,3160,5299,5512,0,0,0,0,0,0,0,0,0,0,0,0,0,0,0,5312,
5311,0,0,0,0,0,0,0,0,0,0,0,0,0,0,0,3160,5312,0,0,5308,5309,0,0,0,0,5501,0,0,0,0,0,0,0,0,0,0,0,0,0,0,0,0,5432,0,0,0,5248,5249,0,0,0,0,0,5494,5492,5493,0,0,0,0,0,0,0,0,0,
0,0,0,0,0,0,0,0,0,0,0,0,5506,5310,5311,0,5298,0,0,0,0,0,5503,0,0,0,0,2147489080,0,0,0,0,0,0,0,0,0,0,0,5298,0,0,0,0,5492,5493,0,5310,5311,5426,5427,0,0,0,0,0,0,5367,0,0,0,0,0,0,0,5496,
5432,0,0,0,5492,5493,0,0,0,0,0,0,0,0,0,5492,5493,0,0,0,0,0,0,5494,0,5498,0,0,0,0,0,0,0,0,0,0,0,5308,5309,0,0,0,0,0,0,0,0,3160,5487,5488,5489,0,0,0,0,0,5312,0,0,0,0,0,0,5506,0,0,
0,0,5506,0,5494,5300,5301,0,0,0,0,0,0,0,5498,2147489075,2147489074,2147489073,0,0,0,0,0,0,0,0,0,0,0,0,0,0,0,0,0,0,5512,0,0,0,0,0,0,0,0,0,0,3160,5238,5239,5432,0,0,0,0,0,0,0,0,0,0,0,0,0,0,2147489149,
0,0,0,0,0,0,2147488957,2147488956,0,0,0,0,2147488957,2147488956,0,2147489137,2147489136,2147489135,0,0,0,0,0,0,0,0,5312,0,0,0,0,0,0,0,0,0,0,0,0,0,0,0,0,0,0,0,0,5506,5300,5301,0,0,0,5509,0,0,5308,5309,0,0,0,0,0,2147488957,2147488956,0,
0,0,0,0,0,0,0,0,0,0,0,0,0,0,5236,5237,3160,0,0,0,5312,0,0,0,0,0,0,0,0,0,0,0,0,0,5426,5427,0,0,0,0,5506,0,0,0,0,0,0,3160,0,5312,0,0,0,0,0,0,0,0,0,0,0,0,0,5501,5503,0,
0,0,0,5432,0,5426,5427,0,0,0,0,0,0,0,5298,0,2147489075,2147489074,0,0,0,0,5496,0,0,0,0,0,0,0,0,0,0,5487,5488,5236,5237,0,0,5312,0,0,0,0,0,0,0,5308,5309,0,0,0,0,0,5498,0,0,0,0,0,0,0,0,0,0,5310,
0,0,0,0,5487,5488,0,0,0,0,0,0,0,0,0,0,3160,2147489136,2147489135,0,0,0,0,0,0,0,0,0,0,0,0,0,0,0,0,5503,0,0,0,0,0,0,5496,0,0,0,5236,5237,0,0,0,0,0,5501,0,0,0,0,5474,2147488937,5407,0,0,0,5236,5237,
0,0,0,0,0,0,5509,5310,5311,0,0,0,0,0,0,5300,5301,0,0,0,0,0,0,5298,5492,5493,0,0,0,0,0,0,0,0,0,0,5310,5311,0,0,0,0,0,0,0,2147489142,5298,3160,0,0,0,0,0,0,0,0,0,0,5288,5224,0,0,0,0,0,5491,
0,0,0,0,0,0,0,0,0,5492,5493,0,5501,0,0,5308,5309,0,0,0,0,0,0,0,0,0,5509,0,5432,0,0,0,0,0,0,0,0,0,0,5501,0,0,0,0,0,0,0,5491,5299,0,0,0,0,0,0,0,0,0,5412,5411,0,0,5298,2147488957,2147488956,0,
5298,0,0,0,0,0,2147488957,2147488956,0,5298,2147488957,2147488956,0,5496,0,0,3160,0,5491,0,0,0,0,0,0,0,0,5494,0,0,0,0,0,0,0,0,0,2147489080,0,0,5492,5493,0,0,0,0,0,0,5298,0,0,0,0,2147488957,2147488956,0,0,5512,0,0,5426,5427,5492,5493,0,0,
0,4583,5236,5237,5506,0,0,5367,0,0,0,0,5432,0,0,0,3160,5432,0,0,0,5310,5311,0,0,0,0,0,0,0,0,0,0,0,0,0,0,0,0,0,0,0,0,0,0,0,0,3160,5494,0,0,0,5503,0,0,5310,5311,0,0,5487,5488,0,0,0,5498,0,
0,0,0,0,5298,0,0,0,5512,0,0,0,0,0,0,0,5298,3160,3160,3160,3160,3160,3160,3160,3160,3160,3160,5425,5426,5427,3160,3160,3160,3160,3160,3160,3160,3160,3160,3160,3160,3160,2147489076,2147489075,2147489074,2147489073,3160,5299,0,0,0,0,0,0,5312,0,0,5494,0,5496,0,0,0,0,0,5509
</data>
 </layer>
 <layer id="13" name="Buildings1" width="66" height="33">
  <data encoding="csv">
0,0,0,0,0,0,0,0,0,0,0,0,0,0,0,0,0,0,0,0,0,0,0,0,0,0,0,0,0,0,0,0,0,0,0,0,0,0,0,0,0,0,0,0,0,0,0,0,0,0,5255,5256,0,0,0,0,0,0,0,0,0,0,0,0,0,0,
0,0,0,0,0,0,0,0,0,0,2147488902,2147488901,0,0,0,0,0,0,0,0,0,0,0,0,0,0,0,0,0,5255,5256,0,0,0,0,0,0,0,0,0,0,0,0,0,0,0,0,0,0,0,0,0,0,0,0,0,0,0,0,0,0,0,0,0,0,0,
0,0,0,0,0,0,0,0,0,0,0,0,0,0,0,0,0,0,0,0,0,0,0,5241,5242,2147488904,2147488903,0,0,0,0,0,0,0,0,2147488893,2147488892,0,0,0,0,0,0,0,0,0,0,0,0,0,0,0,0,0,0,0,0,0,0,0,0,0,2147488904,2147488903,0,0,
0,0,0,0,2147489076,0,0,0,0,0,0,5253,5254,0,0,0,0,0,0,0,0,0,5302,5303,5304,0,0,0,0,0,0,0,0,0,0,0,5253,5254,0,0,2147488904,2147488903,0,0,0,0,0,0,0,0,0,0,0,0,0,2147488893,2147488892,0,0,0,0,0,0,0,5253,5254,
0,0,2147488890,2147488889,0,2147489137,0,0,0,0,0,0,0,0,0,0,5247,5253,5254,0,0,0,0,0,0,0,2147489076,0,0,0,2147488902,2147488901,0,0,5241,5242,0,0,0,0,0,0,0,0,0,0,0,0,0,0,0,0,0,0,0,0,0,0,0,0,2147488904,2147488903,0,0,0,0,
0,0,2147488952,2147488951,2147488950,0,0,0,0,0,0,0,0,0,0,0,0,0,0,5428,2147488889,0,0,0,0,0,2147489138,2147489137,0,0,2147488904,2147488903,0,5302,5303,5304,0,0,0,2147488890,2147488889,0,0,0,0,0,0,0,5253,5254,0,0,0,5241,5255,5256,0,0,0,0,0,2147488902,2147488901,0,0,0,
0,0,0,0,0,0,0,0,0,0,0,0,0,5244,5245,0,0,0,5489,2147488952,2147488951,2147488950,0,2147488893,2147488892,2147488904,2147488903,0,0,0,0,0,2147488893,2147488892,0,0,2147488904,2147488903,0,2147488952,2147488951,2147488950,0,0,0,0,0,0,5244,5245,0,0,5302,5303,5304,0,0,0,0,0,0,0,0,0,5428,0,
0,0,0,0,0,0,0,0,0,0,0,0,0,0,0,0,5244,5245,0,0,0,0,0,0,0,0,0,0,0,0,0,0,0,0,5365,0,0,0,0,0,0,0,0,0,0,0,0,0,0,0,0,0,0,0,0,0,5253,5254,0,0,5244,5245,0,5489,0,0,
0,0,0,0,0,0,0,0,0,0,0,0,0,5255,5256,0,0,5255,5256,0,0,0,0,0,0,0,5253,5254,0,0,0,0,0,0,0,5428,0,0,0,0,0,0,0,0,0,0,0,0,0,5428,0,0,0,0,0,0,0,0,5253,5254,5255,5256,0,0,0,0,
0,0,0,0,0,0,0,0,0,0,0,0,0,5241,0,0,0,0,0,0,0,0,5255,5256,0,0,0,0,0,0,0,0,0,0,5489,5490,0,0,0,0,0,0,0,0,0,0,0,0,5489,0,0,0,0,0,0,0,0,2147488890,2147488889,0,0,0,0,0,0,0,
0,0,0,0,0,0,0,0,0,0,0,0,5302,5303,5304,0,0,0,0,0,0,0,0,0,2147488893,2147488892,2147488889,0,0,0,0,0,0,0,0,0,0,0,0,0,0,0,0,0,0,0,0,0,0,0,0,0,0,0,0,0,0,2147488952,2147488951,2147488950,0,0,0,0,0,0,
0,0,0,0,0,5428,0,0,0,0,0,0,5253,5254,0,0,0,0,0,0,0,0,0,0,0,2147488952,2147488951,2147488950,0,0,0,0,0,0,0,0,0,0,0,0,0,0,0,0,0,0,5255,5256,0,0,0,0,0,0,0,0,0,0,0,5253,5254,0,0,0,0,0,
0,0,0,0,5489,5253,5254,0,5255,5256,0,0,0,0,0,0,0,0,0,0,0,0,0,0,0,0,0,0,0,0,2147488902,2147488901,0,0,0,0,5241,5242,0,0,0,0,0,0,2147488904,2147488903,0,0,0,0,0,0,5255,5256,0,0,0,0,2147488902,2147488901,0,0,0,0,2147488904,2147488903,
0,0,0,0,0,0,2147488890,2147488889,0,0,0,0,0,0,0,0,0,0,2147488904,2147488903,0,0,0,0,0,0,2147488890,2147488889,2147488893,2147488892,0,0,0,0,0,5302,5303,5304,0,0,0,0,0,0,0,0,0,0,0,0,0,0,0,0,0,5253,5254,0,0,5255,5256,2147488890,2147488889,0,0,0,
0,0,0,0,0,0,2147488952,2147488951,2147488950,0,0,0,0,0,0,0,0,0,0,0,0,0,0,0,0,0,2147488952,2147488951,2147488950,0,0,0,0,0,0,0,0,0,0,0,0,0,0,0,0,0,0,0,0,5428,0,0,0,0,0,0,0,0,0,0,0,2147488952,2147488951,2147488950,0,0,
0,0,0,0,0,0,0,0,0,0,0,0,0,0,0,2147489076,0,0,0,5255,5256,0,0,0,0,0,0,0,0,0,0,0,0,0,0,0,0,0,0,0,0,0,5255,5256,0,0,0,0,5489,0,0,0,0,0,0,0,0,0,0,0,0,0,0,0,0,0,
0,0,0,0,0,2147488904,2147488903,0,0,0,0,0,2147488902,2147488901,0,0,2147489137,0,0,0,0,0,0,0,0,0,0,0,0,0,0,0,0,0,0,0,0,0,0,0,2147489076,0,0,0,0,0,0,0,0,0,0,0,0,0,0,0,0,0,0,0,0,0,0,0,0,0,
0,0,0,5255,5256,0,5241,5242,0,0,0,0,5241,5242,0,0,0,0,0,0,0,0,5241,5242,0,0,0,0,0,0,0,0,0,0,0,0,0,0,0,0,2147489138,2147489137,0,0,0,0,0,0,0,0,0,0,0,0,2147489076,0,0,0,0,0,0,0,0,0,0,0,
5254,0,0,0,0,5302,5303,5304,0,0,0,5302,5303,5304,0,0,0,0,0,0,0,5302,5303,5304,0,0,0,0,0,0,0,0,0,0,0,0,0,0,0,5253,5254,0,5244,5245,0,0,0,0,0,0,0,0,2147488890,2147488889,0,2147489137,0,0,0,0,0,0,0,0,0,0,
0,0,0,0,0,0,0,0,0,0,0,0,0,0,0,0,0,0,0,0,0,0,0,0,2147488902,2147488901,5244,5245,0,0,0,0,0,0,0,0,0,0,0,0,0,0,0,0,0,0,5255,5256,0,0,0,0,2147488952,2147488951,2147488950,0,5244,5245,0,5241,5242,0,0,0,0,0,
0,0,0,0,5253,5254,0,0,0,0,5253,5254,0,0,0,0,0,0,2147488904,2147488903,0,0,0,0,0,0,0,0,2147488904,2147488903,0,0,0,0,0,0,0,0,0,0,0,5241,5242,0,0,0,0,0,0,0,0,0,0,0,0,0,0,0,5302,5303,5304,0,0,0,0,0,
5253,5254,0,0,0,0,0,0,0,0,0,0,0,0,0,0,0,0,5241,5242,0,0,0,0,0,0,0,0,0,0,0,0,0,0,0,0,0,0,0,0,5302,5303,5304,0,0,0,0,0,0,0,0,5428,0,0,0,0,0,0,2147488902,2147488901,0,0,0,0,0,0,
0,0,0,0,0,0,0,0,0,0,0,5255,5256,0,0,0,0,5302,5303,5304,0,5244,5245,0,0,0,0,2147488902,2147488901,0,0,0,0,0,5255,5256,0,0,0,0,0,0,0,0,0,5255,5256,0,0,0,2147488904,2147488903,0,0,0,0,0,0,0,0,0,0,0,0,0,0,
0,0,0,0,0,0,0,0,0,0,0,0,0,0,2147489076,0,0,0,0,0,0,0,0,0,0,0,0,0,0,0,0,0,0,0,0,0,0,0,0,0,0,0,0,0,0,0,0,0,0,0,0,0,0,0,2147488902,2147488901,0,0,0,0,0,0,0,2147488893,2147488892,0,
0,0,0,2147488902,2147488901,0,0,0,0,0,0,0,0,2147488904,2147488903,0,0,0,0,0,0,0,0,0,0,0,0,0,0,0,0,0,0,0,0,0,0,0,0,0,0,2147488904,2147488903,0,0,0,0,0,0,0,0,0,0,0,0,0,0,0,0,0,0,0,0,0,0,0,
0,0,0,0,0,0,0,0,0,0,0,0,2147488902,2147488901,0,0,0,0,0,0,0,0,0,0,0,0,0,0,5241,5242,0,0,5255,5256,0,0,5428,0,0,2147488890,2147488889,0,0,0,0,0,0,0,0,0,0,0,0,0,0,0,2147488904,2147488903,0,0,0,0,0,0,0,0,
0,0,0,0,0,0,0,5428,0,0,0,0,2147488890,2147488889,0,2147489076,0,0,0,0,2147488904,2147488903,0,0,0,0,0,5302,5303,5304,0,0,0,0,0,5489,5490,0,0,2147488952,2147488951,2147488950,0,0,0,0,5255,5256,0,0,0,0,0,0,0,0,0,0,0,0,0,0,5255,5256,0,0,
0,0,0,0,0,0,5489,0,0,0,0,0,2147488952,2147488951,2147488950,0,2147489137,0,0,0,0,0,0,0,5255,5256,0,0,0,0,0,0,0,0,0,0,0,0,0,0,0,0,0,5244,5245,0,0,0,0,0,0,0,0,0,0,0,0,0,0,2147488890,2147488889,0,0,0,0,0,
0,0,0,0,0,0,0,0,0,0,0,5253,5254,0,0,0,5247,0,0,0,5255,5256,0,0,0,0,0,0,0,0,0,0,0,2147488904,2147488903,0,0,0,0,0,0,0,0,0,0,0,0,0,0,0,0,0,0,0,0,0,0,0,0,2147488952,2147488951,2147488950,0,0,0,0,
0,0,0,0,0,2147488904,2147488903,0,0,0,0,0,0,2147488902,2147488901,0,0,0,0,2147488902,2147488901,0,0,0,0,0,0,0,0,0,0,0,0,0,0,0,0,0,0,0,0,0,5253,5254,0,2147488890,2147488889,0,0,0,0,0,0,0,0,0,5253,5254,0,0,0,0,0,0,0,0,
0,0,2147488902,2147488901,0,0,0,0,0,0,0,0,0,0,0,0,0,0,0,0,0,0,0,0,0,2147488890,2147488889,0,0,0,0,0,0,0,0,0,0,0,0,0,0,0,0,0,0,2147488952,2147488951,2147488950,0,0,0,0,0,0,0,0,0,0,0,0,0,0,5428,0,0,0,
0,0,0,0,0,0,0,0,0,2147488890,2147488889,0,0,0,2147488904,2147488903,0,0,2147488893,2147488892,0,0,0,0,0,2147488952,2147488951,2147488950,0,0,0,0,0,0,0,0,0,0,2147488893,2147488892,0,0,0,0,0,0,0,0,0,0,0,0,0,2147488893,2147488892,0,0,2147488904,2147488903,0,0,5489,5253,5254,0,0,
0,0,0,0,0,0,5253,5254,0,2147488952,2147488951,2147488950,0,0,0,0,0,0,0,0,0,0,0,0,0,0,0,5425,0,0,5428,0,0,0,0,0,0,0,0,0,0,0,0,0,0,0,0,0,0,0,0,0,5255,5256,0,0,0,0,0,0,0,0,0,0,0,0
</data>
 </layer>
 <layer id="22" name="Buildings2" width="66" height="33">
  <data encoding="csv">
0,0,0,0,0,0,0,0,0,0,0,0,0,0,0,0,0,0,0,0,0,0,0,0,0,0,0,0,0,0,0,0,0,0,0,0,0,0,0,0,0,0,0,0,0,0,0,0,0,0,0,0,0,0,0,0,0,0,0,0,0,0,0,0,0,0,
0,0,0,0,0,0,0,0,0,0,0,0,0,0,0,0,0,0,0,0,0,0,0,0,0,0,0,0,0,0,0,0,0,0,0,0,0,0,0,0,0,0,0,0,0,0,0,0,0,0,0,0,0,0,0,0,0,0,0,0,0,0,0,0,0,0,
0,0,0,0,0,0,0,0,0,0,0,0,0,0,0,0,2147488892,0,0,0,0,0,0,0,0,0,0,0,0,0,0,0,0,0,0,2147488889,0,0,0,0,0,5244,5245,0,0,0,0,0,0,0,0,0,0,0,0,0,0,0,0,0,0,0,0,5244,5245,0,
0,0,0,0,0,0,0,0,0,0,0,0,0,0,0,0,5244,5245,0,0,0,0,0,0,0,0,2147488904,2147488903,0,0,0,0,0,0,2147488952,2147488951,2147488950,0,0,0,0,0,0,2147488893,2147488892,0,0,0,0,0,0,0,0,0,0,0,0,0,0,0,0,0,0,0,0,0,
0,0,0,0,0,0,0,0,0,0,0,0,0,0,0,0,0,0,0,0,0,0,0,0,5253,5254,0,0,0,0,0,0,0,0,0,0,0,0,0,0,0,0,0,0,0,0,0,0,0,0,0,0,0,0,0,0,0,0,0,0,0,0,0,0,0,0,
0,0,0,0,0,0,0,0,0,0,0,0,0,0,0,0,0,0,0,0,0,0,0,0,0,0,0,0,0,0,0,0,0,0,0,0,0,0,0,0,0,0,0,0,0,0,0,0,0,0,0,0,0,5244,5245,0,0,0,0,0,0,0,0,0,0,0,
0,0,0,0,0,2147488893,2147488892,0,0,0,0,0,2147488902,2147488901,0,0,0,0,0,0,0,0,0,0,0,0,0,0,0,0,0,5241,0,0,0,0,0,0,0,0,0,0,0,5255,5256,0,0,0,0,0,0,0,0,0,0,0,0,0,0,0,0,0,0,0,0,0,
0,0,0,0,0,0,0,0,0,0,0,0,0,0,0,0,0,0,0,0,0,0,0,0,0,0,0,0,0,0,5302,5303,5304,0,0,0,0,0,0,0,0,0,0,0,0,0,0,0,0,0,0,0,0,0,0,0,0,0,0,0,0,0,0,0,0,0,
0,5253,5254,0,0,0,0,0,0,0,0,0,0,0,0,0,0,0,0,0,0,0,0,0,0,0,0,0,0,0,0,0,0,0,0,0,0,0,0,0,0,0,0,0,0,0,0,0,0,0,0,0,0,0,2147488904,2147488903,0,0,0,0,0,0,0,0,0,0,
0,5255,5256,0,0,0,0,0,0,0,0,0,0,0,0,0,0,0,0,0,0,0,0,0,0,0,0,0,0,0,0,0,0,0,2147488902,2147488901,0,0,0,0,0,0,0,0,0,0,0,0,0,0,0,5255,5256,0,0,0,0,0,0,0,0,0,0,0,0,0,
0,0,2147488902,2147488901,0,0,0,0,0,0,0,0,0,0,0,0,0,0,0,0,0,0,0,0,0,0,0,0,0,0,0,0,0,0,0,0,0,0,0,0,0,0,0,0,0,0,0,0,0,0,0,0,0,0,0,0,0,0,0,0,0,0,0,0,0,0,
0,0,0,0,0,0,0,0,0,0,0,0,0,0,0,0,0,0,0,0,0,0,0,0,0,0,0,0,0,0,0,0,0,0,2147488902,2147488901,0,0,0,0,0,0,0,0,0,0,0,0,0,0,0,0,0,0,0,0,0,0,0,0,0,0,0,0,0,0,
0,0,0,0,0,0,0,0,0,0,0,0,0,0,0,0,0,0,0,0,2147488902,2147488901,0,0,0,0,5253,5254,0,0,0,0,0,0,0,0,0,0,0,0,2147488904,2147488903,0,0,0,0,0,0,0,0,0,0,0,0,0,0,0,0,0,0,0,0,0,0,5244,5245,
0,0,0,0,0,0,2147488893,2147488892,0,0,0,0,0,0,0,0,0,0,0,0,0,0,0,0,0,0,0,0,0,0,0,0,0,0,0,0,0,0,0,0,0,0,0,0,0,0,2147488902,2147488901,0,0,0,0,0,0,0,0,0,0,0,0,0,0,0,0,0,0,
0,0,0,0,0,0,0,0,0,0,0,0,0,0,0,0,0,0,0,5253,5254,0,0,0,0,0,0,0,0,0,0,0,0,0,0,0,0,0,0,0,0,0,0,0,0,0,0,0,0,0,0,0,0,0,0,0,0,0,0,0,0,0,0,0,0,0,
0,0,0,0,0,0,0,0,0,0,0,0,0,0,0,0,0,0,0,0,0,0,0,0,0,0,0,5255,5256,0,0,0,0,0,0,0,0,0,0,0,0,0,0,0,0,0,0,0,0,0,0,2147488902,2147488901,0,0,0,0,0,0,0,0,0,0,0,0,0,
0,0,0,0,0,0,0,0,0,0,0,0,0,0,0,0,0,0,0,0,0,0,0,0,0,0,0,0,0,0,0,0,0,0,0,0,0,0,0,0,0,0,0,0,0,0,0,0,0,0,0,0,0,0,2147488893,2147488892,0,0,0,0,0,0,0,0,0,0,
0,0,0,0,5244,5245,0,0,0,0,0,0,0,0,0,0,0,0,0,0,0,0,0,0,0,0,0,0,0,0,0,0,0,0,0,0,0,0,0,0,0,0,0,0,0,0,0,0,0,0,0,0,0,0,0,0,0,0,0,0,0,0,0,0,5244,5245,
0,0,0,0,0,0,0,0,0,0,0,0,0,0,0,0,0,0,0,0,0,0,0,0,0,0,0,0,0,0,0,0,0,0,0,0,0,0,0,0,0,0,0,0,0,0,0,0,0,0,0,0,0,0,0,0,0,0,0,0,0,0,0,0,0,0,
0,0,0,0,0,0,0,0,0,0,0,0,0,0,0,0,0,0,0,0,0,0,0,0,0,0,0,0,0,0,0,0,0,0,0,0,0,0,0,0,0,0,0,0,0,0,0,0,0,0,0,0,0,0,5253,5254,0,0,0,0,0,0,0,5255,5256,0,
0,0,0,0,0,0,0,0,0,0,0,0,0,0,0,0,0,0,0,0,0,0,5244,5245,0,0,0,0,0,0,0,0,0,0,0,0,0,0,0,0,0,0,0,0,0,2147488893,2147488892,0,0,0,0,0,0,0,0,0,0,0,0,0,0,0,0,0,0,0,
0,0,0,2147488893,2147488892,0,0,0,0,0,0,0,0,0,0,0,0,0,0,0,0,0,0,0,0,2147488893,2147488892,0,0,0,0,0,0,0,0,0,0,0,0,0,0,0,0,0,0,0,0,0,0,0,0,0,0,0,0,0,0,0,0,0,0,0,0,0,0,0,
0,0,0,0,0,0,0,0,0,0,0,0,0,0,0,0,0,0,0,0,0,0,0,0,0,0,0,0,0,0,0,0,0,0,0,0,0,0,0,0,0,0,0,0,0,0,0,0,0,0,0,0,0,0,0,0,0,0,0,0,0,0,0,0,0,0,
0,0,0,0,0,0,0,0,0,0,0,0,2147488893,2147488892,0,0,0,0,0,0,0,0,0,0,5255,5256,0,0,0,0,0,0,0,0,0,0,0,0,0,0,0,0,0,0,0,0,0,0,0,0,0,0,0,0,0,0,0,0,0,0,0,0,0,0,0,0,
0,0,0,0,0,0,0,0,0,0,0,0,0,0,0,0,0,0,0,5255,5256,0,0,0,0,0,0,0,0,0,0,0,0,0,0,0,0,0,0,0,0,0,0,0,0,0,0,0,0,0,0,0,0,0,0,5244,5245,0,0,0,0,0,0,0,0,0,
0,0,0,0,0,0,0,0,0,0,0,0,0,0,0,0,0,0,0,0,0,0,0,0,0,0,0,0,0,0,0,0,0,0,0,0,0,0,0,0,0,0,0,0,0,0,0,0,0,0,0,0,0,0,0,0,0,0,0,0,0,0,0,0,0,0,
0,0,0,0,0,0,0,0,0,0,0,0,0,0,0,0,0,0,0,0,0,0,0,0,0,0,0,0,0,0,0,0,0,0,0,0,0,0,0,0,0,0,0,0,0,0,0,0,0,0,0,0,0,0,0,0,0,0,0,0,0,0,0,0,0,0,
0,0,0,0,0,0,0,0,0,0,0,0,0,0,0,2147488904,2147488903,0,0,0,0,2147488893,2147488892,0,0,0,0,0,0,5244,5245,0,0,0,0,0,0,0,5253,5254,0,0,0,0,0,0,0,0,0,0,0,0,0,0,0,0,0,0,0,0,0,0,0,0,0,0,
0,0,0,0,0,0,0,0,0,0,0,0,0,0,0,0,0,0,0,0,0,0,0,0,0,0,0,0,0,0,0,0,0,0,0,0,0,0,0,2147488902,2147488901,0,0,0,0,0,0,0,0,0,0,0,0,0,0,0,0,0,0,0,0,0,0,0,0,0,
0,0,0,0,0,0,0,0,0,0,0,0,0,0,0,0,0,0,0,0,0,5255,5256,0,0,0,0,0,0,0,0,0,0,0,0,0,0,0,0,0,0,0,0,0,0,0,0,0,0,0,0,0,0,0,0,2147488893,2147488892,0,0,0,0,0,0,0,0,0,
0,0,0,0,0,5244,5245,0,0,0,0,0,0,0,0,0,0,0,0,0,0,0,0,0,0,0,0,0,5253,5254,0,0,0,0,0,2147488902,2147488901,0,0,0,0,0,0,0,0,0,0,0,0,0,0,0,0,0,0,0,0,0,2147488902,2147488901,0,0,0,0,0,0,
0,0,0,0,0,0,0,0,0,0,0,0,0,2147488893,2147488892,0,0,0,0,0,0,0,0,0,0,0,0,0,0,0,0,0,0,0,0,0,0,0,0,0,0,0,0,0,0,0,0,0,0,0,0,0,0,0,0,0,0,0,0,0,0,2147488893,2147488892,0,0,0,
0,0,0,0,0,0,0,0,0,0,0,0,0,0,0,0,0,0,0,0,0,0,0,0,0,0,0,0,0,0,0,0,0,0,0,0,0,0,0,0,0,0,0,0,0,0,0,0,0,0,0,5244,5245,0,0,0,0,0,0,0,0,0,0,0,0,0
</data>
 </layer>
 <layer id="25" name="Buildings3" width="66" height="33">
  <data encoding="csv">
0,0,0,0,0,0,0,0,0,0,0,0,0,0,0,0,0,0,0,0,0,0,0,0,0,0,0,0,0,0,0,0,0,0,0,0,0,0,0,0,0,0,0,0,0,0,0,0,0,0,0,0,0,0,0,0,0,0,0,0,0,0,0,0,0,0,
0,0,0,0,0,0,0,0,0,0,0,0,0,0,0,0,0,0,0,0,0,0,0,0,0,0,0,0,0,0,0,0,0,0,0,0,0,0,0,0,0,0,0,0,0,0,0,0,0,0,0,0,0,0,0,0,0,0,0,0,0,0,0,0,0,0,
0,0,0,0,0,0,0,0,0,0,0,0,0,0,0,0,0,0,0,0,0,0,0,0,0,0,0,0,0,0,0,0,0,0,0,0,0,0,0,0,0,0,0,0,0,0,0,0,0,0,0,0,0,0,0,0,0,0,0,0,0,0,0,0,0,0,
0,0,0,0,0,0,0,0,0,0,0,0,0,0,0,0,0,0,0,0,0,0,0,0,0,0,0,0,0,0,0,0,0,0,0,0,0,0,0,0,0,0,0,0,0,0,0,0,0,0,0,0,0,0,0,0,0,0,0,0,0,0,0,0,0,0,
0,0,0,0,0,0,0,0,0,0,0,0,0,0,0,0,0,0,0,0,0,0,0,0,0,0,0,0,0,0,0,0,0,0,0,0,0,0,0,0,0,0,0,0,0,0,0,0,0,0,0,0,0,0,0,0,0,0,0,0,0,0,0,0,0,0,
0,0,0,0,0,0,0,0,0,0,0,0,0,0,0,0,0,0,0,0,0,0,0,0,0,0,0,0,0,0,0,0,0,0,0,0,0,0,0,0,0,0,0,0,0,0,0,0,0,0,0,0,0,0,0,0,0,0,0,0,0,0,0,0,0,0,
0,0,0,0,0,0,0,0,0,0,0,0,0,0,0,0,0,0,0,0,0,0,0,0,0,0,0,0,0,0,0,0,0,0,0,0,0,0,0,0,0,0,0,0,0,0,0,0,0,0,0,0,0,0,0,0,0,0,0,0,0,0,0,0,0,0,
0,0,0,0,0,0,0,0,0,0,0,0,0,0,0,0,0,0,0,0,0,0,0,0,0,0,0,0,0,0,0,0,0,0,0,0,0,0,0,0,0,0,0,0,0,0,0,0,0,0,0,0,0,0,0,0,0,0,0,0,0,0,0,0,0,0,
0,0,0,0,0,0,0,0,0,0,0,0,0,0,0,0,0,0,0,0,0,0,0,0,0,0,0,0,0,0,0,0,0,0,0,0,0,0,0,0,0,0,0,0,0,0,0,0,0,0,0,0,0,0,0,0,0,0,0,0,0,0,0,0,0,0,
0,0,0,0,0,0,0,0,0,0,0,0,0,0,0,0,0,0,0,0,0,0,0,0,0,0,0,0,0,0,0,0,0,0,0,0,0,0,0,0,0,0,0,0,0,0,0,0,0,0,0,0,0,0,0,0,0,0,0,0,0,0,0,0,0,0,
0,0,0,0,0,0,0,0,0,0,0,0,0,0,0,0,0,0,0,0,0,0,0,0,0,0,0,0,0,0,0,0,0,0,0,0,0,0,0,0,0,0,0,0,0,0,0,0,0,0,0,0,0,0,0,0,0,0,0,0,0,0,0,0,0,0,
0,0,0,0,0,0,0,0,0,0,0,0,0,0,0,0,0,0,0,0,0,0,0,0,0,0,0,0,0,0,0,0,0,0,0,0,0,0,0,0,0,0,0,0,0,0,0,0,0,0,0,0,0,0,0,0,0,0,0,0,0,0,0,0,0,0,
0,0,0,0,0,0,0,0,0,0,0,0,0,0,0,0,0,0,0,0,0,0,0,0,0,0,0,0,0,0,0,0,0,0,0,0,0,0,0,0,0,0,0,0,0,0,0,0,0,0,0,0,0,0,0,0,0,0,0,0,0,0,0,0,0,0,
0,0,0,0,0,0,0,0,0,0,0,0,0,0,0,0,0,0,0,0,0,0,0,0,0,0,0,0,0,0,0,0,0,0,0,0,0,0,0,0,0,0,0,0,0,0,0,0,0,0,0,0,0,0,0,0,0,0,0,0,0,0,0,0,0,0,
0,0,0,0,0,0,0,0,0,0,0,0,0,0,0,0,0,0,0,0,0,0,0,0,0,0,0,0,0,0,0,0,0,0,0,0,0,0,0,0,0,0,0,0,0,0,0,0,0,0,0,0,0,0,0,0,0,0,0,0,0,0,0,0,0,0,
0,0,0,0,0,0,0,0,0,0,0,0,0,0,0,0,0,0,0,0,0,0,0,0,0,0,0,0,0,0,0,0,0,0,0,0,0,0,0,0,0,0,0,0,0,0,0,0,0,0,0,0,0,0,0,0,0,0,0,0,0,0,0,0,0,0,
0,0,0,0,0,0,0,0,0,0,0,0,0,0,0,0,0,0,0,0,0,0,0,0,0,0,0,0,0,0,0,0,0,0,0,0,0,0,0,0,0,0,0,0,0,0,0,0,0,0,0,0,0,0,0,0,0,0,0,0,0,0,0,0,0,0,
0,0,0,0,0,0,0,0,0,0,0,0,0,0,0,0,0,0,0,0,0,0,0,0,0,0,0,0,0,0,0,0,0,0,0,0,0,0,0,0,0,0,0,0,0,0,0,0,0,0,0,0,0,0,0,0,0,0,0,0,0,0,0,0,0,0,
0,0,0,0,0,0,0,0,0,0,0,0,0,0,0,0,0,0,0,0,0,0,0,0,0,0,0,0,0,0,0,0,0,0,0,0,0,0,0,0,0,0,0,0,0,0,0,0,0,0,0,0,0,0,0,0,0,0,0,0,0,0,0,0,0,0,
0,0,0,0,0,0,0,0,0,0,0,0,0,0,0,0,0,0,0,0,0,0,0,0,0,0,0,0,0,0,0,0,0,0,0,0,0,0,0,0,0,0,0,0,0,0,0,0,0,0,0,0,0,0,0,0,0,0,0,0,0,0,0,0,0,0,
0,0,0,0,0,0,0,0,0,0,0,0,0,0,0,0,0,0,0,0,0,0,0,0,0,0,0,0,0,0,0,0,0,0,0,0,0,0,0,0,0,0,0,0,0,0,0,0,0,0,0,0,0,0,0,0,0,0,0,0,0,0,0,0,0,0,
0,0,0,0,0,0,0,0,0,0,0,0,0,0,0,0,0,0,0,0,0,0,0,0,0,0,0,0,0,0,0,0,0,0,0,0,0,0,0,0,0,0,0,0,0,0,0,0,0,0,0,0,0,0,0,0,0,0,0,0,0,0,0,0,0,0,
0,0,0,0,0,0,0,0,0,0,0,0,0,0,0,0,0,0,0,0,0,0,0,0,0,0,0,0,0,0,0,0,0,0,0,0,0,0,0,0,0,0,0,0,0,0,0,0,0,0,0,0,0,0,0,0,0,0,0,0,0,0,0,0,0,0,
0,0,0,0,0,0,0,0,0,0,0,0,0,0,0,0,0,0,0,0,0,0,0,0,0,0,0,0,0,0,0,0,0,0,0,0,0,0,0,0,0,0,0,0,0,0,0,0,0,0,0,0,0,0,0,0,0,0,0,0,0,0,0,0,0,0,
0,0,0,0,0,0,0,0,0,0,0,0,0,0,0,0,0,0,0,0,0,0,0,0,0,0,0,0,0,0,0,0,0,0,0,0,0,0,0,0,0,0,0,0,0,0,0,0,0,0,0,0,0,0,0,0,0,0,0,0,0,0,0,0,0,0,
0,0,0,0,0,0,0,0,0,0,0,0,0,0,0,0,0,0,0,0,0,0,0,0,0,0,0,0,0,0,0,0,0,0,0,0,0,0,0,0,0,0,0,0,0,0,0,0,0,0,0,0,0,0,0,0,0,0,0,0,0,0,0,0,0,0,
0,0,0,0,0,0,0,0,0,0,0,0,0,0,0,0,0,0,0,0,0,0,0,0,0,0,0,0,0,0,0,0,0,0,0,0,0,0,0,0,0,0,0,0,0,0,0,0,0,0,0,0,0,0,0,0,0,0,0,0,0,0,0,0,0,0,
0,0,0,0,0,0,0,0,0,0,0,0,0,0,0,0,0,0,0,0,0,0,0,0,0,0,0,0,0,0,0,0,0,0,0,0,0,0,0,0,0,0,0,0,0,0,0,0,0,0,0,0,0,0,0,0,0,0,0,0,0,0,0,0,0,0,
0,0,0,0,0,0,0,0,0,0,0,0,0,0,0,0,0,0,0,0,0,0,0,0,0,0,0,0,0,0,0,0,0,0,0,0,0,0,0,0,0,0,0,0,0,0,0,0,0,0,0,0,0,0,0,0,0,0,0,0,0,0,0,0,0,0,
0,0,0,0,0,0,0,0,0,0,0,0,0,0,0,0,0,0,0,0,0,0,0,0,0,0,0,0,0,0,0,0,0,0,0,0,0,0,0,0,0,0,0,0,0,0,0,0,0,0,0,0,0,0,0,0,0,0,0,0,0,0,0,0,0,0,
0,0,0,0,0,0,0,0,0,0,0,0,0,0,0,0,0,0,0,0,0,0,0,0,0,0,0,0,0,0,0,0,0,0,0,0,0,0,0,0,0,0,0,0,0,0,0,0,0,0,0,0,0,0,0,0,0,0,0,0,0,0,0,0,0,0,
0,0,0,0,0,0,0,0,0,0,0,0,0,0,0,0,0,0,0,0,0,0,0,0,0,0,0,0,0,0,0,0,0,0,0,0,0,0,0,0,0,0,0,0,0,0,0,0,0,0,0,0,0,0,0,0,0,0,0,0,0,0,0,0,0,0,
0,0,0,0,0,0,0,0,0,0,0,0,0,0,0,0,0,0,0,0,0,0,0,0,0,0,0,0,0,0,0,0,0,0,0,0,0,0,0,0,0,0,0,0,0,0,0,0,0,0,0,0,0,0,0,0,0,0,0,0,0,0,0,0,0,0
</data>
 </layer>
 <layer id="24" name="Buildings4" width="66" height="33">
  <data encoding="csv">
0,0,0,0,0,0,0,0,0,0,0,0,0,0,0,0,0,0,0,0,0,0,0,0,0,0,0,0,0,0,0,0,0,0,0,0,0,0,0,0,0,0,0,0,0,0,0,0,0,0,0,0,0,0,0,0,0,0,0,0,0,0,0,0,0,0,
0,0,0,0,0,0,0,0,0,0,0,0,0,0,0,0,0,0,0,0,0,0,0,0,0,0,0,0,0,0,0,0,0,0,0,0,0,0,0,0,0,0,0,0,0,0,0,0,0,0,0,0,0,0,0,0,0,0,0,0,0,0,0,0,0,0,
0,0,0,0,0,0,0,0,0,0,0,0,0,0,0,0,0,0,0,0,0,0,0,0,0,0,0,0,0,0,0,0,0,0,0,0,0,0,0,0,0,0,0,0,0,0,0,0,0,0,0,0,0,0,0,0,0,0,0,0,0,0,0,0,0,0,
0,0,0,0,0,0,0,0,0,0,0,0,0,0,0,0,0,0,0,0,0,0,0,0,0,0,0,0,0,0,0,0,0,0,0,0,0,0,0,0,0,0,0,0,0,0,0,0,0,0,0,0,0,0,0,0,0,0,0,0,0,0,0,0,0,0,
0,0,0,0,0,0,0,0,0,0,0,0,0,0,0,0,0,0,0,0,0,0,0,0,0,0,0,0,0,0,0,0,0,0,0,0,0,0,0,0,0,0,0,0,0,0,0,0,0,0,0,0,0,0,0,0,0,0,0,0,0,0,0,0,0,0,
0,0,0,0,0,0,0,0,0,0,0,0,0,0,0,0,0,0,0,0,0,0,0,0,0,0,0,0,0,0,0,0,0,0,0,0,0,0,0,0,0,0,0,0,0,0,0,0,0,0,0,0,0,0,0,0,0,0,0,0,0,0,0,0,0,0,
0,0,0,0,0,0,0,0,0,0,0,0,0,0,0,0,0,0,0,0,0,0,0,0,0,0,0,0,0,0,0,0,0,0,0,0,0,0,0,0,0,0,0,0,0,0,0,0,0,0,0,0,0,0,0,0,0,0,0,0,0,0,0,0,0,0,
0,0,0,0,0,0,0,0,0,0,0,0,0,0,4583,0,0,0,0,0,0,0,0,0,0,0,0,0,0,0,0,0,0,0,0,0,0,0,0,0,0,0,0,0,0,0,0,0,0,0,0,0,0,0,0,0,0,0,0,0,0,0,0,0,0,0,
0,0,0,0,0,0,0,0,0,0,0,0,0,0,0,0,0,0,0,0,0,0,0,0,0,0,0,0,0,0,0,0,0,0,0,0,0,0,0,0,0,0,0,0,0,0,0,0,0,0,0,0,0,0,0,0,0,0,0,0,0,0,0,0,0,0,
0,0,0,0,0,0,0,0,0,0,0,0,0,0,0,0,0,0,0,0,0,0,0,0,0,0,0,0,0,0,0,0,0,0,0,0,0,0,0,0,0,0,0,0,0,0,0,0,0,0,0,0,0,0,0,0,0,0,0,0,0,0,0,0,0,0,
0,0,0,0,0,0,0,0,0,0,0,0,0,0,0,0,0,0,0,0,0,0,0,0,0,0,0,0,0,0,0,0,0,0,0,0,0,0,0,0,0,0,0,0,0,0,0,0,0,0,0,0,0,0,0,0,0,0,0,0,0,0,0,0,0,0,
0,0,0,0,0,0,0,0,0,0,0,0,0,0,0,0,0,0,0,0,0,0,0,0,0,0,0,0,0,0,0,0,0,0,0,0,0,0,0,0,0,0,0,0,0,0,0,0,0,0,0,0,0,0,0,0,0,0,0,0,0,0,0,0,0,0,
0,0,0,0,0,0,0,0,0,0,0,0,0,0,0,0,0,0,0,0,0,0,0,0,0,0,0,0,0,0,0,0,0,0,0,0,0,0,0,0,0,0,0,0,0,0,0,0,0,0,0,0,0,0,0,0,0,0,0,0,0,0,0,0,0,0,
0,0,0,0,0,0,0,0,0,0,0,0,0,0,0,0,0,0,0,0,0,0,0,0,0,0,0,0,0,0,0,0,0,0,0,0,0,0,0,0,0,0,0,0,0,0,0,0,0,0,0,0,0,0,0,0,0,0,0,0,0,0,0,0,0,0,
0,0,0,0,0,0,0,0,0,0,0,0,0,0,0,0,0,0,0,0,0,0,0,0,0,0,0,0,0,0,0,0,0,0,0,0,0,0,0,0,0,0,0,0,0,0,0,0,0,0,0,0,0,0,0,0,0,0,0,0,0,0,0,0,0,0,
0,0,0,0,0,0,0,0,0,0,0,0,0,0,0,0,0,0,0,0,0,0,0,0,0,0,0,0,0,0,0,0,0,0,0,0,0,0,0,0,0,0,0,0,0,0,0,0,0,0,0,0,0,0,0,0,0,0,0,0,0,0,0,0,0,0,
0,0,0,0,0,0,0,0,0,0,0,0,0,0,0,0,0,0,0,0,0,0,0,0,0,0,0,0,0,0,0,0,0,0,0,0,0,0,0,0,0,0,0,0,0,0,0,0,0,0,0,0,0,0,0,0,0,0,0,0,0,0,0,0,0,0,
0,0,0,0,0,0,0,0,0,0,0,0,0,0,0,0,0,0,0,0,0,0,0,0,0,0,0,0,0,0,0,0,0,0,0,0,0,0,0,0,0,0,0,0,0,0,0,0,0,0,0,0,0,0,0,0,0,0,0,0,0,0,0,0,0,0,
0,0,0,0,0,0,0,0,0,0,0,0,0,0,0,0,0,0,0,0,0,0,0,0,0,0,0,0,0,0,0,0,0,0,0,0,0,0,0,0,0,0,0,0,0,0,0,0,0,0,0,0,0,0,0,0,0,0,0,0,0,0,0,0,0,0,
0,0,0,0,0,0,0,0,0,0,0,0,0,0,0,0,0,0,0,0,0,0,0,0,0,0,0,0,0,0,0,0,0,0,0,0,0,0,0,0,0,0,0,0,0,0,0,0,0,0,0,0,0,0,0,0,0,0,0,0,0,0,0,0,0,0,
0,0,0,0,0,0,0,0,0,0,0,0,0,0,0,0,0,0,0,0,0,0,0,0,0,0,0,0,0,0,0,0,0,0,0,0,0,0,0,0,0,0,0,0,0,0,0,0,0,0,0,0,0,0,0,0,0,0,0,0,0,0,0,0,0,0,
0,0,0,0,0,0,0,0,0,0,0,0,0,0,0,0,0,0,0,0,0,0,0,0,0,0,0,0,0,0,0,0,0,0,0,0,0,0,0,0,0,0,0,0,0,0,0,0,0,0,0,0,0,0,0,0,0,0,0,0,0,0,0,0,0,0,
0,0,0,0,0,0,0,0,0,0,0,0,0,0,0,0,0,0,0,0,0,0,0,0,0,0,0,0,0,0,0,0,0,0,0,0,0,0,0,0,0,0,0,0,0,0,0,0,0,0,0,0,0,0,0,0,0,0,0,0,0,0,0,0,0,0,
0,0,0,0,0,0,0,0,0,0,0,0,0,0,0,0,0,0,0,0,0,0,0,0,0,0,0,0,0,0,0,0,0,0,0,0,0,0,0,0,0,0,0,0,0,0,0,0,0,0,0,0,0,0,0,0,0,0,0,0,0,0,0,0,0,0,
0,0,0,0,0,0,0,0,0,0,0,0,0,0,0,0,0,0,0,0,0,0,0,0,0,0,0,0,0,0,0,0,0,0,0,0,0,0,0,0,0,0,0,0,0,0,0,0,0,0,0,0,0,0,0,0,0,0,0,0,0,0,0,0,0,0,
0,0,0,0,0,0,0,0,0,0,0,0,0,0,0,0,0,0,0,0,0,0,0,0,0,0,0,0,0,0,0,0,0,0,0,0,0,0,0,0,0,0,0,0,0,0,0,0,0,0,0,0,0,0,0,0,0,0,0,0,0,0,0,0,0,0,
0,0,0,0,0,0,0,0,0,0,0,0,0,0,0,0,0,0,0,0,0,0,0,0,0,0,0,0,0,0,0,0,0,0,0,0,0,0,0,0,0,0,0,0,0,0,0,0,0,0,0,0,0,0,0,0,0,0,0,0,0,0,0,0,0,0,
0,0,0,0,0,0,0,0,0,0,0,0,0,0,0,0,0,0,0,0,0,0,0,0,0,0,0,0,0,0,0,0,0,0,0,0,0,0,0,0,0,0,0,0,0,0,0,0,0,0,0,0,0,0,0,0,0,0,0,0,0,0,0,0,0,0,
0,0,0,0,0,0,0,0,0,0,0,0,0,0,0,0,0,0,0,0,0,0,0,0,0,0,0,0,0,0,0,0,0,0,0,0,0,0,0,0,0,0,0,0,0,0,0,0,0,0,0,0,0,0,0,0,0,0,0,0,0,0,0,0,0,0,
0,0,0,0,0,0,0,0,0,0,0,0,0,0,0,0,0,0,0,0,0,0,0,0,0,0,0,0,0,0,0,0,0,0,0,0,0,0,0,0,0,0,0,0,0,0,0,0,0,0,0,0,0,0,0,0,0,0,0,0,0,0,0,0,0,0,
0,0,0,0,0,0,0,0,0,0,0,0,0,0,0,0,0,0,0,0,0,0,0,0,0,0,0,0,0,0,0,0,0,0,0,0,0,0,0,0,0,0,0,0,0,0,0,0,0,0,0,0,0,0,0,0,0,0,0,0,0,0,0,0,0,0,
0,0,0,0,0,0,0,0,0,0,0,0,0,0,0,0,0,0,0,0,0,0,0,0,0,0,0,0,0,0,0,0,0,0,0,0,0,0,0,0,0,0,0,0,0,0,0,0,0,0,0,0,0,0,0,0,0,0,0,0,0,0,0,0,0,0,
0,0,0,0,0,0,0,0,0,0,0,0,0,0,0,0,0,0,0,0,0,0,0,0,0,0,0,0,0,0,0,0,0,0,0,0,0,0,0,0,0,0,0,0,0,0,0,0,0,0,0,0,0,0,0,0,0,0,0,0,0,0,0,0,0,0
</data>
 </layer>
 <layer id="3" name="Front" width="66" height="33">
  <data encoding="csv">
0,0,0,0,0,0,0,0,0,0,0,0,0,0,0,5430,5431,5430,5431,0,5248,5249,0,0,0,0,0,0,0,0,0,0,0,5305,0,5370,0,5246,5247,5248,5249,5430,5431,0,0,0,0,0,0,0,0,0,0,0,0,0,0,0,0,0,0,0,2147488895,2147488894,5447,5448,
5248,5249,0,0,0,5370,0,0,0,0,5370,0,0,0,0,0,0,0,0,0,0,0,0,5443,5444,5445,0,5430,5431,0,0,0,0,0,5250,0,0,0,0,0,0,0,0,0,0,0,5248,5249,0,0,0,0,0,0,0,0,0,0,0,0,5250,0,0,0,0,0,
0,5250,2147488895,2147488894,0,2147489013,0,0,0,0,0,0,0,0,0,0,0,0,0,5250,0,0,0,0,0,0,0,0,5248,5249,0,0,0,0,0,0,0,0,0,0,0,0,0,0,0,0,0,0,0,0,0,0,5447,5448,0,0,0,0,0,0,0,5248,5249,0,0,0,
0,0,0,5443,5444,5445,0,0,0,5435,5436,0,0,0,0,0,0,0,0,0,0,0,0,0,0,0,0,2147489013,0,0,0,0,0,0,0,2147489018,0,0,0,0,0,0,0,0,0,5246,5247,0,0,0,0,0,0,5429,0,2147488895,2147488894,0,0,0,0,0,0,5305,0,0,
0,0,0,0,0,0,0,5440,5441,5442,5429,0,5248,5249,0,5246,0,0,5365,0,0,5246,5247,5370,0,0,0,0,0,2147489073,0,0,0,0,0,0,0,0,0,0,0,5370,0,5250,0,0,0,0,0,0,0,5370,0,0,0,0,0,0,0,0,0,0,0,0,0,0,
0,0,0,0,0,0,0,0,0,5246,5247,0,0,0,0,0,5425,0,0,0,0,0,0,0,0,0,0,0,0,0,0,0,0,0,0,0,0,0,0,0,0,0,0,0,0,0,0,0,0,0,0,0,0,0,0,0,0,0,0,5443,5444,5445,0,5365,0,0,
5447,5448,0,0,0,0,0,0,0,0,0,0,0,0,0,0,0,0,0,0,0,5248,5249,0,0,0,0,0,0,0,0,0,0,0,0,0,0,0,0,0,0,0,0,0,0,0,0,0,0,2147488895,2147488894,0,0,0,5433,5434,0,5435,5436,0,0,0,0,0,0,0,
0,0,0,0,0,0,0,0,0,0,0,0,0,0,0,0,5429,0,0,0,0,0,0,0,0,0,0,0,0,0,0,0,0,0,0,0,0,0,0,0,0,0,0,0,0,0,5305,0,5365,0,0,0,0,0,0,5440,5441,5442,0,0,0,0,0,0,0,0,
0,0,5435,5436,0,0,0,0,0,0,0,0,0,0,0,0,0,0,0,0,0,0,0,0,0,0,0,0,0,0,0,0,5425,0,0,0,0,0,0,0,0,0,0,0,0,0,5425,0,0,0,0,0,0,5238,5239,0,0,0,0,0,0,0,0,0,0,0,
5370,0,0,0,5250,0,0,0,5447,5448,0,0,0,0,0,0,0,0,0,0,0,0,0,0,0,0,0,0,0,0,0,0,0,0,0,0,0,5248,5249,0,0,0,0,0,0,0,0,0,5250,0,0,0,5246,5247,0,0,0,0,0,0,0,5250,0,0,0,0,
0,0,0,0,5365,0,0,0,0,5248,5249,0,0,0,0,0,0,5250,0,0,0,0,0,0,0,0,0,0,0,0,0,0,0,0,0,0,0,0,0,0,0,5250,0,0,0,5370,5248,5249,0,5443,5444,5445,0,0,0,0,0,2147488895,2147488894,0,0,0,0,0,0,0,
5248,5249,0,0,0,0,5443,5444,5445,0,2147488895,2147488894,0,0,0,0,0,0,5238,5239,0,0,0,0,0,0,0,0,0,0,0,0,0,0,0,0,0,0,5246,5247,0,0,0,0,0,0,0,0,0,0,0,0,0,0,0,0,0,0,0,0,0,0,0,0,0,0,
0,0,0,0,0,0,0,0,0,0,0,0,5450,5451,0,0,0,2147488895,2147488894,0,0,0,0,0,0,0,0,0,0,0,0,0,0,0,0,0,0,0,0,0,0,0,0,0,0,0,0,0,5246,5247,0,0,0,0,5450,5451,0,0,0,0,0,0,5248,5249,0,0,
0,0,0,0,0,0,0,0,0,0,0,0,0,0,0,0,0,0,5370,0,0,0,0,0,0,0,5370,0,0,0,0,0,0,0,0,0,0,0,0,0,0,0,0,0,0,0,0,0,5365,0,0,0,0,0,0,5370,0,0,0,0,0,0,0,0,0,0,
0,0,0,0,0,0,0,0,0,0,0,0,0,0,0,0,2147489013,0,0,0,0,0,0,0,0,0,0,0,0,5250,0,0,0,0,0,0,0,0,0,0,0,0,0,0,0,0,5425,0,0,0,0,0,0,0,0,0,0,0,0,0,0,5447,5448,5370,5435,5436,
5429,0,0,5440,5441,5442,0,0,0,0,0,0,0,0,0,0,0,0,0,0,0,0,0,0,0,0,0,0,0,0,0,0,0,0,0,0,0,0,0,0,0,2147489013,0,0,0,0,5250,0,0,0,0,0,0,0,0,0,0,0,0,0,0,0,0,0,0,0,
0,0,0,0,0,0,0,0,0,0,0,0,0,0,0,0,0,0,0,0,0,0,0,0,0,0,0,0,0,0,0,0,0,0,0,0,0,0,0,0,0,0,0,2147489073,0,0,0,5246,5247,0,0,0,0,0,0,2147489013,0,0,0,0,0,0,0,0,0,0,
0,0,0,0,0,0,0,0,0,0,0,0,0,0,0,0,5246,5247,0,0,0,0,0,5248,5249,0,0,2147488895,2147488894,0,0,0,0,0,0,0,0,0,0,0,0,0,0,0,0,0,0,0,0,0,0,0,5248,5249,0,0,0,0,5450,5451,0,0,0,0,0,0,
0,0,0,5246,5247,0,0,0,0,0,5250,0,0,0,5447,5448,0,0,0,0,0,0,0,5250,0,0,0,0,0,0,0,0,0,0,0,0,0,0,0,0,0,0,0,0,0,0,0,0,0,0,0,0,0,0,0,0,0,0,0,0,0,0,0,0,0,5250,
5249,0,0,0,0,0,0,0,0,0,0,0,0,0,0,0,0,5250,0,0,5246,5247,0,0,0,0,0,0,0,0,0,0,0,0,0,0,0,0,0,0,0,0,0,5370,0,0,0,0,0,0,0,0,0,0,0,0,0,0,0,0,0,0,0,0,0,0,
0,0,0,0,0,0,0,0,0,0,0,5443,5444,5445,0,0,0,0,0,0,0,0,0,0,0,0,0,2147489018,0,0,0,0,0,0,0,0,0,0,0,0,0,0,0,0,0,0,0,5248,5249,0,5365,0,0,0,0,0,0,5305,0,0,0,0,0,0,0,0,
5370,0,0,0,0,0,0,0,0,0,0,0,0,0,0,0,0,0,0,0,0,0,0,0,0,0,0,0,0,0,0,0,0,0,0,0,0,5246,5247,0,0,0,0,0,0,0,0,0,0,0,0,0,0,0,0,0,5250,0,0,0,0,0,5443,5444,5445,0,
0,5443,5444,5445,0,5238,5239,0,0,0,0,0,0,5435,5436,2147489013,0,0,0,0,0,0,0,0,0,0,0,0,0,0,0,0,0,0,0,0,0,0,0,0,0,0,0,0,0,0,0,0,0,0,5370,0,0,0,0,0,0,0,0,0,0,0,0,0,0,0,
0,0,0,0,0,0,2147488895,2147488894,0,0,0,0,2147488895,2147488894,0,0,0,0,0,0,0,0,0,0,0,0,5250,0,0,0,0,0,0,0,0,0,0,0,0,0,0,0,0,0,0,0,0,0,5445,0,0,0,0,5447,5448,0,5246,5247,0,0,0,0,0,2147488895,2147488894,0,
0,0,0,0,0,0,0,0,0,0,0,0,0,0,0,0,0,0,0,0,5250,0,0,0,0,0,0,0,0,0,0,0,0,0,0,5365,0,0,0,0,0,0,0,0,0,0,0,0,0,5250,0,0,0,0,0,0,0,0,0,0,0,0,0,5440,5441,5442,
0,0,0,5370,0,0,5365,0,0,0,0,0,0,0,0,0,2147489013,0,0,0,0,0,0,0,0,0,0,0,0,0,0,0,0,5425,5425,0,0,0,0,5250,0,0,0,0,0,0,0,5246,5247,0,0,0,0,5435,5436,0,0,0,0,0,0,0,0,0,0,5248,
0,0,0,0,0,0,0,0,0,0,0,0,0,0,0,0,0,0,2147489073,0,0,0,0,0,0,0,0,0,0,0,0,0,0,0,0,0,0,0,0,0,0,0,0,0,0,0,0,0,0,0,0,0,0,0,0,0,0,0,0,0,0,0,0,0,0,0,
0,0,0,0,0,0,5447,5448,0,0,0,0,0,0,0,5238,5239,0,0,0,0,0,0,0,0,0,0,0,0,0,0,0,0,0,0,0,5248,5249,0,0,0,0,0,0,0,0,0,0,0,0,0,0,0,0,0,0,0,0,0,0,0,0,0,0,0,5429,
0,0,0,0,0,0,0,0,0,0,0,0,0,0,0,5246,0,0,0,0,0,0,0,0,0,0,0,0,5370,0,0,0,0,0,0,0,0,0,0,0,0,0,0,0,0,0,0,5429,0,0,0,0,0,0,0,0,0,0,0,0,0,0,0,2147488895,2147488894,0,
0,0,0,0,0,0,2147488895,2147488894,0,0,2147488895,2147488894,0,0,0,0,0,0,5429,0,0,0,0,0,0,0,0,0,0,0,0,0,0,0,0,0,0,2147489018,0,0,0,0,0,0,0,0,0,0,0,0,0,0,0,2147488895,2147488894,0,0,0,0,0,0,5365,0,0,0,0,
0,0,0,5443,5444,5445,0,5305,0,0,0,0,5370,0,0,0,0,5370,0,0,0,5248,5249,0,0,0,0,0,0,0,0,0,0,0,0,0,0,0,0,0,0,0,0,0,0,0,0,0,0,0,0,5440,5441,5442,0,5248,5249,0,0,0,0,0,0,5435,5436,0,
0,0,0,0,0,0,0,0,0,0,0,0,0,0,0,0,0,0,0,0,0,0,0,0,0,0,0,0,0,5365,0,0,0,0,0,0,0,0,0,0,0,0,0,2147489013,0,0,0,0,0,0,0,0,0,0,5250,0,0,0,0,0,0,0,0,0,0,5447,
0,5238,5239,2147488895,2147488894,5248,5249,0,0,0,5435,5436,5370,0,0,0,0,0,0,0,0,0,0,0,5246,5247,0,0,0,0,0,0,0,0,0,0,0,5246,5247,5248,5249,0,0,5370,0,0,0,0,0,0,0,0,0,0,0,0,5370,0,5238,5239,5248,5249,5250,0,5305,0
</data>
 </layer>
 <layer id="20" name="Front2" width="66" height="33">
  <data encoding="csv">
0,0,0,0,0,0,0,0,0,0,0,0,0,0,0,0,0,0,0,0,0,4520,4521,4522,0,0,0,0,0,0,0,0,0,0,0,0,0,0,0,0,0,0,0,0,0,0,0,0,0,0,0,0,0,0,0,0,0,0,0,0,0,0,0,0,0,0,
0,0,0,0,0,0,0,0,0,0,0,5433,5434,0,0,0,0,0,0,0,0,5441,5442,5446,0,0,0,0,0,0,0,0,0,0,0,0,0,0,0,0,5441,5442,0,0,0,0,0,0,0,0,0,0,0,0,0,0,0,0,0,0,0,0,0,0,0,0,
0,0,0,0,0,0,0,5450,5451,0,0,0,0,0,0,0,0,0,0,0,0,0,5504,5508,5449,5450,5451,5452,0,0,0,0,0,0,0,0,0,0,0,0,0,5504,0,0,0,0,0,0,0,0,0,0,0,0,0,0,0,0,0,0,0,0,0,0,0,0,
0,0,0,0,0,0,0,0,0,0,0,0,0,0,0,0,0,0,0,0,0,0,0,0,5511,0,5513,5514,0,0,0,0,0,0,0,0,0,0,0,0,0,0,0,5449,5450,5451,0,0,0,0,0,0,0,0,0,0,0,0,0,0,0,0,0,0,0,0,
0,0,0,0,0,5433,5434,0,0,0,0,0,0,0,0,0,0,0,0,0,0,0,0,0,0,0,0,0,0,0,0,0,0,0,0,0,0,0,0,0,0,0,0,5511,0,5513,5435,5436,0,0,0,0,0,0,0,0,0,5450,5451,0,0,0,0,0,0,0,
0,0,0,0,0,0,0,0,0,0,0,0,0,0,0,0,0,0,0,0,0,0,0,0,0,0,0,0,0,0,0,0,0,5438,5439,0,0,0,0,0,0,0,0,0,0,0,5497,0,0,0,0,0,0,0,0,0,0,0,0,0,0,0,0,0,0,0,
0,0,0,0,0,0,0,0,0,0,0,0,0,0,0,0,0,0,0,0,0,0,0,0,0,0,0,0,0,0,0,0,5499,5500,0,0,0,0,0,0,0,0,0,0,0,0,0,0,0,0,0,0,0,0,0,0,0,0,0,0,0,0,0,0,0,0,
0,0,0,0,0,0,0,0,0,0,0,0,0,0,0,0,0,0,0,0,0,0,0,0,0,0,0,0,0,0,0,0,0,0,0,0,0,0,0,0,0,0,0,0,0,0,0,0,0,0,0,0,0,0,0,0,0,0,0,0,0,0,0,0,0,0,
0,0,0,0,0,0,0,0,0,0,0,0,5438,5439,0,0,0,0,0,0,0,0,0,0,0,0,0,0,0,0,0,0,0,0,0,0,0,0,0,0,0,0,0,0,0,0,0,0,0,0,0,0,0,0,0,0,0,0,0,5438,5439,5433,5434,0,0,0,
0,0,0,0,0,0,0,0,0,0,0,0,0,0,0,0,0,0,0,0,0,0,0,0,0,0,0,0,0,0,0,0,0,0,0,0,0,0,5435,5436,0,0,0,5443,5444,5445,0,0,0,0,0,0,0,0,0,0,0,0,0,0,0,0,0,0,0,0,
0,5438,5439,0,0,0,0,0,0,0,0,0,0,0,0,0,0,0,0,5437,5438,5439,0,0,0,0,0,0,0,0,0,0,0,0,0,0,5447,5448,5497,0,0,0,0,5505,0,0,0,0,0,0,0,0,0,0,0,0,0,0,0,0,0,0,0,0,0,0,
0,0,0,0,0,0,0,0,0,0,0,0,0,0,0,0,0,0,0,5499,5500,0,0,0,0,0,0,0,5441,5442,0,0,0,0,5433,5434,0,5510,0,0,0,0,0,0,0,0,5440,5441,5442,0,0,0,0,0,0,0,0,0,0,0,0,0,0,0,0,0,
0,0,0,0,0,0,0,0,5433,5434,0,0,0,0,0,5433,5434,0,0,0,0,0,0,0,0,0,5435,5436,0,5504,0,0,0,0,5495,0,0,0,0,0,0,0,0,0,0,0,5502,0,0,0,5433,5434,0,0,0,0,0,0,0,0,0,0,0,0,0,0,
0,0,0,0,0,0,0,0,0,0,0,0,0,0,0,0,0,0,0,0,0,0,0,0,0,0,0,0,0,0,0,0,0,0,0,0,0,0,0,0,0,0,0,0,0,0,0,0,0,0,0,0,0,0,0,0,0,0,0,0,0,0,0,0,0,0,
0,0,0,0,0,0,0,0,0,0,0,0,0,0,0,0,0,0,0,0,0,0,0,0,0,0,0,0,0,0,0,0,0,0,0,0,0,0,0,0,0,0,0,0,0,0,0,0,0,0,0,0,0,0,0,0,0,0,0,0,0,0,0,0,0,0,
0,0,0,0,0,0,0,0,0,0,0,0,0,0,0,0,0,0,0,0,0,0,5449,5450,5451,5452,0,0,0,0,0,0,0,0,0,0,0,0,0,0,0,0,0,0,0,0,0,0,0,0,0,0,0,0,0,0,0,0,0,0,0,0,0,0,0,0,
0,0,0,0,0,0,0,0,0,0,0,0,0,0,0,0,0,0,0,0,0,0,5511,0,0,0,0,0,0,0,0,0,0,0,0,0,0,0,0,0,0,0,0,5443,5444,5445,0,0,0,0,0,0,0,0,0,0,0,0,0,0,0,0,0,0,0,0,
0,0,5450,5451,0,0,0,0,0,0,0,0,0,0,0,0,0,0,0,0,0,0,0,0,0,0,0,0,0,0,0,0,0,0,0,0,0,0,0,0,0,0,0,5505,0,5507,0,0,0,0,0,0,0,0,0,0,0,0,0,0,0,0,0,0,0,0,
0,0,0,0,0,0,0,0,0,0,0,0,0,0,0,0,0,5443,5444,5445,0,0,0,0,0,0,0,0,0,0,0,0,0,0,0,0,0,0,0,0,0,5433,5434,0,0,0,0,0,0,5450,5451,0,0,0,0,0,0,0,0,0,0,0,0,0,0,0,
0,0,0,0,0,0,0,0,0,0,0,0,0,0,0,0,0,0,0,5507,0,0,0,0,5437,5438,5439,0,0,0,0,0,0,0,0,0,0,0,0,0,0,5495,0,0,0,0,0,0,0,0,0,0,0,0,0,0,0,0,0,0,0,0,0,0,0,0,
0,0,0,0,0,0,0,0,0,0,0,0,0,5248,5249,0,0,0,0,0,0,5440,5441,5442,0,0,0,0,0,0,0,0,0,0,0,0,0,0,0,0,0,0,0,0,0,0,0,0,0,0,0,0,0,0,0,0,0,0,0,0,0,0,0,0,5433,5434,
0,0,0,0,0,0,0,0,0,0,0,0,0,0,0,5430,5431,0,0,0,0,5502,0,5504,5435,5436,0,0,0,0,0,0,0,0,0,0,0,0,0,0,0,0,0,0,0,0,0,0,0,0,0,0,0,0,0,0,0,0,0,0,0,0,0,0,0,0,
0,0,0,0,0,0,0,0,0,0,0,0,0,0,0,0,0,0,0,0,0,0,0,0,5497,0,0,0,0,0,0,0,0,0,0,5449,5450,5451,0,0,0,0,0,0,0,0,0,0,0,0,0,0,0,0,0,0,0,0,0,0,0,0,0,0,0,0,
0,0,0,0,0,0,0,0,0,0,0,0,0,0,0,0,0,0,0,0,0,0,0,0,0,0,0,0,0,0,0,0,0,0,0,5511,0,5513,0,0,0,0,0,0,0,0,5443,5444,0,0,0,0,0,0,0,0,0,0,0,0,0,0,0,0,0,0,
0,0,0,0,0,0,0,0,0,0,0,0,0,0,0,0,0,0,0,0,0,0,0,0,0,0,0,0,0,0,0,0,0,0,0,0,0,0,0,5443,5444,5445,0,0,0,0,5505,0,0,0,0,0,0,0,0,0,0,0,0,0,0,0,5438,5439,0,0,
0,0,0,0,0,0,0,0,0,0,0,0,0,0,0,0,0,0,0,0,0,5433,5434,0,0,0,0,0,0,0,0,0,0,0,0,0,0,0,0,0,0,0,0,0,0,0,0,0,0,0,0,0,0,0,0,0,0,0,0,0,0,0,0,0,0,0,
0,0,0,0,0,0,0,0,0,0,0,0,0,0,0,0,0,0,0,0,0,5495,0,0,0,0,0,0,0,0,0,0,0,0,5440,5441,5442,0,0,0,0,5433,5434,0,0,0,0,0,0,0,0,0,5438,5439,0,0,0,0,0,0,0,0,0,0,0,0,
0,0,0,0,0,0,0,5248,5249,0,0,0,0,0,0,0,0,0,0,0,0,0,0,0,0,0,0,0,0,0,0,0,0,0,5502,0,5504,0,0,0,0,5495,0,0,0,0,0,0,0,0,0,0,0,0,0,0,0,0,0,0,0,0,0,0,0,0,
0,0,0,0,0,0,0,0,0,0,0,5438,5439,0,0,0,0,0,0,0,0,0,0,0,0,0,5447,5448,0,0,0,0,0,0,0,0,0,5437,5438,5439,0,0,0,0,0,0,0,0,0,0,0,0,0,0,0,0,0,0,0,0,0,0,0,0,0,0,
0,0,0,0,0,0,0,0,0,0,0,0,5433,5434,0,0,0,0,0,0,0,0,0,0,0,0,0,5510,0,0,0,0,0,0,0,0,0,0,0,0,0,0,0,0,0,0,0,0,0,0,0,0,0,0,0,0,0,5450,5451,0,0,0,0,0,0,0,
0,0,0,0,0,0,0,0,0,0,0,0,0,0,0,0,0,0,0,0,0,0,0,0,0,0,0,0,0,0,0,0,0,0,0,0,0,0,0,0,0,0,0,0,0,0,0,0,0,0,0,0,0,0,0,0,0,0,0,0,0,0,0,0,0,0,
0,0,0,0,0,0,0,0,5450,5451,0,0,0,0,0,0,0,0,0,0,0,0,0,0,0,0,0,0,0,0,0,0,0,0,0,0,0,0,0,0,0,0,0,0,0,0,0,0,0,0,0,0,0,0,0,0,0,0,5433,5434,0,0,0,0,0,0,
0,0,0,0,0,0,0,0,0,0,0,0,0,0,0,0,0,0,0,0,0,0,0,0,0,0,0,0,0,0,0,0,0,0,0,0,0,0,0,0,0,0,0,0,0,0,0,0,0,0,0,0,0,0,0,0,0,0,0,0,0,0,0,0,0,0
</data>
 </layer>
 <layer id="18" name="Front3" width="66" height="33">
  <data encoding="csv">
0,0,0,0,0,0,0,0,0,0,0,0,0,0,0,0,0,0,0,0,0,0,0,0,0,0,0,0,0,0,0,0,0,0,0,0,0,0,0,0,0,0,0,0,0,0,0,0,0,0,0,0,0,0,0,0,0,0,0,0,0,0,0,0,0,5430,
0,0,0,0,0,0,0,0,0,0,0,0,0,0,0,0,0,0,0,0,0,0,0,0,0,0,0,0,0,0,0,0,0,0,0,0,0,0,0,0,0,0,0,0,0,0,0,0,0,0,0,0,0,0,0,0,0,0,0,0,0,0,0,0,0,0,
0,0,0,0,0,0,0,0,5430,5431,0,0,0,0,0,0,0,0,0,0,0,0,0,0,0,0,0,0,0,0,0,0,0,0,0,0,0,0,0,0,0,0,0,0,0,0,0,0,0,0,0,0,0,0,0,0,0,0,0,0,0,0,0,0,0,0,
0,0,0,0,0,0,0,0,0,0,0,0,0,0,0,0,0,0,0,0,0,0,0,0,0,0,0,0,0,0,0,0,0,0,0,0,0,0,5430,5431,0,0,0,0,0,0,0,0,0,5430,5431,0,0,0,0,0,0,0,0,0,0,0,0,0,0,0,
0,0,0,0,0,0,0,0,0,0,0,0,0,0,0,0,0,0,0,0,0,0,0,0,0,0,0,0,0,0,0,0,0,0,0,0,0,0,0,0,0,0,0,0,0,0,0,0,0,0,0,0,0,0,0,0,0,0,0,0,0,0,0,0,0,0,
0,0,0,0,0,0,0,0,0,0,0,0,0,0,0,0,0,0,0,0,0,0,0,0,0,0,0,0,0,0,0,0,0,0,0,0,0,0,0,0,0,0,0,0,0,0,0,0,0,0,0,0,0,0,0,0,0,0,0,0,0,0,0,0,0,0,
0,5430,5431,0,0,0,0,0,0,0,0,0,0,0,0,0,0,0,0,0,0,0,0,0,0,0,0,0,0,0,0,0,0,0,0,0,0,0,0,0,0,0,0,0,0,0,0,0,0,0,0,0,0,0,0,0,0,0,0,0,0,0,0,0,0,0,
0,0,0,0,0,0,0,0,0,0,0,0,0,0,0,0,0,0,0,0,0,0,0,0,0,0,0,0,0,0,0,0,0,0,0,0,0,0,0,0,0,0,0,0,0,0,0,0,0,0,0,0,0,0,0,0,0,0,0,0,0,0,0,0,0,0,
0,0,0,0,0,0,0,0,0,0,0,0,0,0,0,0,0,0,0,0,0,0,0,0,0,0,0,0,0,0,0,0,0,0,0,0,0,0,0,0,0,0,0,0,0,0,0,0,0,0,0,0,0,0,0,0,0,0,0,0,0,0,0,0,0,0,
0,0,0,0,0,0,0,0,0,0,0,0,0,0,0,0,0,0,0,0,0,0,0,0,0,0,0,0,0,0,0,0,0,5430,5431,0,0,0,0,0,0,0,0,0,0,0,0,0,0,0,0,0,0,0,0,0,0,0,0,0,0,0,0,0,0,0,
0,0,0,0,0,0,0,0,0,0,0,0,0,0,0,0,0,0,0,0,0,0,0,0,0,0,0,0,0,0,0,0,0,0,0,0,0,0,0,0,0,0,0,0,0,0,0,0,0,0,0,0,0,0,0,0,0,0,0,0,0,0,0,0,0,0,
0,0,0,0,0,0,0,0,0,0,0,0,0,0,0,0,0,0,0,0,0,0,0,0,0,0,0,0,0,0,0,0,0,0,0,0,0,0,0,0,0,0,5430,5431,0,0,0,0,0,0,0,0,0,0,0,0,0,0,0,0,0,0,0,0,0,0,
0,0,0,0,0,0,0,0,0,0,0,0,0,0,0,0,0,0,0,5430,5431,0,0,0,0,0,0,0,0,0,0,0,0,0,0,0,0,0,0,0,0,0,0,0,0,0,0,0,0,0,0,0,0,0,0,0,0,0,0,0,0,0,0,0,0,0,
0,0,0,0,0,0,0,0,0,0,0,0,0,0,0,0,0,0,0,0,0,0,0,0,0,0,0,0,0,0,0,0,0,0,0,0,0,0,0,0,0,0,0,0,0,0,0,0,0,0,0,0,0,0,0,0,0,0,0,0,0,0,0,0,0,0,
0,0,0,0,0,0,0,0,0,0,0,0,0,0,0,0,0,0,0,0,0,0,0,0,0,0,0,0,0,0,0,0,0,0,0,0,0,0,0,0,0,0,0,0,0,0,0,0,0,0,0,0,0,0,0,0,0,0,0,0,0,0,0,0,0,0,
0,0,0,0,0,0,0,0,0,0,0,0,0,0,0,0,0,0,0,0,0,0,0,0,0,0,0,0,0,0,0,0,0,0,0,0,0,0,0,0,0,0,0,0,0,0,0,0,0,0,0,0,0,0,0,0,0,0,0,0,0,0,0,0,0,0,
0,0,0,0,0,0,0,0,0,0,0,0,0,0,0,0,0,0,0,0,0,0,0,0,0,0,0,0,0,0,0,0,0,0,0,0,0,0,0,0,0,0,0,0,0,0,0,0,0,0,0,0,0,0,0,0,0,0,0,0,0,0,0,0,0,5430,
0,0,0,0,0,0,0,0,0,0,0,0,0,0,0,0,0,0,0,0,0,0,0,0,0,0,0,0,0,0,0,0,0,0,0,0,0,0,0,0,0,0,0,0,0,0,0,0,0,0,0,0,0,0,0,0,0,0,0,0,0,0,0,0,0,0,
0,0,0,0,0,0,0,0,0,0,0,0,0,0,0,0,0,0,0,0,0,0,0,0,0,0,0,0,0,0,0,0,0,0,0,0,0,0,0,0,0,0,0,0,0,0,0,0,0,0,0,0,0,0,0,0,0,0,0,0,0,0,0,0,0,0,
0,0,0,0,0,0,0,0,0,0,0,0,0,0,0,0,0,0,0,0,0,0,0,0,0,0,0,0,0,0,0,0,0,0,0,0,0,0,0,0,0,0,0,0,0,0,0,0,0,0,0,0,0,0,0,5430,5431,0,0,0,0,0,0,0,0,0,
0,0,0,0,0,0,0,0,0,0,0,0,0,0,0,0,0,0,0,0,0,0,0,0,0,0,0,0,0,0,0,0,0,0,0,0,0,0,0,0,0,0,0,0,5430,5431,0,0,0,0,0,0,0,0,0,0,0,0,0,0,0,0,0,0,0,0,
0,0,0,0,5430,5431,0,0,0,0,0,0,0,0,0,0,0,0,0,0,0,0,0,0,0,0,0,0,0,0,0,0,0,0,0,0,0,0,0,0,0,0,0,0,0,0,0,0,0,0,0,0,0,0,0,0,0,0,0,0,0,0,0,0,0,0,
0,0,0,0,0,0,0,0,0,0,0,0,0,0,0,0,0,0,0,0,0,0,0,0,0,0,0,0,0,0,0,0,0,0,0,0,0,0,0,0,0,0,0,0,0,0,0,0,0,0,0,0,0,0,0,0,0,0,0,0,0,0,0,0,0,0,
0,0,0,0,0,0,0,0,0,0,0,0,0,0,0,0,0,0,0,0,0,0,0,0,0,0,0,0,0,0,0,0,0,0,0,0,0,0,0,0,0,0,0,0,0,0,0,0,0,0,0,0,0,0,0,0,0,0,0,0,0,0,0,0,0,0,
0,0,0,0,0,0,0,0,0,0,0,0,0,0,0,0,0,0,0,0,0,0,0,0,0,0,0,0,0,0,0,0,0,0,0,0,0,0,0,0,0,0,0,0,0,0,0,0,0,0,0,0,0,0,0,0,0,0,0,0,0,0,0,0,0,0,
0,0,0,0,0,0,0,0,0,0,0,0,0,0,0,0,0,0,0,0,0,0,0,0,0,0,0,0,0,0,0,0,0,0,0,0,0,0,0,0,0,0,0,0,0,0,0,0,0,0,0,0,0,0,0,0,0,0,0,0,0,0,0,0,0,0,
0,0,0,0,0,0,0,0,0,0,0,0,0,0,0,0,0,0,0,0,0,0,0,0,0,0,0,0,0,0,0,0,0,0,0,0,0,0,0,0,0,0,0,0,0,0,0,0,0,0,0,0,0,0,0,0,0,0,0,0,0,0,0,0,0,0,
0,0,0,0,0,0,0,0,0,0,0,0,0,0,0,0,0,0,0,0,0,0,0,0,5430,5431,0,0,0,0,0,0,0,0,0,0,0,0,0,0,0,0,0,0,0,0,0,0,0,0,0,0,0,0,0,0,0,0,0,0,0,0,0,0,0,0,
0,0,0,0,0,0,0,0,0,5430,5431,0,0,0,0,0,0,0,0,0,0,0,0,0,0,0,0,0,0,0,0,0,0,0,0,0,0,0,0,0,0,0,0,0,0,0,0,0,0,0,0,0,0,0,0,0,0,0,0,0,0,0,0,0,0,0,
0,0,0,0,0,0,0,0,0,0,0,0,0,0,0,0,0,0,0,0,0,0,0,0,0,0,0,0,0,0,0,0,0,0,0,0,0,0,0,0,5430,5431,0,0,0,0,0,0,0,0,0,0,0,0,0,0,0,0,0,0,0,0,5430,5431,0,0,
0,0,0,0,0,0,0,0,0,0,0,0,0,0,0,0,0,0,0,0,0,0,0,0,0,0,0,0,0,0,0,0,0,0,0,0,0,0,0,0,0,0,0,0,0,0,0,0,0,0,0,0,0,0,0,0,0,0,0,0,0,0,0,0,0,0,
0,0,0,0,0,0,0,0,0,0,0,0,0,0,0,0,0,0,0,0,0,0,0,0,0,0,0,0,0,0,0,0,0,0,0,0,0,0,0,0,0,0,0,0,0,0,0,0,0,0,0,0,0,0,0,0,0,0,0,0,0,0,0,0,0,0,
0,0,0,0,0,0,0,0,0,0,0,0,0,0,0,0,0,0,0,0,0,0,0,0,0,0,0,0,0,0,0,0,0,0,0,0,0,0,0,0,0,0,0,0,0,0,0,0,0,0,0,0,0,0,0,0,0,0,0,0,0,0,0,0,0,0
</data>
 </layer>
 <layer id="23" name="Front4" width="66" height="33">
  <data encoding="csv">
0,0,0,0,0,0,0,0,0,0,0,0,0,0,0,0,0,0,0,0,0,0,0,0,0,0,0,0,0,0,0,0,0,0,0,0,0,0,0,0,0,0,0,0,0,0,0,0,0,0,0,0,0,0,0,0,0,0,0,0,0,0,0,0,0,0,
0,0,0,0,0,0,0,0,0,0,0,0,0,0,0,0,0,0,0,0,0,0,0,0,0,0,0,0,0,4520,4521,4522,0,0,0,0,0,0,0,0,0,0,0,0,0,0,0,0,0,0,0,0,0,0,4520,4521,4522,0,0,0,0,0,0,0,0,0,
0,0,0,0,0,0,0,0,0,0,0,0,0,0,0,0,0,0,0,0,0,0,0,0,0,0,0,0,0,0,0,0,0,0,0,0,0,0,0,0,0,0,0,0,0,0,0,0,0,0,0,0,0,0,0,0,0,0,0,0,0,0,0,0,0,0,
0,0,0,0,0,0,0,0,0,0,0,0,0,0,0,0,0,0,0,0,0,0,0,0,0,0,0,0,0,0,0,0,0,0,0,0,0,0,0,0,0,0,0,0,0,0,0,0,0,0,0,0,0,0,0,0,0,0,0,0,0,0,0,0,0,0,
0,0,0,0,0,0,0,0,0,0,0,0,0,0,0,0,0,0,0,0,0,0,0,0,0,0,0,0,0,0,0,0,0,0,0,0,0,0,0,0,0,0,0,0,0,0,0,0,0,0,0,0,0,0,0,0,0,0,0,0,0,0,0,0,0,0,
0,0,0,0,0,0,0,0,0,0,0,0,0,0,0,0,0,0,0,0,0,0,0,0,0,0,0,0,0,0,0,0,0,0,0,0,0,0,0,0,0,0,0,0,0,0,0,0,0,0,0,0,0,0,0,0,0,0,0,0,0,0,0,0,0,0,
0,0,0,0,0,0,0,0,0,0,0,0,0,4520,4521,4522,0,0,0,0,0,0,0,0,0,0,0,0,0,0,0,0,0,0,0,0,0,0,0,0,0,0,0,0,0,0,0,0,0,0,0,0,0,0,0,0,0,0,0,0,0,0,0,0,0,0,
0,0,0,0,0,0,0,0,0,0,0,0,0,0,0,0,0,0,0,0,0,0,0,0,0,0,0,0,0,0,0,0,0,0,0,0,0,0,0,0,0,0,0,0,0,0,0,0,0,0,0,0,0,0,0,0,0,0,0,0,0,0,0,0,0,0,
0,0,0,0,0,0,0,0,0,0,0,0,0,0,0,0,0,0,0,0,0,0,0,0,0,0,0,0,0,0,0,0,0,0,0,0,0,0,0,0,0,0,0,0,0,0,0,0,0,0,0,0,0,0,0,0,0,0,0,0,0,0,0,0,0,0,
0,0,0,0,0,0,0,0,0,0,0,0,0,0,0,0,0,0,0,0,0,0,0,0,0,0,0,0,0,0,0,0,0,0,0,0,0,0,0,0,0,0,0,0,0,0,0,0,0,0,0,0,0,0,0,0,0,0,0,0,0,0,0,0,0,0,
0,0,0,0,0,0,0,0,0,0,0,0,0,0,0,0,0,0,0,0,0,0,0,0,0,0,0,0,0,0,0,0,0,0,0,0,0,0,0,0,0,0,0,0,0,0,0,0,0,0,0,0,0,0,0,0,0,0,0,0,0,0,0,0,4520,4521,
0,0,0,0,0,0,0,0,0,0,0,0,0,0,0,0,0,0,0,0,0,0,0,0,0,0,0,0,0,0,0,0,0,0,0,0,0,0,0,0,0,0,0,0,0,0,0,0,0,0,0,0,0,0,0,0,0,0,0,0,0,0,0,0,0,0,
0,0,0,0,0,0,0,0,0,0,0,0,0,0,0,0,0,0,0,0,0,0,0,0,0,0,0,0,0,0,0,0,0,0,0,0,0,0,0,0,0,0,0,0,0,0,0,0,0,0,0,0,0,0,0,0,0,0,0,0,0,0,0,0,0,0,
0,0,0,0,0,0,0,0,0,0,0,0,0,0,0,0,0,0,0,0,0,0,0,0,0,0,0,0,0,0,0,0,0,0,0,0,0,0,0,0,0,0,0,0,0,0,0,0,0,0,0,0,0,0,0,0,0,0,0,0,0,0,0,0,0,0,
0,0,0,0,0,0,0,0,0,0,0,0,0,0,0,0,0,0,0,0,0,0,0,0,0,0,0,0,0,0,0,0,0,0,0,0,0,0,0,0,0,0,0,0,0,0,0,0,0,0,0,0,0,0,0,0,0,0,0,0,0,0,0,0,0,0,
0,0,0,0,0,0,0,0,0,0,0,0,0,0,0,0,0,0,0,0,0,0,0,0,0,0,0,0,0,0,0,0,0,0,0,0,0,0,0,0,0,0,0,0,0,0,0,0,0,0,0,0,0,0,0,0,0,0,0,0,0,0,0,0,0,0,
0,0,0,0,0,0,0,0,0,0,0,0,0,0,0,0,0,0,0,0,0,0,0,0,0,0,0,0,0,0,0,0,0,0,0,0,0,0,0,0,0,0,0,0,0,0,0,0,0,0,0,0,0,0,0,0,0,0,0,0,0,0,0,0,0,0,
0,0,0,0,0,0,0,0,0,0,0,0,0,0,0,0,0,0,0,0,0,0,0,0,0,0,0,0,0,0,0,0,0,0,0,0,0,0,0,0,0,0,0,0,0,0,0,0,0,0,0,0,0,0,0,0,0,0,0,0,0,0,0,0,0,0,
0,0,0,0,0,0,0,0,0,0,0,0,0,0,0,0,0,0,0,0,0,0,0,0,0,0,0,0,0,0,0,0,0,0,0,0,0,0,0,0,0,0,0,0,0,0,0,0,0,0,0,0,0,0,0,0,0,0,0,0,0,0,0,0,0,0,
0,0,0,0,0,0,0,0,0,0,0,0,0,0,0,0,0,0,0,0,0,0,0,0,0,0,0,0,0,0,0,0,0,0,0,0,0,0,0,0,0,0,0,0,0,0,0,0,0,0,0,0,0,0,0,0,0,0,0,0,0,0,0,0,0,0,
0,0,0,0,0,0,0,0,0,0,0,0,0,0,0,0,0,0,0,0,0,0,0,0,0,0,0,0,0,0,0,0,0,0,0,0,0,0,0,0,0,0,0,0,0,0,0,0,0,0,0,0,0,0,0,0,0,0,0,0,0,0,0,0,0,0,
0,0,0,0,0,0,0,0,0,0,0,0,0,0,0,0,0,0,0,0,0,0,0,0,0,0,0,0,0,0,0,0,0,0,0,0,0,0,0,0,0,0,0,0,0,0,0,0,0,0,0,0,0,0,0,0,0,0,0,0,0,0,0,0,0,0,
0,0,0,0,0,0,0,0,0,0,0,0,0,0,0,0,0,0,0,0,0,0,0,0,0,0,0,0,0,0,0,0,0,0,0,0,0,0,0,0,0,0,0,0,0,0,0,0,0,0,0,0,0,0,0,0,0,0,0,0,0,0,0,0,0,0,
0,0,0,0,0,0,0,0,0,0,0,0,0,0,0,0,0,0,0,0,0,0,0,0,0,0,0,0,0,0,0,0,0,0,0,0,0,0,0,0,0,0,0,0,0,0,0,0,0,0,0,0,0,0,0,0,0,0,0,0,0,0,0,0,0,0,
0,0,0,0,0,0,0,0,0,0,0,0,0,0,0,0,0,0,0,0,0,0,0,0,0,0,0,0,0,0,0,0,0,0,0,0,0,0,0,0,0,0,0,0,0,0,0,0,0,0,0,0,0,0,0,0,0,0,0,0,0,0,0,0,0,0,
0,0,0,0,0,0,0,0,0,0,0,0,0,0,0,0,0,0,0,0,0,0,0,0,0,0,0,0,0,0,0,0,0,0,0,0,0,0,0,0,0,0,0,0,0,0,0,0,0,0,0,0,0,0,0,0,0,0,0,0,0,0,0,0,0,0,
0,0,0,0,0,0,0,0,0,0,0,0,0,0,0,0,0,0,0,0,0,0,0,0,0,0,0,0,0,0,0,0,0,0,0,0,0,0,0,0,0,0,0,0,0,0,0,0,0,0,0,0,0,0,0,0,0,0,0,0,0,0,0,0,0,0,
0,0,0,0,0,0,0,0,0,0,0,0,0,0,0,0,0,0,0,0,0,0,0,0,0,0,0,0,0,0,0,0,0,0,0,0,0,0,0,0,0,0,0,0,0,0,0,0,0,0,0,0,0,0,0,0,0,0,0,0,0,0,0,0,0,0,
0,0,0,0,0,0,0,0,0,0,0,0,0,0,0,0,0,0,0,0,0,0,0,0,0,0,0,0,0,0,0,0,0,0,0,0,0,0,0,0,0,0,0,0,0,0,0,0,0,0,0,0,0,0,0,0,0,0,0,0,0,0,0,0,0,0,
0,0,0,0,0,0,0,0,0,0,0,0,0,0,0,0,0,0,0,0,0,0,0,0,0,0,0,0,0,0,0,0,0,0,0,0,0,0,0,0,0,0,0,0,0,0,0,0,0,0,0,0,0,0,0,0,0,0,0,0,0,0,0,0,0,0,
4520,4521,4522,0,0,0,0,0,0,0,0,0,0,0,0,0,0,0,0,0,0,0,0,0,0,0,0,0,0,0,0,0,0,0,0,0,0,0,0,0,0,0,0,0,0,0,0,0,0,0,0,0,0,0,0,0,0,0,0,0,0,0,0,0,0,0,
0,0,0,0,0,0,0,0,0,0,0,0,0,0,0,0,0,0,0,0,0,0,0,0,0,0,0,0,0,0,0,0,0,0,0,0,0,0,0,0,0,0,0,0,0,0,0,0,0,0,0,0,0,0,0,0,0,0,0,0,0,0,0,0,0,0,
0,0,0,0,0,0,0,0,0,0,0,0,0,0,0,0,0,0,0,0,0,0,0,0,0,0,0,0,0,0,0,0,0,0,0,0,0,0,0,0,0,0,0,0,0,0,0,0,0,0,0,0,0,0,0,0,0,0,0,0,0,0,0,0,0,0
</data>
 </layer>
 <layer id="4" name="Paths" width="66" height="33">
  <data encoding="csv">
0,0,0,0,0,0,0,0,0,0,0,0,0,0,0,0,0,0,0,0,0,0,0,0,0,0,0,0,0,0,0,0,0,0,0,0,0,0,0,0,0,0,0,0,0,0,0,0,0,0,0,0,0,0,0,0,0,0,0,0,0,0,0,0,0,0,
0,0,0,0,0,0,0,0,0,0,0,0,0,0,0,0,0,0,0,0,0,0,0,0,0,0,0,0,0,0,0,0,0,0,0,0,0,0,0,0,0,0,0,0,0,0,0,0,0,0,0,0,0,0,0,0,0,0,0,0,0,0,0,0,0,0,
0,0,0,0,0,0,0,0,0,0,0,0,0,0,0,0,0,0,0,0,0,0,0,0,0,0,0,0,0,0,0,0,0,0,0,0,0,0,0,0,0,0,0,0,0,0,0,0,0,0,0,0,0,0,0,0,0,0,0,0,0,0,0,0,0,0,
0,0,0,0,0,0,0,0,0,0,0,0,0,0,0,0,0,0,0,0,0,0,0,0,0,0,0,0,0,0,0,0,0,0,0,0,0,0,0,0,0,0,0,0,0,0,0,0,0,0,0,0,0,0,0,0,0,0,0,0,0,0,0,0,0,0,
0,0,0,0,0,0,0,0,0,0,0,0,0,0,0,0,0,0,0,0,0,0,0,0,0,0,0,0,0,0,0,0,0,0,0,0,0,0,0,0,0,0,0,0,0,0,0,0,0,0,0,0,0,0,0,0,0,0,0,0,0,0,0,0,0,0,
0,0,0,0,0,0,0,0,0,0,0,0,0,0,0,0,0,0,0,0,0,0,0,0,0,0,0,0,0,0,0,0,0,0,0,0,0,0,0,0,0,0,0,0,0,0,0,0,0,0,0,0,0,0,0,0,0,0,0,0,0,0,0,0,0,0,
0,0,0,0,0,0,0,0,0,0,0,0,0,0,0,0,0,0,0,0,0,0,0,0,0,0,0,0,0,0,0,0,0,0,0,0,0,0,0,0,0,0,0,0,0,0,0,0,0,0,0,0,0,0,0,0,0,0,0,0,0,0,0,0,0,0,
0,0,0,0,0,0,0,0,0,0,0,0,0,0,0,0,0,0,0,0,0,0,0,0,0,0,0,0,0,0,0,0,0,0,0,0,0,0,0,0,0,0,0,0,0,0,0,0,0,0,0,0,0,0,0,0,0,0,0,0,0,0,0,0,0,0,
0,0,0,0,0,0,0,0,0,0,0,0,0,0,0,0,0,0,0,0,0,0,0,0,0,0,0,0,0,0,0,0,0,0,0,0,0,0,0,0,0,0,0,0,0,0,0,0,0,0,0,0,0,0,0,0,0,0,0,0,0,0,0,0,0,0,
0,0,0,0,0,0,0,0,0,0,0,0,0,0,0,0,0,0,0,0,0,0,0,0,0,0,0,0,0,0,0,0,0,0,0,0,0,0,0,0,0,0,0,0,0,0,0,0,0,0,0,0,0,0,0,0,0,0,0,0,0,0,0,0,0,0,
0,0,0,0,0,0,0,0,0,0,0,0,0,0,0,0,0,0,0,0,0,0,0,0,0,0,0,0,0,0,0,0,0,0,0,0,0,0,0,0,0,0,0,0,0,0,0,0,0,0,0,0,0,0,0,0,0,0,0,0,0,0,0,0,0,0,
0,0,0,0,0,0,0,0,0,0,0,0,0,0,0,0,0,0,0,0,0,0,0,0,0,0,0,0,0,0,0,0,0,0,0,0,0,0,0,0,0,0,0,0,0,0,0,0,0,0,0,0,0,0,0,0,0,0,0,0,0,0,0,0,0,0,
0,0,0,0,0,0,0,0,0,0,0,0,0,0,0,0,0,0,0,0,0,0,0,0,0,0,0,0,0,0,0,0,0,0,0,0,0,0,0,0,0,0,0,0,0,0,0,0,0,0,0,0,0,0,0,0,0,0,0,0,0,0,0,0,0,0,
0,0,0,0,0,0,0,0,0,0,0,0,0,0,0,0,0,0,0,0,0,0,0,0,0,0,0,0,0,0,0,0,0,0,0,0,0,0,0,0,0,0,0,0,0,0,0,0,0,0,0,0,0,0,0,0,0,0,0,0,0,0,0,0,0,0,
0,0,0,0,0,0,0,0,0,0,0,0,0,0,0,0,0,0,0,0,0,0,0,0,0,0,0,0,0,0,0,0,0,0,0,0,0,0,0,0,0,0,0,0,0,0,0,0,0,0,0,0,0,0,0,0,0,0,0,0,0,0,0,0,0,0,
0,0,0,0,0,0,0,0,0,0,0,0,0,0,0,0,0,0,0,0,0,0,0,0,0,0,0,0,0,0,0,0,0,0,0,0,0,0,0,0,0,0,0,0,0,0,0,0,0,0,0,0,0,0,0,0,0,0,0,0,0,0,0,0,0,0,
0,0,0,0,0,0,0,0,0,0,0,0,0,0,0,0,0,0,0,0,0,0,0,0,0,0,0,0,0,0,0,0,0,0,0,0,0,0,0,0,0,0,0,0,0,0,0,0,0,0,0,0,0,0,0,0,0,0,0,0,0,0,0,0,0,0,
0,0,0,0,0,0,0,0,0,0,0,0,0,0,0,0,0,0,0,0,0,0,0,0,0,0,0,0,0,0,0,0,0,0,0,0,0,0,0,0,0,0,0,0,0,0,0,0,0,0,0,0,0,0,0,0,0,0,0,0,0,0,0,0,0,0,
0,0,0,0,0,0,0,0,0,0,0,0,0,0,0,0,0,0,0,0,0,0,0,0,0,0,0,0,0,0,0,0,0,0,0,0,0,0,0,0,0,0,0,0,0,0,0,0,0,0,0,0,0,0,0,0,0,0,0,0,0,0,0,0,0,0,
0,0,0,0,0,0,0,0,0,0,0,0,0,0,0,0,0,0,0,0,0,0,0,0,0,0,0,0,0,0,0,0,0,0,0,0,0,0,0,0,0,0,0,0,0,0,0,0,0,0,0,0,0,0,0,0,0,0,0,0,0,0,0,0,0,0,
0,0,0,0,0,0,0,0,0,0,0,0,0,0,0,0,0,0,0,0,0,0,0,0,0,0,0,0,0,0,0,0,0,0,0,0,0,0,0,0,0,0,0,0,0,0,0,0,0,0,0,0,0,0,0,0,0,0,0,0,0,0,0,0,0,0,
0,0,0,0,0,0,0,0,0,0,0,0,0,0,0,0,0,0,0,0,0,0,0,0,0,0,0,0,0,0,0,0,0,0,0,0,0,0,0,0,0,0,0,0,0,0,0,0,0,0,0,0,0,0,0,0,0,0,0,0,0,0,0,0,0,0,
0,0,0,0,0,0,0,0,0,0,0,0,0,0,0,0,0,0,0,0,0,0,0,0,0,0,0,0,0,0,0,0,0,0,0,0,0,0,0,0,0,0,0,0,0,0,0,0,0,0,0,0,0,0,0,0,0,0,0,0,0,0,0,0,0,0,
0,0,0,0,0,0,0,0,0,0,0,0,0,0,0,0,0,0,0,0,0,0,0,0,0,0,0,0,0,0,0,0,0,0,0,0,0,0,0,0,0,0,0,0,0,0,0,0,0,0,0,0,0,0,0,0,0,0,0,0,0,0,0,0,0,0,
0,0,0,0,0,0,0,0,0,0,0,0,0,0,0,0,0,0,0,0,0,0,0,0,0,0,0,0,0,0,0,0,0,0,0,0,0,0,0,0,0,0,0,0,0,0,0,0,0,0,0,0,0,0,0,0,0,0,0,0,0,0,0,0,0,0,
0,0,0,0,0,0,0,0,0,0,0,0,0,0,0,0,0,0,0,0,0,0,0,0,0,0,0,0,0,0,0,0,0,0,0,0,0,0,0,0,0,0,0,0,0,0,0,0,0,0,0,0,0,0,0,0,0,0,0,0,0,0,0,0,0,0,
0,0,0,0,0,0,0,0,0,0,0,0,0,0,0,0,0,0,0,0,0,0,0,0,0,0,0,0,0,0,0,0,0,0,0,0,0,0,0,0,0,0,0,0,0,0,0,0,0,0,0,0,0,0,0,0,0,0,0,0,0,0,0,0,0,0,
0,0,0,0,0,0,0,0,0,0,0,0,0,0,0,0,0,0,0,0,0,0,0,0,0,0,0,0,0,0,0,0,0,0,0,0,0,0,0,0,0,0,0,0,0,0,0,0,0,0,0,0,0,0,0,0,0,0,0,0,0,0,0,0,0,0,
0,0,0,0,0,0,0,0,0,0,0,0,0,0,0,0,0,0,0,0,0,0,0,0,0,0,0,0,0,0,0,0,0,0,0,0,0,0,0,0,0,0,0,0,0,0,0,0,0,0,0,0,0,0,0,0,0,0,0,0,0,0,0,0,0,0,
0,0,0,0,0,0,0,0,0,0,0,0,0,0,0,0,0,0,0,0,0,0,0,0,0,0,0,0,0,0,0,0,0,0,0,0,0,0,0,0,0,0,0,0,0,0,0,0,0,0,0,0,0,0,0,0,0,0,0,0,0,0,0,0,0,0,
0,0,0,0,0,0,0,0,0,0,0,0,0,0,0,0,0,0,0,0,0,0,0,0,0,0,0,0,0,0,0,0,0,0,0,0,0,0,0,0,0,0,0,0,0,0,0,0,0,0,0,0,0,0,0,0,0,0,0,0,0,0,0,0,0,0,
0,0,0,0,0,0,0,0,0,0,0,0,0,0,0,0,0,0,0,0,0,0,0,0,0,0,0,0,0,0,0,0,0,0,0,0,0,0,0,0,0,0,0,0,0,0,0,0,0,0,0,0,0,0,0,0,0,0,0,0,0,0,0,0,0,0,
0,0,0,0,0,0,0,0,0,0,0,0,0,0,0,0,0,0,0,0,0,0,0,0,0,0,0,0,0,0,0,0,0,0,0,0,0,0,0,0,0,0,0,0,0,0,0,0,0,0,0,0,0,0,0,0,0,0,0,0,0,0,0,0,0,0
</data>
 </layer>
 <layer id="17" name="AlwaysFront" width="66" height="33">
  <data encoding="csv">
0,0,0,0,0,0,0,0,0,0,0,0,0,0,0,0,0,0,0,0,0,0,0,5381,5382,5383,0,0,0,0,0,0,0,0,0,0,0,0,0,0,0,0,0,0,0,0,0,0,0,0,0,0,0,0,0,0,0,0,0,0,0,0,0,0,0,0,
0,0,0,5319,5320,5321,0,0,0,0,0,0,0,0,0,0,0,0,0,0,0,0,0,0,0,0,0,0,0,0,0,0,0,0,0,0,0,0,0,0,0,0,0,0,0,0,0,0,0,0,0,0,0,0,0,0,0,0,0,0,0,0,0,0,0,0,
0,0,0,5381,5382,5383,0,5316,5317,5373,5374,0,0,0,0,0,0,0,0,0,0,0,0,0,0,0,0,0,0,0,0,0,0,0,0,0,0,0,0,0,0,0,0,0,0,0,0,0,0,0,0,0,0,0,0,0,0,0,0,0,0,0,0,0,0,0,
0,0,0,0,0,0,0,5378,5379,5380,0,0,0,0,0,0,0,0,0,0,0,0,0,0,0,0,0,0,0,0,0,0,0,0,0,0,0,0,0,0,0,0,0,0,0,0,0,0,0,0,0,0,0,0,0,0,0,0,0,5319,5320,5321,0,0,0,0,
0,0,0,0,0,0,0,0,0,0,0,0,0,0,0,0,0,0,0,0,0,0,0,0,0,0,0,0,0,0,0,0,0,0,0,0,0,0,0,0,0,0,0,0,0,0,0,0,0,0,0,0,0,0,0,0,0,0,0,5381,5382,5383,0,0,0,0,
0,0,0,0,0,0,0,0,0,0,0,0,0,0,0,0,0,0,0,0,0,0,0,0,0,0,0,0,0,0,0,0,0,0,0,0,0,0,0,0,0,0,0,0,0,0,0,0,0,0,0,0,0,0,0,5316,5317,5373,5374,0,0,0,0,0,0,0,
0,0,0,0,0,0,0,0,0,0,0,0,0,0,0,0,0,0,0,0,0,0,0,0,0,0,0,0,0,0,0,0,0,0,0,0,0,0,0,0,0,0,0,0,0,0,0,0,0,0,0,0,0,0,0,5378,5379,5380,0,0,0,0,0,0,0,0,
0,0,5373,5374,0,0,0,0,0,0,0,0,0,0,0,0,0,0,0,0,0,0,0,0,0,0,0,0,0,0,0,0,0,0,0,0,0,0,0,0,0,0,0,0,0,0,0,0,0,0,0,0,0,0,0,0,0,0,0,0,0,0,0,0,0,0,
0,0,0,0,0,0,0,0,0,0,0,0,0,0,0,0,0,0,0,0,0,0,0,0,0,0,0,0,0,0,0,0,0,0,0,0,0,0,0,0,0,0,0,0,0,0,0,0,0,5319,5320,5321,0,0,0,0,0,0,0,0,0,0,0,0,0,0,
0,0,0,0,0,0,5319,5320,5321,0,0,5263,5264,5265,5266,0,0,0,0,0,0,0,0,0,0,0,0,0,0,0,0,0,0,0,0,0,0,0,0,0,0,0,0,0,0,0,0,0,0,5381,5382,5383,0,5263,5264,5265,5266,0,0,0,0,0,0,0,0,0,
0,0,0,0,0,0,5381,5382,5383,0,0,5325,5326,5327,5328,0,0,0,0,0,0,0,0,0,0,0,0,0,0,0,0,0,0,0,0,0,0,0,0,0,0,0,0,0,0,0,0,0,0,0,0,0,0,5325,5326,5327,5328,0,0,0,0,0,0,0,0,0,
0,0,0,0,0,0,0,0,0,0,0,5387,5388,5389,5390,0,0,0,0,0,0,0,0,0,0,0,0,0,0,0,0,0,0,0,0,0,0,0,0,0,0,0,0,0,0,0,0,0,0,0,0,0,0,5387,5388,5389,5390,0,0,0,0,0,0,0,0,0,
0,0,0,0,0,0,0,0,0,0,0,0,0,0,0,0,0,0,0,0,0,0,0,0,0,0,0,0,0,0,0,0,0,0,0,0,0,0,0,0,0,0,0,0,0,0,0,0,0,0,0,0,0,0,0,0,0,0,0,0,0,0,0,0,0,0,
0,0,0,5316,5317,5318,0,0,0,0,0,0,0,0,0,0,0,0,0,0,0,0,0,0,0,0,0,0,0,0,0,0,0,0,0,0,0,0,0,0,0,0,0,0,0,0,0,0,0,0,0,0,0,0,0,0,0,0,0,0,0,0,0,0,5373,5374,
0,0,0,5378,5379,5380,0,0,0,0,0,0,0,0,0,0,0,0,0,0,0,0,0,0,0,0,0,0,0,0,0,0,0,0,0,0,0,0,0,0,0,0,0,0,0,0,0,0,0,0,0,0,0,0,0,0,0,5263,5264,5265,5266,0,0,0,0,0,
0,0,0,0,0,0,0,0,0,0,0,0,0,0,0,0,0,0,0,0,0,0,0,0,0,0,0,0,0,0,0,0,0,0,0,0,0,0,0,0,0,0,0,0,0,0,0,0,0,0,0,0,0,0,0,0,0,5325,5326,5327,5328,0,0,0,0,0,
0,0,0,0,0,0,0,0,0,0,0,0,0,0,0,0,0,0,0,0,0,0,0,0,0,0,0,0,0,0,0,0,0,0,0,0,0,0,0,0,0,0,0,0,0,0,0,0,0,0,0,0,0,0,0,0,0,5387,5388,5389,5390,0,0,0,0,0,
0,0,0,0,0,0,0,0,0,0,0,0,0,0,0,0,0,0,0,0,0,0,0,0,0,0,0,0,0,0,0,0,0,0,0,0,0,0,0,0,0,0,0,0,0,0,0,0,0,0,0,0,0,0,0,0,0,0,0,0,0,0,0,0,0,0,
0,0,0,0,0,0,0,0,0,0,0,5319,5320,5321,0,0,0,0,0,0,0,0,0,0,0,0,0,0,0,0,0,0,0,0,0,0,0,0,0,0,0,0,0,0,0,0,0,0,0,0,0,0,0,0,0,0,0,0,0,0,0,0,0,0,0,0,
0,0,0,0,0,0,0,0,0,0,0,5381,5382,5383,0,0,0,0,0,0,0,0,0,0,0,0,0,0,0,0,0,0,0,0,0,0,0,0,0,0,0,0,0,0,0,0,0,0,0,0,0,0,0,0,0,0,0,0,0,0,0,0,5319,5320,5321,0,
0,5319,5320,5321,0,0,0,0,0,0,0,0,0,0,0,0,0,0,0,0,0,0,0,0,0,0,0,0,0,0,0,0,0,0,0,0,0,0,0,0,0,0,0,0,0,0,0,0,0,0,0,0,0,0,0,0,0,0,0,0,0,0,5381,5382,5383,0,
0,5381,5382,5383,0,0,0,0,0,0,0,0,0,5373,5374,0,0,0,0,0,0,0,0,0,0,0,0,0,0,0,0,0,0,0,0,0,0,0,0,0,0,0,0,0,0,0,0,0,0,0,0,0,0,0,0,0,0,0,0,0,0,0,0,0,0,0,
0,0,0,0,0,0,0,0,0,0,0,0,0,0,0,0,0,0,0,0,0,0,0,0,0,0,0,0,0,0,0,0,0,0,0,0,0,0,0,0,0,0,0,0,0,0,0,0,0,0,0,0,0,0,0,0,0,0,0,0,0,0,0,5316,5317,5318,
0,0,0,0,0,0,0,0,0,0,0,0,0,0,0,0,0,0,0,0,0,0,0,0,0,0,0,0,0,0,0,0,0,0,0,0,0,0,0,0,0,0,0,0,0,0,0,0,0,0,0,0,0,0,0,0,0,0,0,0,0,0,0,5378,5379,5380,
0,0,0,0,0,0,0,0,0,0,0,0,0,0,0,0,0,0,0,0,0,0,0,0,0,0,0,0,0,0,0,0,0,0,0,0,0,0,0,0,0,0,0,0,0,0,0,0,0,0,0,0,0,5373,5374,0,0,0,0,0,0,0,0,0,0,0,
0,0,0,0,0,0,0,0,0,0,0,0,0,0,0,0,0,0,0,0,0,0,0,0,0,0,0,0,0,0,0,0,0,0,0,0,0,0,0,0,0,0,0,0,0,0,0,0,0,0,0,0,0,0,0,0,0,0,0,0,0,0,0,0,0,0,
0,0,0,0,0,0,0,0,0,0,0,0,0,0,0,0,0,0,0,0,0,0,0,0,0,0,0,0,0,0,0,0,0,0,0,0,0,0,0,0,0,0,0,0,0,0,0,0,0,0,0,0,0,0,0,0,0,0,0,0,0,0,0,0,0,0,
0,0,0,0,0,0,0,0,0,0,0,0,0,0,0,0,0,0,0,0,0,0,0,0,0,0,0,0,0,0,0,0,0,0,0,0,0,0,0,0,0,0,0,0,0,0,0,0,0,0,0,0,0,0,0,0,0,0,0,0,0,0,0,0,0,0,
0,0,0,5319,5320,5321,0,0,0,0,0,0,0,0,0,0,0,0,0,0,0,0,0,0,0,0,0,0,0,0,0,0,0,0,0,0,0,0,0,0,0,0,0,0,0,0,0,0,0,0,0,5316,5317,5318,0,0,0,0,0,0,0,0,0,0,0,0,
0,0,0,5381,5382,5383,0,0,0,0,0,0,0,0,0,0,0,0,0,0,0,0,0,0,0,0,0,0,0,0,0,0,0,0,0,0,0,0,0,0,0,0,0,0,0,0,0,0,0,0,0,5378,5379,5380,0,0,0,0,0,0,0,0,0,5373,5374,0,
0,0,0,0,0,0,0,0,0,0,0,0,5260,5261,5262,0,0,0,0,0,0,0,0,0,0,0,0,0,0,0,0,0,0,0,0,0,0,0,0,0,0,0,0,0,0,0,0,0,0,0,0,0,5260,5261,5262,0,0,0,0,0,0,0,0,0,0,0,
0,0,0,0,0,0,0,0,0,0,5373,5374,5322,5323,5324,0,0,0,0,0,0,0,0,0,0,0,0,0,0,0,0,0,0,0,0,0,0,0,0,0,0,0,0,0,0,0,0,0,0,0,0,0,5322,5323,5324,0,0,0,0,0,0,0,0,0,0,0,
0,0,0,0,0,0,0,0,0,0,0,0,5384,5385,5386,0,0,0,0,0,0,0,0,0,0,0,0,0,0,0,0,0,0,0,0,0,0,0,0,0,0,0,0,0,0,0,0,0,0,0,0,0,5384,5385,5386,0,0,0,0,0,0,0,0,0,0,0
</data>
 </layer>
 <layer id="21" name="AlwaysFront2" width="66" height="33">
  <data encoding="csv">
0,0,0,0,0,0,5325,5326,5327,5328,0,5371,5372,0,0,0,0,0,0,0,0,0,0,0,5325,5326,5327,5328,0,0,0,0,0,0,0,0,0,0,0,0,0,0,0,5263,5264,5265,5266,0,0,0,0,5322,5323,5324,0,0,0,0,0,0,0,0,0,5446,0,0,
0,0,0,0,0,0,5387,5388,5389,5390,0,0,0,0,0,0,0,0,0,0,0,0,0,5446,5387,5388,5389,5390,0,0,0,0,0,0,0,0,0,0,0,0,0,0,0,5325,5326,5327,5328,0,0,0,0,5384,5385,5386,0,0,5263,5264,5265,5266,0,0,0,0,0,0,
0,0,0,0,0,0,0,0,0,0,0,0,0,0,0,0,0,0,0,0,0,0,5504,5508,5449,0,0,5452,0,0,0,0,5251,5252,0,0,0,0,0,0,0,5504,0,5387,5388,5389,5390,0,0,0,0,0,0,0,0,0,5325,5326,5327,5328,0,0,0,0,0,0,
5261,5262,0,0,0,5371,5372,0,0,0,0,0,0,0,0,0,0,0,0,0,0,0,0,0,5511,0,5513,5514,0,0,0,0,5313,5314,5315,0,0,0,0,0,0,0,0,0,0,0,5373,5374,0,0,0,0,0,0,0,0,5387,5388,5389,5390,0,0,0,0,0,0,
5323,5324,0,0,0,0,0,0,0,0,0,0,0,0,0,0,0,0,0,0,0,0,0,0,0,0,0,0,0,0,0,0,5375,5376,5377,0,0,0,0,0,0,0,0,5511,0,0,0,0,0,0,0,0,0,0,0,0,0,0,0,0,0,0,0,0,0,0,
5385,5386,0,0,0,0,0,0,0,0,0,5251,5252,0,0,0,0,0,0,0,0,0,0,0,0,0,0,0,0,0,0,0,0,0,0,0,0,0,0,0,0,0,0,0,0,0,5497,0,0,0,0,0,0,0,5371,5372,0,0,5251,5252,0,0,0,0,0,0,
0,0,0,0,0,0,0,5260,5261,5262,0,5313,5314,0,0,0,0,0,0,0,0,0,0,0,0,0,0,0,0,0,0,0,5499,5500,0,0,0,0,0,0,0,0,0,0,0,0,0,0,0,0,0,0,0,0,0,0,0,0,5313,5314,0,0,0,0,0,0,
5251,5252,0,0,0,0,0,5322,5323,5324,0,5375,5376,0,0,0,0,0,0,5251,5252,0,0,0,0,0,0,0,0,0,0,0,0,0,0,5260,5261,5262,0,0,0,0,0,5319,5320,5321,0,0,0,0,0,0,0,0,0,0,0,0,5375,5376,0,5371,5372,0,0,0,
5313,5314,0,0,0,0,0,5384,5385,5386,0,0,0,0,0,0,0,0,0,5313,5314,5315,0,0,0,0,0,0,0,0,0,0,0,0,0,5322,5323,5324,5373,5374,0,0,0,5381,5382,5383,0,0,0,0,0,0,0,0,0,0,0,0,0,0,0,0,0,0,0,0,
5375,5376,0,0,0,0,0,5446,0,0,0,0,0,0,0,0,0,0,0,5375,5376,5377,0,0,0,0,0,5316,5317,5318,0,0,0,0,0,5384,5385,5386,0,0,0,0,0,0,0,0,5316,5317,0,0,0,0,0,0,0,0,0,0,0,0,0,0,0,0,0,0,
0,0,0,0,0,0,0,0,0,0,0,0,0,0,0,0,0,0,0,5437,0,0,0,0,0,0,0,5378,5379,5380,0,0,0,0,5371,5372,0,0,5497,0,0,0,0,5505,0,0,5378,5379,0,0,0,0,0,0,0,0,0,0,0,0,0,0,0,0,0,0,
0,0,0,0,0,0,0,0,5371,5372,0,0,0,0,0,5371,5372,0,0,5499,5500,0,0,0,0,0,5373,5374,0,0,0,0,0,0,0,0,0,5510,0,0,0,0,0,0,0,0,5440,0,0,0,5371,5372,0,0,0,0,0,0,0,0,5260,5261,5262,0,0,0,
0,0,0,0,0,0,0,0,0,0,0,0,0,0,0,5371,0,0,0,0,0,0,5263,5264,5265,5266,0,0,0,5504,0,0,0,0,5495,0,0,0,0,0,0,0,0,0,0,0,5502,0,0,0,0,0,0,0,0,0,0,0,0,0,5322,5323,5324,0,0,0,
0,0,0,0,0,0,0,0,0,0,0,0,0,0,0,0,0,0,0,0,0,0,5325,5326,5327,5328,0,0,0,0,0,0,0,0,0,0,0,0,0,0,0,0,0,0,0,0,0,0,0,0,0,0,0,0,0,0,0,0,0,0,5384,5385,5386,0,0,0,
0,5263,5264,5265,5266,0,0,0,0,0,0,0,0,0,0,0,0,0,0,0,0,0,5387,5388,5389,5390,0,0,0,0,0,0,0,0,0,0,0,0,0,0,0,0,0,5319,5320,5321,0,0,0,0,0,0,0,0,0,0,0,0,0,0,5446,0,0,0,0,0,
0,5325,5326,5327,5328,0,0,0,0,0,0,0,0,5260,5261,5262,0,0,0,0,0,0,5449,0,0,5452,0,0,0,0,0,0,0,0,0,0,0,0,0,0,0,0,0,5381,5382,5383,0,0,5263,5264,5265,5266,0,0,0,0,0,0,0,0,0,0,0,0,0,0,
0,5387,5388,5389,5390,0,0,0,0,0,0,0,0,5322,5323,5324,0,5319,5320,5321,0,0,5511,0,5251,5252,0,0,0,0,0,0,0,0,0,0,0,0,0,0,0,0,0,0,0,0,0,0,5325,5326,5327,5328,0,0,0,0,0,0,0,0,0,0,0,0,0,0,
0,0,0,0,0,0,0,0,0,0,0,0,0,5384,5385,5386,0,5381,5382,5383,0,0,0,0,5313,5314,5315,0,0,0,0,0,0,0,0,0,0,0,0,0,0,5371,5372,5505,0,5507,0,0,5387,5388,5389,5390,0,0,0,0,0,0,0,0,0,0,0,0,0,0,
0,0,0,0,0,0,0,0,0,0,0,0,0,5446,0,0,0,0,0,0,0,5316,5317,0,5375,5376,5377,0,0,0,0,0,0,0,0,0,0,0,0,0,0,0,0,0,0,0,0,0,0,0,0,0,0,0,0,0,0,0,0,0,0,0,0,0,0,0,
0,0,0,0,0,0,0,0,0,0,0,0,0,0,0,5306,5307,0,0,5507,0,5378,5379,0,5437,0,0,0,0,0,0,0,0,0,0,5263,5264,5265,5266,0,0,5495,0,0,0,0,0,0,0,0,0,0,0,0,0,0,0,0,0,0,0,0,0,0,5371,5372,
0,0,0,0,0,0,0,0,0,0,0,0,0,0,0,5368,5369,0,0,0,0,5440,0,0,5373,5374,0,0,0,0,0,0,0,0,0,5325,5326,5327,5328,0,0,0,0,0,0,0,0,0,0,0,0,0,5260,5261,5262,0,0,0,0,0,0,0,0,0,0,0,
0,0,0,0,0,0,0,0,0,0,0,0,0,0,0,0,0,0,0,0,0,5502,0,5504,0,0,0,0,0,0,0,0,0,0,0,5387,5388,5389,5390,0,0,0,0,0,0,0,5319,5320,0,0,0,0,5322,5323,5324,0,0,0,0,0,0,5251,5252,0,0,0,
0,0,0,0,0,0,0,0,0,0,0,0,0,0,0,0,0,0,0,0,0,0,0,0,5497,0,0,0,0,0,0,0,0,0,0,5449,0,0,5452,5319,5320,5321,0,0,0,0,5381,5382,5383,0,0,0,5384,5385,5386,0,0,0,0,0,0,5313,5314,0,0,0,
0,0,0,0,0,0,0,0,0,0,0,0,0,0,0,0,0,0,0,0,0,0,0,0,0,0,0,0,0,0,0,0,0,0,0,5511,0,5513,5514,5381,5382,5383,0,0,0,0,0,0,0,0,0,5251,5252,0,0,0,0,0,0,0,0,5375,5376,0,0,0,
0,0,0,0,0,5260,5261,5262,0,0,0,0,0,0,0,0,0,0,0,0,0,5371,5372,0,0,0,0,0,0,0,0,0,0,0,5316,5317,5318,0,0,0,0,0,0,0,0,0,5505,0,0,0,0,5313,5314,0,0,0,0,0,0,0,0,0,0,0,0,0,
0,0,0,0,0,5322,5323,5324,0,0,5251,5252,0,0,0,0,0,0,0,0,0,0,0,0,0,5260,5261,5262,0,0,0,0,0,0,5378,5379,5380,5251,5252,0,0,5371,5372,0,0,0,0,0,0,0,0,5375,5376,0,0,0,0,0,0,0,0,0,0,0,0,0,
0,0,0,0,0,5384,5385,5386,0,0,5313,5314,0,0,0,0,0,0,0,0,0,5495,0,0,0,5322,5323,5324,0,0,0,0,0,0,5440,0,0,5313,5314,5315,0,0,0,0,0,0,0,0,0,0,0,0,0,0,0,0,5263,5264,5265,5266,0,0,0,0,0,0,
0,0,0,0,0,5446,0,0,0,0,5375,5376,0,0,0,0,0,0,0,0,0,0,0,0,0,5384,5385,5386,0,0,0,0,0,0,5502,0,5504,5375,5376,5377,0,5495,0,0,0,0,0,0,0,0,0,0,0,0,0,0,5325,5326,5327,5328,0,0,0,0,0,0,
0,0,0,0,0,0,0,5263,5264,5265,5266,0,5371,5372,0,0,0,0,0,0,0,0,0,0,0,0,0,0,0,0,0,0,0,0,0,0,0,5437,0,0,0,0,0,0,0,0,0,0,0,0,0,0,0,0,0,0,5387,5388,5389,5390,0,0,0,0,5260,5261,
0,0,0,0,0,0,0,5325,5326,5327,5328,0,0,0,0,0,0,0,0,0,0,0,5263,5264,5265,5266,0,5510,0,0,0,0,0,0,0,0,0,0,0,0,0,0,0,0,0,0,0,0,0,0,0,0,0,0,0,0,0,0,0,0,0,0,0,0,5322,5323,
0,0,0,0,0,0,0,5387,5388,5389,5390,0,0,0,0,0,0,0,0,0,5251,5252,5325,5326,5327,5328,0,0,0,0,0,0,0,0,0,0,0,0,0,0,0,0,0,0,0,5263,5264,5265,5266,0,0,0,0,0,0,0,0,0,5371,5372,0,0,0,0,5384,5385,
0,0,0,0,0,0,0,0,0,0,0,0,0,0,0,0,0,0,5371,5372,5313,5314,5387,5388,5389,5390,0,0,0,0,0,0,0,0,0,0,0,0,0,0,0,0,0,0,0,5325,5326,5327,5328,0,0,0,0,0,0,0,0,0,0,0,0,0,0,0,5446,0,
0,0,0,0,0,0,0,0,0,0,0,0,0,0,0,0,0,0,5433,5434,5375,5376,5449,5450,5451,5452,0,0,0,0,0,0,0,0,0,0,0,0,0,0,0,0,0,0,0,5387,5388,5389,5390,0,0,0,0,0,0,0,0,0,0,0,0,0,0,0,0,0
</data>
 </layer>
 <layer id="19" name="AlwaysFront3" width="66" height="33">
  <data encoding="csv">
0,0,0,0,0,0,0,0,5306,5307,0,0,0,0,0,0,0,0,0,0,0,0,0,0,0,0,0,5368,5369,0,0,0,0,0,0,0,0,0,0,0,0,0,0,0,0,0,0,0,0,0,0,0,0,0,0,0,0,0,0,0,0,0,0,0,0,0,
0,0,0,0,0,0,0,0,5368,5369,0,0,0,0,0,0,0,0,0,0,0,0,0,0,0,0,0,0,0,0,0,0,0,0,0,0,0,0,5306,5307,0,0,0,0,0,0,0,0,0,5306,5307,0,0,0,0,0,0,0,0,0,0,0,0,0,0,0,
0,0,0,0,0,0,0,0,0,0,0,0,0,0,0,0,0,0,0,0,0,0,0,0,0,0,0,0,0,0,0,0,0,0,0,0,0,0,5368,5369,0,0,0,0,0,0,0,0,0,5368,5369,0,0,0,0,0,0,0,0,0,0,0,0,0,0,0,
0,0,0,0,0,0,0,0,0,0,0,0,0,0,0,0,0,0,0,0,0,0,0,0,0,0,0,0,0,0,0,0,0,0,0,0,0,0,0,0,0,0,0,0,0,0,0,0,0,0,0,0,0,0,0,0,0,0,0,0,0,0,0,0,0,0,
0,5306,5307,0,0,0,0,0,0,0,0,0,0,0,0,0,0,0,0,0,0,0,0,0,0,0,0,0,0,0,0,0,0,0,0,0,0,0,0,0,0,0,0,0,0,0,0,0,0,0,0,0,0,0,0,0,0,0,0,0,0,0,0,0,0,0,
0,5368,5369,0,0,0,0,0,0,0,0,0,0,0,0,0,0,0,0,0,0,0,0,0,0,0,0,0,0,0,0,0,0,0,0,0,0,0,0,0,0,0,0,0,0,0,0,0,0,0,0,0,0,0,0,0,0,0,0,0,0,0,0,0,0,0,
0,0,0,5494,0,0,0,0,0,0,0,0,0,0,0,0,0,0,0,0,0,0,0,0,0,0,0,0,0,0,0,0,0,0,0,0,0,0,0,0,0,0,0,0,0,0,0,0,0,0,0,0,0,0,0,0,0,0,0,0,0,0,0,0,0,0,
0,0,0,0,0,0,0,0,0,0,0,0,0,0,0,0,0,0,0,0,0,0,0,0,0,0,0,0,0,0,0,0,0,5306,5307,0,0,0,0,0,0,0,0,0,0,0,0,0,0,0,0,0,0,0,0,0,0,0,0,0,0,0,0,0,0,0,
0,0,0,0,0,0,0,0,0,0,0,0,0,0,0,0,0,0,0,0,0,0,0,0,0,0,0,0,0,0,0,0,0,5368,5369,0,0,0,0,0,0,0,0,0,0,0,0,0,0,0,0,0,0,0,0,0,0,0,0,0,0,0,0,0,0,0,
0,0,0,0,0,0,0,0,0,0,0,0,0,0,0,0,0,0,0,0,0,0,0,0,0,0,0,0,0,0,0,0,0,0,0,0,0,0,0,0,0,0,5306,5307,0,0,0,0,0,0,0,0,0,0,0,0,0,0,0,0,0,0,0,0,0,0,
0,0,0,0,0,0,0,0,0,0,0,0,0,0,0,0,0,0,0,5306,5307,0,0,0,0,0,0,0,0,0,0,0,0,0,0,0,0,0,0,0,0,0,5368,5369,0,0,0,0,0,0,0,0,0,0,0,0,0,0,0,0,0,0,0,0,0,0,
0,0,0,0,0,0,0,0,0,0,0,0,0,0,0,0,0,0,0,5368,5369,0,0,0,0,0,0,0,0,0,0,0,0,0,0,0,0,0,0,0,0,0,0,0,0,0,0,0,0,0,0,0,0,0,0,0,0,0,0,0,0,0,0,0,0,0,
0,0,0,0,0,0,0,0,0,0,0,0,0,0,0,0,0,0,0,0,0,0,0,0,0,0,0,0,0,0,0,0,0,0,0,0,0,0,0,0,0,0,0,0,0,0,0,0,0,0,0,0,0,0,0,0,0,0,0,0,0,0,0,0,0,0,
0,0,0,0,0,0,0,0,0,0,0,0,0,0,0,0,0,0,0,0,0,0,0,0,0,0,0,0,0,0,0,0,0,0,0,0,0,0,0,0,0,0,0,0,0,0,0,0,0,0,0,0,0,0,0,0,0,0,0,0,0,0,0,0,0,0,
0,0,0,0,0,0,0,0,0,0,0,0,0,0,0,0,0,0,0,0,0,0,0,0,0,0,0,0,0,0,0,0,0,0,0,0,0,0,0,0,0,0,0,0,0,0,0,0,0,0,0,0,0,0,0,0,0,0,0,0,0,0,0,0,0,5306,
0,0,0,0,0,0,0,0,0,0,0,0,0,0,0,0,0,0,0,0,0,0,0,0,0,0,0,0,0,0,0,0,0,0,0,0,0,0,0,0,0,0,0,0,0,0,0,0,0,0,0,0,0,0,0,0,0,0,0,0,0,0,0,0,0,5368,
0,0,0,0,0,0,0,0,0,0,0,0,0,0,0,0,0,0,0,0,0,0,0,0,0,0,0,0,0,0,0,0,0,0,0,0,0,0,0,0,0,0,0,0,0,0,0,0,0,0,0,0,0,0,0,0,0,0,0,0,0,0,0,0,0,0,
0,0,0,0,0,0,0,0,0,0,0,0,0,0,0,0,0,0,0,0,0,0,0,0,0,0,0,0,0,0,0,0,0,0,0,0,0,0,0,0,0,0,0,0,0,0,0,0,0,0,0,0,0,0,0,5306,5307,0,0,0,0,0,0,0,0,0,
0,0,0,0,0,0,0,0,0,0,0,0,0,0,0,0,0,0,0,0,0,0,0,0,0,0,0,0,0,0,0,0,0,0,0,0,0,0,0,0,0,0,0,0,5306,5307,0,0,0,0,0,0,0,0,0,5368,5369,0,0,0,0,0,0,0,0,0,
0,0,0,0,5306,5307,0,0,0,0,0,0,0,0,0,0,0,0,0,0,0,0,0,0,0,0,0,0,0,0,0,0,0,0,0,0,0,0,0,0,0,0,0,0,5368,5369,0,0,0,0,0,0,0,0,0,0,0,0,0,0,0,0,0,0,0,0,
0,0,0,0,5368,5369,0,0,0,0,0,0,0,0,0,0,0,0,0,0,0,0,0,0,0,0,0,0,0,0,0,0,0,0,0,0,0,0,0,0,0,0,0,0,0,0,0,0,0,0,0,0,0,0,0,0,0,0,0,0,0,0,0,0,0,0,
0,0,0,0,0,0,0,0,0,0,0,0,0,0,0,0,0,0,0,0,0,0,0,0,0,0,0,0,0,0,0,0,0,0,0,0,0,0,0,0,0,0,0,0,0,0,0,0,0,0,0,0,0,0,0,0,0,0,0,0,0,0,0,0,0,0,
0,0,0,0,0,0,0,0,0,0,0,0,0,5494,0,0,0,0,0,0,0,0,0,0,0,0,0,0,0,0,0,0,0,0,0,0,0,0,0,0,0,0,0,0,0,0,0,0,0,0,0,0,0,0,0,0,0,0,0,0,0,0,0,0,0,0,
0,0,0,0,0,0,0,0,0,0,0,0,0,0,0,0,0,0,0,0,0,0,0,0,0,0,0,0,0,0,0,0,0,0,0,0,0,0,0,0,0,0,0,0,0,0,0,0,0,0,0,0,0,0,0,0,0,0,0,0,0,0,0,0,0,0,
0,0,0,0,0,0,0,0,0,0,0,0,0,0,0,0,0,0,0,0,0,0,0,0,0,0,0,0,0,0,0,0,0,0,0,0,0,0,0,0,0,0,0,0,0,0,0,0,0,0,0,0,0,0,0,0,0,0,0,0,0,0,0,0,0,0,
0,0,0,0,0,0,0,0,0,0,0,0,0,0,0,0,0,0,0,0,0,0,0,0,5306,5307,0,0,0,0,0,0,0,0,0,0,0,0,0,0,0,0,0,0,0,0,0,0,0,0,0,0,0,0,0,0,0,0,0,0,0,0,0,0,0,0,
0,0,0,0,0,0,0,0,0,5306,5307,0,0,0,0,0,0,0,0,0,0,0,0,0,5368,5369,0,0,0,0,0,0,0,0,0,0,0,0,0,0,0,0,0,0,0,0,0,0,0,0,0,0,0,0,0,0,0,0,0,0,0,0,0,0,0,0,
0,0,0,0,0,0,0,0,0,5368,5369,0,0,0,0,0,0,0,0,0,0,0,0,0,0,0,0,0,0,0,0,0,0,0,0,0,0,0,0,0,5306,5307,0,0,0,0,0,0,0,0,0,0,0,0,0,0,0,0,0,0,0,0,5306,5307,0,0,
0,0,0,0,0,5494,0,0,0,0,0,0,0,0,0,0,0,0,0,0,0,0,0,0,0,0,0,0,0,0,0,0,0,0,0,0,0,0,0,0,5368,5369,0,0,0,0,0,0,0,0,0,0,0,0,0,0,0,0,0,0,0,0,5368,5369,0,0,
0,0,0,0,0,0,0,0,0,0,0,0,0,0,0,0,0,0,0,0,0,0,0,0,0,0,0,0,0,0,0,0,0,0,0,0,0,0,0,0,0,0,0,0,0,0,0,0,0,0,0,0,0,0,0,0,0,0,0,0,0,0,0,0,0,0,
0,0,0,0,0,0,0,0,0,0,0,0,0,0,0,0,0,0,0,0,0,0,0,0,0,0,0,0,0,0,0,0,0,0,0,0,0,0,0,0,0,0,0,0,0,0,0,0,0,0,0,0,0,0,0,0,0,0,0,0,0,0,0,0,0,0,
5306,5307,0,0,0,0,0,0,0,0,0,0,0,0,0,0,0,0,0,0,0,0,0,0,0,0,0,0,0,0,0,0,0,0,0,0,0,0,0,0,0,0,0,0,0,0,0,0,0,0,0,0,0,0,0,0,0,0,0,0,0,0,0,0,0,0,
5368,5369,0,0,0,0,0,0,0,0,0,0,0,0,0,0,0,0,0,0,0,0,0,0,0,0,0,0,0,0,0,0,0,0,0,0,0,0,0,0,0,5371,5372,0,0,0,0,0,0,0,0,0,0,0,0,0,0,0,0,0,0,0,0,0,0,0
</data>
 </layer>
 <layer id="5" name="AlwaysFront4" width="66" height="33">
  <data encoding="csv">
0,0,0,0,0,0,0,0,0,0,0,0,4147,4148,4149,4150,4151,0,0,0,0,0,0,0,0,0,0,0,4457,4458,4459,4460,4461,0,0,0,0,0,0,0,0,0,0,0,0,0,0,0,0,0,0,0,0,4457,4458,4459,4460,4461,0,0,0,0,0,0,0,0,
0,0,0,0,0,0,0,0,0,0,0,0,4209,4210,4211,4212,4213,0,0,0,0,0,0,0,0,0,0,0,5139,0,0,0,0,0,0,0,0,0,0,0,0,0,0,0,0,0,0,0,0,0,0,0,0,0,0,0,0,0,0,0,0,0,0,0,0,0,
0,0,0,0,0,0,0,0,0,0,0,0,4271,4272,4273,4274,4275,0,0,0,0,0,0,0,0,0,0,0,5201,5202,0,5204,5205,0,0,0,0,0,0,0,0,0,0,0,0,0,0,0,0,0,0,0,0,0,0,0,0,0,0,0,0,0,0,0,4024,4025,
0,0,0,0,0,0,0,0,0,0,0,0,4333,4334,4335,4336,4337,0,0,0,0,0,0,0,0,0,0,0,0,0,0,0,0,0,0,0,0,0,0,0,0,0,0,0,0,0,0,0,0,0,0,0,0,0,0,0,0,0,0,0,0,0,0,0,4086,4087,
0,0,0,0,0,0,0,0,0,0,0,0,4395,4396,4397,4398,4399,0,0,0,0,0,0,0,0,0,0,0,0,0,0,0,0,0,0,0,0,0,0,0,0,0,0,0,0,0,0,0,0,0,0,0,0,0,0,0,0,0,0,0,0,0,0,4147,4148,4149,
0,0,0,0,0,0,0,0,0,0,0,0,4457,4458,4459,4460,4461,0,0,0,0,0,0,0,0,0,0,0,0,0,0,0,0,0,0,0,0,0,0,0,0,0,0,0,0,0,0,0,0,0,0,0,0,0,0,0,0,0,0,0,0,0,0,4209,4210,4211,
0,0,0,0,0,0,0,0,0,0,0,0,0,0,0,0,5143,0,0,0,0,0,0,0,0,0,0,0,0,0,0,0,0,0,0,0,0,0,0,0,0,0,0,0,0,0,0,0,0,0,0,0,0,0,0,0,0,0,0,0,0,0,0,4271,4272,4273,
0,0,0,0,0,0,0,0,0,0,0,0,0,0,0,0,0,0,0,0,0,0,0,0,0,0,0,0,0,0,0,0,0,0,0,0,0,0,0,0,0,0,0,0,0,0,0,0,0,0,0,0,0,0,0,0,0,0,0,0,0,0,0,4333,4334,4335,
0,0,0,0,0,0,0,0,0,0,0,0,0,0,0,0,0,0,0,0,0,0,0,0,0,0,0,0,0,0,0,0,0,0,0,0,0,0,0,0,0,0,0,0,0,0,0,0,0,0,0,0,0,0,0,0,0,0,0,0,0,0,0,4395,4396,4397,
4151,0,0,0,0,0,0,0,0,0,0,0,0,0,0,0,0,0,0,0,0,0,0,0,0,0,0,0,0,0,0,0,0,0,0,0,0,0,0,0,0,0,0,0,0,0,0,0,0,0,0,0,0,0,0,0,0,0,0,0,0,0,0,4457,4458,4459,
4213,0,0,0,0,0,0,0,0,0,0,0,0,0,0,0,0,0,0,0,0,0,0,0,0,0,0,0,0,0,0,0,0,0,0,0,0,0,0,0,0,0,0,0,0,0,0,0,0,0,0,0,0,0,0,0,0,0,0,0,0,0,0,0,0,0,
4275,0,0,0,0,0,0,0,0,0,0,0,0,0,0,0,0,0,0,0,0,0,0,0,0,0,0,0,0,0,0,0,0,0,0,0,0,0,0,0,0,0,0,0,0,0,0,0,0,0,0,0,0,0,0,0,0,0,0,0,0,0,0,0,0,0,
4337,0,0,0,0,0,0,0,0,0,0,0,0,0,0,0,0,0,0,0,0,0,0,0,0,0,0,0,0,0,0,0,0,0,0,0,0,0,0,0,0,0,0,0,0,0,0,0,0,0,0,0,0,0,0,0,0,0,0,0,0,0,0,0,0,0,
4399,0,0,0,0,0,0,0,0,0,0,0,0,0,0,0,0,0,0,0,0,0,0,0,0,0,0,0,0,0,0,0,0,0,0,0,0,0,0,0,0,0,0,0,0,0,0,0,0,0,0,0,0,0,0,0,0,0,0,0,0,0,0,0,0,0,
4461,0,0,0,0,0,0,0,0,0,0,0,0,0,0,0,0,0,0,0,0,0,0,0,0,0,0,0,0,0,0,0,0,0,0,0,0,0,0,0,0,0,0,0,0,0,0,0,0,0,0,0,0,0,0,0,0,0,0,0,0,0,0,0,0,0,
0,0,0,0,0,0,0,0,0,0,0,0,0,0,0,0,0,0,0,0,0,0,0,0,0,0,0,0,0,0,0,0,0,0,0,0,0,0,0,0,0,0,0,0,0,0,0,0,0,0,0,0,0,0,0,0,0,0,0,0,0,0,0,0,0,0,
0,0,0,0,0,0,0,0,0,0,0,0,0,0,0,0,0,0,0,0,0,0,0,0,0,0,0,0,0,0,0,0,0,0,0,0,0,0,0,0,0,0,0,0,0,0,0,0,0,0,0,0,0,0,0,0,0,0,0,0,0,0,0,0,0,0,
0,0,0,0,0,0,0,0,0,0,0,0,0,0,0,0,0,0,0,0,0,0,0,0,0,0,0,0,0,0,0,0,0,0,0,0,0,0,0,0,0,0,0,0,0,0,0,0,0,0,0,0,0,0,0,0,0,0,0,0,0,0,0,0,0,0,
0,0,0,0,0,0,0,0,0,0,0,0,0,0,0,0,0,0,0,0,0,0,0,0,0,0,0,0,0,0,0,0,0,0,0,0,0,0,0,0,0,0,0,0,0,0,0,0,0,0,0,0,0,0,0,0,0,0,0,0,0,0,0,0,0,4147,
0,0,0,0,0,0,0,0,0,0,0,0,0,0,0,0,0,0,0,0,0,0,0,0,0,0,0,0,0,0,0,0,0,0,0,0,0,0,0,0,0,0,0,0,0,0,0,0,0,0,0,0,0,0,0,0,0,0,0,0,0,0,0,0,0,4209,
0,0,0,0,0,0,0,0,0,0,0,0,0,0,0,0,0,0,0,0,0,0,0,0,0,0,0,0,0,0,0,0,0,0,0,0,0,0,0,0,0,0,0,0,0,0,0,0,0,0,0,0,0,0,0,0,0,0,0,0,0,0,0,0,0,4271,
0,0,0,0,0,0,0,0,0,0,0,0,0,0,0,0,0,0,0,0,0,0,0,0,0,0,0,0,0,0,0,0,0,0,0,0,0,0,0,0,0,0,0,0,0,0,0,0,0,0,0,0,0,0,0,0,0,0,0,0,0,0,0,0,0,4333,
4024,4025,4026,0,0,0,0,0,0,0,0,0,0,0,0,0,0,0,0,0,0,0,0,0,0,0,0,0,0,0,0,0,0,0,0,0,0,0,0,0,0,0,0,0,0,0,0,0,0,0,0,0,0,0,0,0,0,0,0,0,0,0,0,0,0,4395,
4086,4087,4088,0,0,0,0,0,0,0,0,0,0,0,0,0,0,0,0,0,0,0,0,0,0,0,0,0,0,0,0,0,0,0,0,0,0,0,0,0,0,0,0,0,0,0,0,0,0,0,0,0,0,0,0,0,0,0,0,0,0,0,0,0,0,4457,
4148,4149,4150,4151,0,0,0,0,0,0,0,0,0,0,0,0,0,0,0,0,0,0,0,0,0,0,0,0,0,0,0,0,0,0,0,0,0,0,0,0,0,0,0,0,0,0,0,0,0,0,0,0,0,0,0,0,0,0,0,0,0,0,0,0,0,0,
4210,4211,4212,4213,0,0,0,0,0,0,0,0,0,0,0,0,0,0,0,0,0,0,0,0,0,0,0,0,0,0,0,0,0,0,0,0,0,0,0,0,0,0,0,0,0,0,0,4023,4024,4025,4026,0,0,0,0,0,0,0,0,0,0,0,0,0,0,0,
4272,4273,4274,4275,0,0,0,0,0,0,0,0,0,0,0,0,0,0,0,0,0,0,0,0,0,0,0,0,0,0,0,0,0,0,0,0,0,0,0,0,0,0,0,0,0,0,0,4085,4086,4087,4088,0,0,0,0,0,0,0,0,0,0,0,0,0,0,0,
4334,4335,4336,4337,0,0,0,0,0,0,0,0,0,0,0,0,0,0,0,0,0,0,0,0,0,0,0,0,0,0,0,0,0,0,0,0,0,0,0,0,0,0,0,0,0,0,0,4147,4148,4149,4150,4151,0,0,0,0,0,0,0,0,0,0,0,0,0,0,
4396,4397,4398,4399,0,0,0,0,0,0,0,0,0,0,0,0,0,0,0,0,0,0,0,0,0,0,0,0,0,0,0,0,0,0,0,0,0,0,0,0,0,0,0,0,0,0,0,4209,4210,4211,4212,4213,0,0,0,0,0,0,0,0,0,0,0,0,0,0,
4458,4459,4460,4461,0,0,0,0,0,0,0,0,0,0,0,0,0,0,0,0,0,0,0,0,0,0,0,0,0,0,0,0,0,0,0,0,0,0,0,0,0,0,0,0,0,0,0,4271,4272,4273,4274,4275,0,0,0,0,0,0,0,0,0,0,0,0,0,0,
0,0,0,0,0,0,0,0,0,0,0,0,0,0,0,4024,4025,4026,0,0,0,0,0,0,4023,4024,4025,4026,4027,5260,5261,5262,0,0,0,0,0,0,0,0,0,0,0,0,0,0,0,4333,4334,4335,4336,4337,0,0,0,0,0,0,0,0,0,0,4024,4025,4026,0,
0,0,4024,4025,4026,0,0,0,0,0,0,0,0,0,0,4086,4087,4088,4709,0,0,0,0,0,4085,4086,4087,4088,4089,5322,5323,5324,0,0,0,5319,5320,5321,0,0,0,0,0,0,0,0,0,4395,4396,4397,4398,4399,0,0,0,0,0,0,0,0,0,0,4086,4087,4088,0,
0,0,4086,4087,4088,0,0,0,0,0,0,0,0,0,4147,4148,4149,4150,4151,0,0,0,0,0,4147,4148,4149,4150,4151,5384,5385,5386,0,0,0,5381,5382,5383,0,4023,4024,4025,4026,4027,0,0,0,4457,4458,4459,4460,4461,0,0,0,0,0,0,0,0,0,4147,4148,4149,4150,4151
</data>
 </layer>
 <objectgroup id="6" name="Back"/>
 <objectgroup id="7" name="Buildings"/>
 <objectgroup id="8" name="Front"/>
 <objectgroup id="9" name="Paths"/>
 <objectgroup id="10" name="AlwaysFront"/>
</map>
