<?xml version="1.0" encoding="UTF-8"?>
<map version="1.10" tiledversion="1.11.0" orientation="orthogonal" renderorder="right-down" compressionlevel="0" width="27" height="22" tilewidth="16" tileheight="16" infinite="0" nextlayerid="11" nextobjectid="33">
 <properties>
  <property name="AmbientLight" value="155 135 145"/>
  <property name="Music" value="WizardSong"/>
  <property name="Warp" value="2 20 Custom_Hikawa_Shrine 45 31 3 20 Custom_Hikawa_Shrine 45 31"/>
  <property name="WindowLight" value="7 4 4 9 4 4 10 4 4 12 4 4 6 6 4 3 8 4 1 9 4 1 10 4 1 11 4 1 16 4 1 18 4 4 17 4 7 17 4 10 17 4 13 17 4 15 17 4 22 6 4 24 6 4 24 8 4 18 19 4 21 19 4 24 19 4 24 16 4 24 13 4"/>
 </properties>
 <tileset firstgid="1" name="paths" tilewidth="16" tileheight="16" tilecount="32" columns="4">
  <image source="paths" width="64" height="128"/>
 </tileset>
 <tileset firstgid="33" source="HikawaHouse.tsx"/>
 <layer id="1" name="Back" width="27" height="22">
  <data encoding="csv">
0,0,0,0,0,0,0,0,0,0,0,0,0,0,0,0,0,0,0,0,0,0,0,0,0,0,0,
0,0,0,0,0,0,0,0,0,0,0,0,0,0,0,0,0,0,0,0,0,0,82,83,84,85,0,
0,0,0,0,0,0,0,0,0,0,0,0,0,0,0,0,0,0,0,0,0,0,109,110,111,112,0,
0,0,0,0,0,0,0,0,0,0,0,0,0,0,0,0,0,0,0,0,0,0,136,137,138,139,0,
0,0,0,0,0,0,0,0,0,0,0,0,0,0,0,0,0,0,0,0,0,0,0,0,0,0,0,
0,0,0,0,0,0,0,175,176,177,178,179,180,0,0,0,0,0,0,0,0,0,0,0,0,0,0,
0,0,0,0,0,0,201,202,203,204,205,206,207,208,0,0,0,0,0,0,0,0,0,0,0,0,0,
0,0,0,0,0,0,228,229,230,0,0,233,234,235,0,237,0,0,0,0,0,0,0,0,0,0,0,
0,250,251,252,253,254,255,256,257,0,0,260,261,262,263,264,265,266,267,268,269,270,271,272,273,0,0,
0,277,278,279,280,281,282,283,0,285,286,287,288,289,290,291,292,293,294,295,296,297,298,299,300,0,0,
0,304,305,306,307,308,309,310,311,312,313,314,315,316,317,318,319,0,0,322,323,0,0,0,0,0,0,
0,331,332,333,334,0,0,0,0,0,0,0,0,0,0,345,0,0,0,349,350,0,0,0,0,0,0,
0,358,359,360,361,0,0,0,0,0,0,0,0,0,0,372,0,0,0,376,377,0,0,0,0,0,0,
0,385,386,387,388,0,0,0,0,0,0,0,0,0,0,399,0,401,402,403,404,405,406,407,408,0,0,
0,412,413,414,415,0,0,0,0,0,0,0,0,0,0,426,0,0,429,430,431,432,0,0,0,0,0,
0,439,440,441,442,0,0,0,0,0,0,0,0,0,0,453,0,455,456,457,458,459,460,461,462,0,0,
0,466,467,468,469,470,471,472,473,474,475,476,0,0,0,480,0,482,483,484,485,486,487,488,489,0,0,
0,493,494,495,496,497,498,499,500,501,502,503,504,505,506,507,0,509,510,511,512,513,514,515,516,0,0,
0,520,521,522,523,0,0,0,0,0,0,0,0,0,0,0,0,536,537,538,539,540,541,542,543,0,0,
0,0,548,549,0,0,0,0,0,0,0,0,0,0,0,0,0,563,564,565,566,567,568,569,570,0,0,
0,0,0,0,0,0,0,0,0,0,0,0,0,0,0,0,0,0,0,0,0,0,0,0,0,0,0,
0,0,0,0,0,0,0,0,0,0,0,0,0,0,0,0,0,0,0,0,0,0,0,0,0,0,0
</data>
 </layer>
 <layer id="2" name="Buildings" width="27" height="22">
  <data encoding="csv">
33,33,33,33,33,38,39,40,41,42,43,44,45,46,47,33,33,33,33,33,33,33,33,33,33,33,33,
33,33,33,33,33,65,66,67,68,69,70,71,72,73,74,33,33,33,33,33,33,33,0,83,84,0,33,
33,33,33,33,33,92,93,94,95,96,97,98,99,100,101,102,103,104,33,33,33,33,560,110,111,561,33,
33,33,33,33,33,119,120,121,122,123,124,125,126,127,128,129,130,33,33,33,33,33,0,0,0,0,33,
141,142,143,144,145,146,147,148,149,150,151,152,153,154,155,156,157,158,159,160,161,162,163,164,165,166,33,
168,169,170,171,172,173,174,0,0,0,0,0,0,181,182,183,184,185,186,187,188,189,190,191,192,193,33,
195,196,197,198,199,200,0,0,0,0,0,0,0,0,209,210,211,212,213,214,215,216,217,218,219,220,33,
222,223,224,225,226,227,0,0,0,231,232,0,0,0,236,0,238,239,240,241,242,243,244,245,246,247,33,
249,0,0,0,0,0,0,0,0,258,259,0,0,0,0,0,0,0,0,0,0,0,0,0,0,274,33,
276,0,0,0,0,0,0,0,284,0,0,0,0,0,0,0,0,0,0,0,0,0,0,0,0,301,33,
303,0,0,0,0,0,0,0,0,0,0,0,0,0,0,0,0,0,0,0,0,0,0,0,0,328,33,
330,580,0,0,0,335,0,0,0,0,0,0,0,0,344,0,346,644,645,0,0,648,649,650,651,355,33,
357,607,0,0,0,362,33,33,33,33,33,33,33,33,371,0,373,671,672,0,0,675,676,677,678,382,33,
384,0,0,0,557,389,390,391,392,393,394,395,396,397,398,0,400,698,699,700,701,702,703,704,705,409,33,
411,0,0,0,584,416,417,418,419,420,421,422,423,424,425,0,427,685,0,0,0,0,631,632,633,436,33,
438,0,0,0,0,443,444,445,446,447,448,449,450,451,452,0,454,0,0,0,0,0,0,659,660,463,33,
465,0,0,0,0,0,0,0,0,0,0,0,477,478,479,0,481,0,0,0,79,80,0,0,687,490,33,
492,0,0,0,0,0,0,0,0,0,0,0,0,0,0,0,508,0,0,560,106,107,561,0,0,517,33,
519,581,0,0,0,524,525,526,527,528,529,530,531,532,533,534,535,0,0,0,0,0,0,0,0,544,33,
546,33,0,0,33,551,552,33,33,33,33,33,33,33,33,33,562,585,586,0,0,0,0,0,0,571,33,
573,33,0,0,33,578,33,33,33,33,33,33,33,33,33,588,589,590,591,592,593,594,595,596,597,598,33,
33,33,33,33,33,33,33,33,33,33,33,33,33,33,33,33,616,33,33,33,33,33,33,33,33,625,33
</data>
 </layer>
 <layer id="3" name="Front" width="27" height="22">
  <data encoding="csv">
0,0,0,0,0,0,0,0,0,0,0,0,0,0,0,0,0,0,0,0,0,0,0,0,0,0,0,
0,0,0,0,0,0,0,0,0,0,0,0,0,0,0,0,0,0,0,0,0,0,0,0,0,0,0,
0,0,0,0,0,0,0,0,0,0,0,0,0,0,0,0,0,0,0,0,0,0,0,0,0,0,0,
0,0,0,0,0,0,0,0,0,0,0,0,0,0,0,0,0,0,0,0,0,0,0,0,0,0,0,
0,0,0,0,0,0,0,0,0,0,0,0,0,0,0,0,0,0,0,0,0,0,0,0,0,0,0,
0,0,0,0,0,0,0,0,0,0,0,0,0,0,0,0,0,0,0,0,0,0,0,0,0,0,0,
0,0,0,0,0,0,0,0,0,0,556,0,0,0,0,0,0,0,0,0,0,0,0,0,0,0,0,
0,0,0,0,0,0,0,0,0,0,0,0,0,0,0,0,0,0,0,0,0,0,0,0,0,0,0,
0,0,0,0,0,0,0,0,0,0,0,0,0,0,0,0,0,0,0,0,0,0,0,0,0,0,0,
0,0,0,0,0,0,0,0,0,0,0,0,0,0,0,0,0,0,0,0,0,0,0,0,0,0,0,
0,553,0,0,0,0,0,0,0,0,0,0,0,0,0,0,0,320,321,0,0,324,325,326,327,0,0,
0,0,0,0,115,0,0,0,0,0,0,0,0,0,0,116,346,0,0,0,0,0,0,0,0,355,0,
0,0,0,0,117,362,363,364,365,366,367,368,369,370,371,118,0,0,672,673,674,675,0,0,0,0,0,
0,0,0,0,0,0,0,0,0,0,0,0,0,0,0,0,0,658,0,0,0,0,604,605,606,0,0,
0,0,0,0,0,0,0,0,0,0,0,0,0,0,0,0,0,0,0,0,0,0,0,0,0,0,0,
0,0,0,0,0,0,0,0,0,0,0,0,0,0,0,0,0,0,0,0,0,0,0,0,0,0,0,
0,0,0,0,0,0,0,0,583,0,0,0,0,0,0,0,0,0,0,0,0,0,0,0,0,0,0,
0,0,0,0,0,0,608,609,610,611,612,0,0,0,0,0,0,0,0,0,0,0,0,0,0,0,0,
0,581,582,0,0,64,0,0,0,0,0,0,0,0,0,0,0,0,559,0,0,0,0,0,0,0,0,
0,0,0,0,0,0,0,0,0,0,0,0,0,0,0,0,0,0,0,587,0,0,0,0,0,0,0,
0,0,0,0,0,0,0,0,0,0,0,0,0,0,0,0,0,0,0,0,0,0,0,0,0,0,0,
0,0,0,0,0,0,0,0,0,0,0,0,0,0,0,0,0,0,0,0,0,0,0,0,0,0,0
</data>
 </layer>
 <layer id="9" name="AlwaysFront" width="27" height="22">
  <data encoding="csv">
0,0,0,0,0,0,0,0,0,0,0,0,0,0,0,0,0,0,0,0,0,0,0,0,0,0,0,
0,0,0,0,0,0,0,0,0,0,0,0,0,0,0,0,0,0,0,0,0,0,0,0,0,0,0,
0,0,0,0,0,0,0,0,0,0,0,0,0,0,0,0,0,0,0,0,0,0,0,0,0,0,0,
0,0,0,0,0,0,0,0,0,0,0,0,0,0,0,0,0,0,0,0,0,0,0,0,0,0,0,
0,0,0,0,0,0,0,0,0,0,0,0,0,0,0,0,0,0,0,0,0,0,0,0,0,0,0,
0,0,0,0,0,0,0,0,0,0,0,0,0,0,0,0,0,0,0,0,0,0,0,0,0,0,0,
0,0,0,0,0,0,0,0,0,0,0,0,0,0,0,0,0,0,0,0,0,0,0,0,0,0,0,
0,0,0,0,0,0,0,0,0,0,0,0,0,0,0,0,0,0,0,0,0,0,0,0,0,0,0,
0,0,0,0,0,0,0,0,0,0,0,0,0,0,0,0,0,0,0,0,0,0,0,0,0,0,0,
0,0,0,0,0,0,0,0,0,0,0,0,0,0,0,0,0,0,0,0,0,0,0,0,0,0,0,
0,0,0,0,0,87,0,0,0,0,0,0,0,0,114,0,60,617,618,619,620,621,622,623,624,328,0,
0,0,0,0,0,335,336,337,338,339,340,341,342,343,344,0,0,644,645,646,647,648,649,650,651,0,0,
0,0,0,0,0,0,0,0,0,0,0,0,0,0,0,0,0,0,0,0,0,0,0,0,579,0,0,
0,0,0,0,0,0,0,0,0,0,0,0,0,0,0,0,0,0,0,0,0,0,0,0,0,0,0,
0,0,0,0,0,0,0,0,0,0,0,0,0,0,0,0,0,0,0,0,0,0,0,0,0,0,0,
0,0,0,0,0,0,0,0,0,0,0,0,0,0,0,0,0,0,0,0,0,0,0,0,0,0,0,
0,0,0,0,0,0,0,0,0,0,0,0,0,0,0,0,0,0,0,0,0,0,0,0,0,0,0,
0,554,555,0,0,37,0,0,0,0,0,0,0,0,0,0,0,0,0,0,0,0,0,0,0,0,0,
0,0,0,0,0,0,0,0,0,0,0,0,0,0,0,0,0,0,0,0,0,0,0,0,0,0,0,
0,547,575,576,550,0,0,0,0,0,0,0,0,0,0,0,0,0,0,0,0,0,0,0,0,0,0,
0,574,602,603,577,0,0,0,0,0,0,0,0,0,0,0,0,0,0,0,0,0,0,0,0,0,0,
0,0,0,0,0,0,0,0,0,0,0,0,0,0,0,0,0,0,0,0,0,0,0,0,0,0,0
</data>
 </layer>
 <layer id="4" name="Paths" width="27" height="22">
  <data encoding="csv">
0,0,0,0,0,0,0,0,0,0,0,0,0,0,0,0,0,0,0,0,0,0,0,0,0,0,0,
0,0,0,0,0,0,0,0,0,0,0,0,0,0,0,0,0,0,0,0,0,0,0,0,0,0,0,
0,0,0,0,0,0,0,0,0,0,0,0,0,0,0,0,0,0,0,0,0,0,0,0,0,0,0,
0,0,0,0,0,0,0,0,0,0,0,0,0,0,0,0,0,0,0,0,0,0,0,0,0,0,0,
0,0,0,0,0,0,0,0,0,0,0,0,0,0,0,0,0,0,0,0,0,0,0,0,0,0,0,
0,0,0,0,0,0,0,0,0,0,0,0,0,0,0,0,0,0,0,0,0,0,0,0,0,0,0,
0,0,0,0,0,0,0,0,0,0,0,0,0,0,0,0,0,0,0,0,0,0,0,0,0,0,0,
0,0,0,0,0,0,0,0,0,0,0,0,0,0,0,0,0,0,0,0,0,0,0,0,0,0,0,
0,0,0,0,0,0,0,0,0,0,0,0,0,0,0,0,0,0,0,0,0,0,0,0,0,0,0,
0,0,0,0,0,0,0,0,0,0,0,0,0,0,0,0,0,0,0,0,0,0,0,0,0,0,0,
0,0,0,0,0,0,0,0,0,0,0,0,0,0,0,0,0,0,0,0,0,0,0,0,0,0,0,
0,0,0,0,0,0,0,0,0,0,0,0,0,0,0,0,0,0,0,0,0,0,0,0,0,0,0,
0,0,0,0,0,0,0,0,0,0,0,0,0,0,0,0,0,0,0,0,0,0,0,0,0,0,0,
0,0,0,0,0,0,0,0,0,0,0,0,0,0,0,0,0,0,0,0,0,0,0,0,0,0,0,
0,0,0,0,0,0,0,0,0,0,0,0,0,0,0,0,0,0,0,0,0,0,0,0,0,0,0,
0,0,0,0,0,0,0,0,0,0,0,0,0,0,0,0,0,0,0,0,0,0,0,0,0,0,0,
0,0,0,0,0,0,0,0,0,0,0,0,0,0,0,0,0,0,0,0,0,0,0,0,0,0,0,
0,0,0,0,0,0,0,0,0,0,0,0,0,0,0,0,0,0,0,0,0,0,0,0,0,0,0,
0,0,0,0,0,0,0,0,0,0,0,0,0,0,0,0,0,0,0,0,0,0,0,0,0,0,0,
0,0,0,0,0,0,0,0,0,0,0,0,0,0,0,0,0,0,0,0,0,0,0,0,0,0,0,
0,0,0,0,0,0,0,0,0,0,0,0,0,0,0,0,0,0,0,0,0,0,0,0,0,0,0,
0,0,0,0,0,0,0,0,0,0,0,0,0,0,0,0,0,0,0,0,0,0,0,0,0,0,0
</data>
 </layer>
 <objectgroup id="5" name="Back">
  <object id="30" name="TileData" x="240" y="240" width="16" height="16">
   <properties>
    <property name="TouchAction" value="Custom_Hikawa_Sound sheep"/>
   </properties>
  </object>
  <object id="31" name="TileData" x="240" y="176" width="16" height="16">
   <properties>
    <property name="TouchAction" value="Custom_Hikawa_Sound sheep"/>
   </properties>
  </object>
  <object id="32" name="TileData" x="240" y="112" width="16" height="16">
   <properties>
    <property name="TouchAction" value="Custom_Hikawa_Sound sheep"/>
   </properties>
  </object>
 </objectgroup>
 <objectgroup id="6" name="Buildings">
  <object id="2" name="TileData" x="384" y="224" width="16" height="16">
   <properties>
    <property name="Action" value="Message &quot;Custom_Hikawa_House_Bookshelf&quot;"/>
   </properties>
  </object>
  <object id="8" name="TileData" x="176" y="240" width="16" height="16">
   <properties>
    <property name="Action" value="Message &quot;Custom_Hikawa_House_Logpile&quot;"/>
   </properties>
  </object>
  <object id="9" name="TileData" x="128" y="224" width="32" height="32">
   <properties>
    <property name="Action" value="Message &quot;Custom_Hikawa_House_KitchenShelf&quot;"/>
   </properties>
  </object>
  <object id="10" name="TileData" x="80" y="240" width="32" height="16">
   <properties>
    <property name="Action" value="Message &quot;Custom_Hikawa_House_Kitchen&quot;"/>
   </properties>
  </object>
  <object id="11" name="TileData" x="288" y="112" width="32" height="16">
   <properties>
    <property name="Action" value="Custom_Hikawa_House_Wardrobe"/>
   </properties>
  </object>
  <object id="14" name="TileData" x="144" y="128" width="32" height="16">
   <properties>
    <property name="Action" value="Message &quot;Custom_Hikawa_House_Hearth&quot;"/>
   </properties>
  </object>
  <object id="15" name="TileData" x="144" y="64" width="32" height="16">
   <properties>
    <property name="Action" value="Message &quot;Custom_Hikawa_House_Backdoor&quot;"/>
   </properties>
  </object>
  <object id="17" name="TileData" x="368" y="224" width="16" height="16">
   <properties>
    <property name="Action" value="Message &quot;Custom_Hikawa_House_Bear&quot;"/>
   </properties>
  </object>
  <object id="19" name="TileData" x="32" y="112" width="48" height="16">
   <properties>
    <property name="Action" value="Message &quot;Custom_Hikawa_House_Memorial&quot;"/>
   </properties>
  </object>
  <object id="24" name="TileData" x="400" y="128" width="16" height="48">
   <properties>
    <property name="Action" value="Message &quot;Custom_Hikawa_House_Window&quot;"/>
   </properties>
  </object>
  <object id="28" name="TileData" x="368" y="128" width="16" height="16">
   <properties>
    <property name="Action" value="Message &quot;Custom_Hikawa_House_Photos&quot;"/>
   </properties>
  </object>
 </objectgroup>
 <objectgroup id="7" name="Front"/>
 <objectgroup id="10" name="AlwaysFront"/>
 <objectgroup id="8" name="Paths"/>
</map>
